haminh109/Nowcasting-GDP-Growth/outputs/layer1_dfm/dfm_news_blocks.csv
vintage_period,target_quarter,impact_date,block,block_label,factor_name,signed_block_news,abs_block_news
2000-01,2000Q1,,,,,,
2000-02,2000Q1,2000-03,demand_orders_inventories,Demand / orders / inventories,demand,-0.052812409686296954,0.052812409686296954
2000-02,2000Q1,2000-03,financial_conditions,Financial conditions,financial,0.02054574266711281,0.02054574266711281
2000-02,2000Q1,2000-03,housing_construction,Housing & construction,housing,0.10835033466458893,0.10835033466458893
2000-02,2000Q1,2000-03,labor_market,Labor market,labor,0.0867743084664219,0.0867743084664219
2000-02,2000Q1,2000-03,prices_inflation,Prices & inflation,prices,-0.02379202159376768,0.02379202159376768
2000-02,2000Q1,2000-03,real_activity_income,Real activity & income,real_activity,-0.04196108246875308,0.04196108246875308
2000-02,2000Q1,2000-03,,,,-0.03871189677181743,0.03871189677181743
2000-03,2000Q1,2000-03,demand_orders_inventories,Demand / orders / inventories,demand,-0.09710102609015983,0.09710102609015983
2000-03,2000Q1,2000-03,financial_conditions,Financial conditions,financial,-0.04764027677867068,0.04764027677867068
2000-03,2000Q1,2000-03,housing_construction,Housing & construction,housing,0.020537724463046476,0.020537724463046476
2000-03,2000Q1,2000-03,labor_market,Labor market,labor,-0.12644785113359966,0.12644785113359966
2000-03,2000Q1,2000-03,prices_inflation,Prices & inflation,prices,-0.047436553528634434,0.047436553528634434
2000-03,2000Q1,2000-03,real_activity_income,Real activity & income,real_activity,-0.27312155186274295,0.27312155186274295
2000-04,2000Q2,2000-06,demand_orders_inventories,Demand / orders / inventories,demand,-0.01578100105559346,0.01578100105559346
2000-04,2000Q2,2000-06,financial_conditions,Financial conditions,financial,-0.10017354475569754,0.10017354475569754
2000-04,2000Q2,2000-06,housing_construction,Housing & construction,housing,-0.11450648487654494,0.11450648487654494
2000-04,2000Q2,2000-06,labor_market,Labor market,labor,-0.05353144239157791,0.05353144239157791
2000-04,2000Q2,2000-06,prices_inflation,Prices & inflation,prices,0.10366116353594083,0.10366116353594083
2000-04,2000Q2,2000-06,real_activity_income,Real activity & income,real_activity,0.047685340470872695,0.047685340470872695
2000-04,2000Q2,2000-06,,,,-0.15936842146722646,0.15936842146722646
2000-05,2000Q2,2000-06,demand_orders_inventories,Demand / orders / inventories,demand,-0.11509978713786774,0.11509978713786774
2000-05,2000Q2,2000-06,financial_conditions,Financial conditions,financial,-0.038319098764884665,0.038319098764884665
2000-05,2000Q2,2000-06,housing_construction,Housing & construction,housing,0.021856605260421304,0.021856605260421304
2000-05,2000Q2,2000-06,labor_market,Labor market,labor,0.05691370237145206,0.05691370237145206
2000-05,2000Q2,2000-06,prices_inflation,Prices & inflation,prices,-0.04334085173428358,0.04334085173428358
2000-05,2000Q2,2000-06,real_activity_income,Real activity & income,real_activity,0.1397727899589483,0.1397727899589483
2000-05,2000Q2,2000-06,,,,-0.08094216685730765,0.08094216685730765
2000-06,2000Q2,2000-06,demand_orders_inventories,Demand / orders / inventories,demand,0.008787983085348127,0.008787983085348127
2000-06,2000Q2,2000-06,financial_conditions,Financial conditions,financial,-0.02312332049365528,0.02312332049365528
2000-06,2000Q2,2000-06,housing_construction,Housing & construction,housing,0.01061961463418084,0.01061961463418084
2000-06,2000Q2,2000-06,labor_market,Labor market,labor,0.03627953528330784,0.03627953528330784
2000-06,2000Q2,2000-06,prices_inflation,Prices & inflation,prices,-0.007968883734451215,0.007968883734451215
2000-06,2000Q2,2000-06,real_activity_income,Real activity & income,real_activity,-0.015439646136602047,0.015439646136602047
2000-06,2000Q2,2000-06,,,,-321.7036074799556,321.7036074799556
2000-08,2000Q3,2000-09,demand_orders_inventories,Demand / orders / inventories,demand,0.0035437497527759866,0.0035437497527759866
2000-08,2000Q3,2000-09,financial_conditions,Financial conditions,financial,0.00029962787607403413,0.00029962787607403413
2000-08,2000Q3,2000-09,housing_construction,Housing & construction,housing,1.0612443351521354e-05,1.0612443351521354e-05
2000-08,2000Q3,2000-09,labor_market,Labor market,labor,0.002093213897471249,0.002093213897471249
2000-08,2000Q3,2000-09,prices_inflation,Prices & inflation,prices,0.0026123891778775062,0.0026123891778775062
2000-08,2000Q3,2000-09,real_activity_income,Real activity & income,real_activity,6.834187208116957e-05,6.834187208116957e-05
2000-08,2000Q3,2000-09,,,,0.3317538790185465,0.3317538790185465
2000-09,2000Q3,2000-09,demand_orders_inventories,Demand / orders / inventories,demand,0.00011206081756812535,0.00011206081756812535
2000-09,2000Q3,2000-09,financial_conditions,Financial conditions,financial,0.0062208806735531575,0.0062208806735531575
2000-09,2000Q3,2000-09,housing_construction,Housing & construction,housing,0.007782938381817533,0.007782938381817533
2000-09,2000Q3,2000-09,labor_market,Labor market,labor,-0.00033164742231849524,0.00033164742231849524
2000-09,2000Q3,2000-09,prices_inflation,Prices & inflation,prices,0.0008931876816082203,0.0008931876816082203
2000-09,2000Q3,2000-09,real_activity_income,Real activity & income,real_activity,-0.0005381043965880952,0.0005381043965880952
2000-09,2000Q3,2000-09,,,,-524.3101329546085,524.3101329546085
2000-11,2000Q4,2000-12,demand_orders_inventories,Demand / orders / inventories,demand,-0.053364987810495215,0.053364987810495215
2000-11,2000Q4,2000-12,financial_conditions,Financial conditions,financial,-0.012278880118634924,0.012278880118634924
2000-11,2000Q4,2000-12,housing_construction,Housing & construction,housing,0.0011572431978629904,0.0011572431978629904
2000-11,2000Q4,2000-12,labor_market,Labor market,labor,-0.03305919904318114,0.03305919904318114
2000-11,2000Q4,2000-12,prices_inflation,Prices & inflation,prices,-0.03556229705167183,0.03556229705167183
2000-11,2000Q4,2000-12,real_activity_income,Real activity & income,real_activity,-0.04145946610032242,0.04145946610032242
2000-11,2000Q4,2000-12,,,,-0.1965155818488588,0.1965155818488588
2000-12,2000Q4,2000-12,demand_orders_inventories,Demand / orders / inventories,demand,-0.007239380906349484,0.007239380906349484
2000-12,2000Q4,2000-12,financial_conditions,Financial conditions,financial,0.05199727443478857,0.05199727443478857
2000-12,2000Q4,2000-12,housing_construction,Housing & construction,housing,0.0018561304930381187,0.0018561304930381187
2000-12,2000Q4,2000-12,labor_market,Labor market,labor,-0.009590097340284516,0.009590097340284516
2000-12,2000Q4,2000-12,prices_inflation,Prices & inflation,prices,-0.004466777791242031,0.004466777791242031
2000-12,2000Q4,2000-12,real_activity_income,Real activity & income,real_activity,-0.01211709817037027,0.01211709817037027
2000-12,2000Q4,2000-12,,,,-324.1132310089529,324.1132310089529
2001-02,2001Q1,2001-03,demand_orders_inventories,Demand / orders / inventories,demand,0.01100366021422434,0.01100366021422434
2001-02,2001Q1,2001-03,financial_conditions,Financial conditions,financial,-0.026260938779538643,0.026260938779538643
2001-02,2001Q1,2001-03,housing_construction,Housing & construction,housing,0.007677680878202889,0.007677680878202889
2001-02,2001Q1,2001-03,labor_market,Labor market,labor,0.0710233485974998,0.0710233485974998
2001-02,2001Q1,2001-03,prices_inflation,Prices & inflation,prices,0.02908527428928394,0.02908527428928394
2001-02,2001Q1,2001-03,real_activity_income,Real activity & income,real_activity,0.11559230580170353,0.11559230580170353
2001-02,2001Q1,2001-03,,,,-0.04367470542931062,0.04367470542931062
2001-03,2001Q1,2001-03,demand_orders_inventories,Demand / orders / inventories,demand,0.0010601991802377977,0.0010601991802377977
2001-03,2001Q1,2001-03,financial_conditions,Financial conditions,financial,0.01584776279990074,0.01584776279990074
2001-03,2001Q1,2001-03,housing_construction,Housing & construction,housing,-0.0026326167715451073,0.0026326167715451073
2001-03,2001Q1,2001-03,labor_market,Labor market,labor,0.0007076613749980643,0.0007076613749980643
2001-03,2001Q1,2001-03,prices_inflation,Prices & inflation,prices,0.006548613183987655,0.006548613183987655
2001-03,2001Q1,2001-03,real_activity_income,Real activity & income,real_activity,8.859560966847279e-06,8.859560966847279e-06
2001-03,2001Q1,2001-03,,,,-401.1124989125357,401.1124989125357
2001-05,2001Q2,2001-06,demand_orders_inventories,Demand / orders / inventories,demand,-0.02050346388398167,0.02050346388398167
2001-05,2001Q2,2001-06,financial_conditions,Financial conditions,financial,0.0046525680022022125,0.0046525680022022125
2001-05,2001Q2,2001-06,housing_construction,Housing & construction,housing,-0.002863465004834089,0.002863465004834089
2001-05,2001Q2,2001-06,labor_market,Labor market,labor,-0.06698891468519712,0.06698891468519712
2001-05,2001Q2,2001-06,prices_inflation,Prices & inflation,prices,0.043945823297264694,0.043945823297264694
2001-05,2001Q2,2001-06,real_activity_income,Real activity & income,real_activity,-0.00513751681223453,0.00513751681223453
2001-05,2001Q2,2001-06,,,,0.10743488515998673,0.10743488515998673
2001-06,2001Q2,2001-06,demand_orders_inventories,Demand / orders / inventories,demand,-0.005387099787799048,0.005387099787799048
2001-06,2001Q2,2001-06,financial_conditions,Financial conditions,financial,-0.04946796877236382,0.04946796877236382
2001-06,2001Q2,2001-06,housing_construction,Housing & construction,housing,0.015204060733430105,0.015204060733430105
2001-06,2001Q2,2001-06,labor_market,Labor market,labor,-0.0009113738620058669,0.0009113738620058669
2001-06,2001Q2,2001-06,prices_inflation,Prices & inflation,prices,0.006316602939326628,0.006316602939326628
2001-06,2001Q2,2001-06,real_activity_income,Real activity & income,real_activity,0.0014594479855947196,0.0014594479855947196
2001-06,2001Q2,2001-06,,,,-327.97946105529087,327.97946105529087
2001-08,2001Q3,2001-09,demand_orders_inventories,Demand / orders / inventories,demand,-0.02870979848060419,0.02870979848060419
2001-08,2001Q3,2001-09,financial_conditions,Financial conditions,financial,0.016800853478885353,0.016800853478885353
2001-08,2001Q3,2001-09,housing_construction,Housing & construction,housing,0.0002987882587087538,0.0002987882587087538
2001-08,2001Q3,2001-09,labor_market,Labor market,labor,0.0195344875501018,0.0195344875501018
2001-08,2001Q3,2001-09,prices_inflation,Prices & inflation,prices,-0.05258307282664774,0.05258307282664774
2001-08,2001Q3,2001-09,real_activity_income,Real activity & income,real_activity,0.02119812676576976,0.02119812676576976
2001-08,2001Q3,2001-09,,,,-0.08764435270143028,0.08764435270143028
2001-09,2001Q3,2001-09,demand_orders_inventories,Demand / orders / inventories,demand,2.5380864632532568e-05,2.5380864632532568e-05
2001-09,2001Q3,2001-09,financial_conditions,Financial conditions,financial,0.008724376567592174,0.008724376567592174
2001-09,2001Q3,2001-09,housing_construction,Housing & construction,housing,-0.00456712914518347,0.00456712914518347
2001-09,2001Q3,2001-09,labor_market,Labor market,labor,0.01583000415462017,0.01583000415462017
2001-09,2001Q3,2001-09,prices_inflation,Prices & inflation,prices,0.010442860954413115,0.010442860954413115
2001-09,2001Q3,2001-09,real_activity_income,Real activity & income,real_activity,0.0022482305497371347,0.0022482305497371347
2001-09,2001Q3,2001-09,,,,-530.8851179819882,530.8851179819882
2001-11,2001Q4,2001-12,demand_orders_inventories,Demand / orders / inventories,demand,0.11655180274287774,0.11655180274287774
2001-11,2001Q4,2001-12,financial_conditions,Financial conditions,financial,0.019388179573932473,0.019388179573932473
2001-11,2001Q4,2001-12,housing_construction,Housing & construction,housing,0.0027136297969609343,0.0027136297969609343
2001-11,2001Q4,2001-12,labor_market,Labor market,labor,-0.019301737536373133,0.019301737536373133
2001-11,2001Q4,2001-12,prices_inflation,Prices & inflation,prices,0.10926806049223267,0.10926806049223267
2001-11,2001Q4,2001-12,real_activity_income,Real activity & income,real_activity,-0.005019738178855329,0.005019738178855329
2001-11,2001Q4,2001-12,,,,-0.34226879087436374,0.34226879087436374
2001-12,2001Q4,2001-12,demand_orders_inventories,Demand / orders / inventories,demand,-0.019992388503429506,0.019992388503429506
2001-12,2001Q4,2001-12,financial_conditions,Financial conditions,financial,0.012522325465622899,0.012522325465622899
2001-12,2001Q4,2001-12,housing_construction,Housing & construction,housing,-0.023409918217835196,0.023409918217835196
2001-12,2001Q4,2001-12,labor_market,Labor market,labor,0.0317697521519882,0.0317697521519882
2001-12,2001Q4,2001-12,prices_inflation,Prices & inflation,prices,0.029691804288415852,0.029691804288415852
2001-12,2001Q4,2001-12,real_activity_income,Real activity & income,real_activity,0.04617046684743242,0.04617046684743242
2001-12,2001Q4,2001-12,,,,-513.902510667341,513.902510667341
2002-02,2002Q1,2002-03,demand_orders_inventories,Demand / orders / inventories,demand,0.07205090351708461,0.07205090351708461
2002-02,2002Q1,2002-03,financial_conditions,Financial conditions,financial,-0.00921623232962286,0.00921623232962286
2002-02,2002Q1,2002-03,housing_construction,Housing & construction,housing,-0.0013257218072031366,0.0013257218072031366
2002-02,2002Q1,2002-03,labor_market,Labor market,labor,-0.0036812932774401385,0.0036812932774401385
2002-02,2002Q1,2002-03,prices_inflation,Prices & inflation,prices,0.01009601951542758,0.01009601951542758
2002-02,2002Q1,2002-03,real_activity_income,Real activity & income,real_activity,0.006877949201903115,0.006877949201903115
2002-02,2002Q1,2002-03,,,,-0.1342809962313676,0.1342809962313676
2002-03,2002Q1,2002-03,demand_orders_inventories,Demand / orders / inventories,demand,0.005919522311230092,0.005919522311230092
2002-03,2002Q1,2002-03,financial_conditions,Financial conditions,financial,0.006603551674437624,0.006603551674437624
2002-03,2002Q1,2002-03,housing_construction,Housing & construction,housing,0.004261113253769309,0.004261113253769309
2002-03,2002Q1,2002-03,labor_market,Labor market,labor,-0.0019735844032459427,0.0019735844032459427
2002-03,2002Q1,2002-03,prices_inflation,Prices & inflation,prices,0.002032746151712274,0.002032746151712274
2002-03,2002Q1,2002-03,real_activity_income,Real activity & income,real_activity,0.0007387107939288694,0.0007387107939288694
2002-03,2002Q1,2002-03,,,,-586.5698256361637,586.5698256361637
2002-05,2002Q2,2002-06,demand_orders_inventories,Demand / orders / inventories,demand,-0.020558411116260288,0.020558411116260288
2002-05,2002Q2,2002-06,financial_conditions,Financial conditions,financial,-0.003342542583262136,0.003342542583262136
2002-05,2002Q2,2002-06,housing_construction,Housing & construction,housing,0.0035830391681664054,0.0035830391681664054
2002-05,2002Q2,2002-06,labor_market,Labor market,labor,0.0010746863359628305,0.0010746863359628305
2002-05,2002Q2,2002-06,prices_inflation,Prices & inflation,prices,-0.024899224073428997,0.024899224073428997
2002-05,2002Q2,2002-06,real_activity_income,Real activity & income,real_activity,0.0018451485377244587,0.0018451485377244587
2002-05,2002Q2,2002-06,,,,0.10909687227357757,0.10909687227357757
2002-06,2002Q2,2002-06,demand_orders_inventories,Demand / orders / inventories,demand,-0.0098297254882922,0.0098297254882922
2002-06,2002Q2,2002-06,financial_conditions,Financial conditions,financial,0.014584985134227693,0.014584985134227693
2002-06,2002Q2,2002-06,housing_construction,Housing & construction,housing,-0.010005788570590094,0.010005788570590094
2002-06,2002Q2,2002-06,labor_market,Labor market,labor,-0.005925772428703136,0.005925772428703136
2002-06,2002Q2,2002-06,prices_inflation,Prices & inflation,prices,0.00973562784936586,0.00973562784936586
2002-06,2002Q2,2002-06,real_activity_income,Real activity & income,real_activity,0.007985794176925473,0.007985794176925473
2002-06,2002Q2,2002-06,,,,-548.8693689824744,548.8693689824744
2002-08,2002Q3,2002-09,demand_orders_inventories,Demand / orders / inventories,demand,-0.021941054182444058,0.021941054182444058
2002-08,2002Q3,2002-09,financial_conditions,Financial conditions,financial,0.00323590635289059,0.00323590635289059
2002-08,2002Q3,2002-09,housing_construction,Housing & construction,housing,0.0023158455027749653,0.0023158455027749653
2002-08,2002Q3,2002-09,labor_market,Labor market,labor,-0.0050121223373372605,0.0050121223373372605
2002-08,2002Q3,2002-09,prices_inflation,Prices & inflation,prices,-0.019849859993304807,0.019849859993304807
2002-08,2002Q3,2002-09,real_activity_income,Real activity & income,real_activity,-0.024273948862415844,0.024273948862415844
2002-08,2002Q3,2002-09,,,,-0.6609368672825039,0.6609368672825039
2002-09,2002Q3,2002-09,demand_orders_inventories,Demand / orders / inventories,demand,-0.02163540258599794,0.02163540258599794
2002-09,2002Q3,2002-09,financial_conditions,Financial conditions,financial,0.036269056521725455,0.036269056521725455
2002-09,2002Q3,2002-09,housing_construction,Housing & construction,housing,0.0037037096410479685,0.0037037096410479685
2002-09,2002Q3,2002-09,labor_market,Labor market,labor,-0.00160675452692495,0.00160675452692495
2002-09,2002Q3,2002-09,prices_inflation,Prices & inflation,prices,0.01171529197386474,0.01171529197386474
2002-09,2002Q3,2002-09,real_activity_income,Real activity & income,real_activity,0.0005058698548981522,0.0005058698548981522
2002-09,2002Q3,2002-09,,,,-428.65274752174935,428.65274752174935
2002-11,2002Q4,2002-12,demand_orders_inventories,Demand / orders / inventories,demand,0.010053122686971906,0.010053122686971906
2002-11,2002Q4,2002-12,financial_conditions,Financial conditions,financial,0.0037454490389782448,0.0037454490389782448
2002-11,2002Q4,2002-12,housing_construction,Housing & construction,housing,-0.004310904676396785,0.004310904676396785
2002-11,2002Q4,2002-12,labor_market,Labor market,labor,0.002291875472597551,0.002291875472597551
2002-11,2002Q4,2002-12,prices_inflation,Prices & inflation,prices,0.0007185843412434848,0.0007185843412434848
2002-11,2002Q4,2002-12,real_activity_income,Real activity & income,real_activity,-0.0056952892149294415,0.0056952892149294415
2002-11,2002Q4,2002-12,,,,0.1458622339738481,0.1458622339738481
2002-12,2002Q4,2002-12,demand_orders_inventories,Demand / orders / inventories,demand,0.02640688632400044,0.02640688632400044
2002-12,2002Q4,2002-12,financial_conditions,Financial conditions,financial,0.0017691458309930632,0.0017691458309930632
2002-12,2002Q4,2002-12,housing_construction,Housing & construction,housing,0.013082024480496115,0.013082024480496115
2002-12,2002Q4,2002-12,labor_market,Labor market,labor,0.011300921281572365,0.011300921281572365
2002-12,2002Q4,2002-12,prices_inflation,Prices & inflation,prices,0.004704595491333995,0.004704595491333995
2002-12,2002Q4,2002-12,real_activity_income,Real activity & income,real_activity,0.006563873694214086,0.006563873694214086
2002-12,2002Q4,2002-12,,,,-364.1492864656451,364.1492864656451
2003-02,2003Q1,2003-03,demand_orders_inventories,Demand / orders / inventories,demand,0.03889938287817551,0.03889938287817551
2003-02,2003Q1,2003-03,financial_conditions,Financial conditions,financial,0.00144949388866746,0.00144949388866746
2003-02,2003Q1,2003-03,housing_construction,Housing & construction,housing,-0.0016375328671658013,0.0016375328671658013
2003-02,2003Q1,2003-03,labor_market,Labor market,labor,0.02383592979365253,0.02383592979365253
2003-02,2003Q1,2003-03,prices_inflation,Prices & inflation,prices,-0.010146471277278284,0.010146471277278284
2003-02,2003Q1,2003-03,real_activity_income,Real activity & income,real_activity,0.019712753882742476,0.019712753882742476
2003-02,2003Q1,2003-03,,,,-0.32922008918335227,0.32922008918335227
2003-03,2003Q1,2003-03,demand_orders_inventories,Demand / orders / inventories,demand,-0.021690542765149985,0.021690542765149985
2003-03,2003Q1,2003-03,financial_conditions,Financial conditions,financial,0.035448576843848854,0.035448576843848854
2003-03,2003Q1,2003-03,housing_construction,Housing & construction,housing,0.06448679264985124,0.06448679264985124
2003-03,2003Q1,2003-03,labor_market,Labor market,labor,-0.033855088851990296,0.033855088851990296
2003-03,2003Q1,2003-03,prices_inflation,Prices & inflation,prices,0.027383929828451656,0.027383929828451656
2003-03,2003Q1,2003-03,real_activity_income,Real activity & income,real_activity,-0.056627664550482064,0.056627664550482064
2003-03,2003Q1,2003-03,,,,-249.9313403909717,249.9313403909717
2003-05,2003Q2,2003-06,demand_orders_inventories,Demand / orders / inventories,demand,0.01651724120616953,0.01651724120616953
2003-05,2003Q2,2003-06,financial_conditions,Financial conditions,financial,-0.006501703315954677,0.006501703315954677
2003-05,2003Q2,2003-06,housing_construction,Housing & construction,housing,-0.004103618287694089,0.004103618287694089
2003-05,2003Q2,2003-06,labor_market,Labor market,labor,0.03297207546327203,0.03297207546327203
2003-05,2003Q2,2003-06,prices_inflation,Prices & inflation,prices,-0.029287236831566817,0.029287236831566817
2003-05,2003Q2,2003-06,real_activity_income,Real activity & income,real_activity,-0.018181850884193114,0.018181850884193114
2003-05,2003Q2,2003-06,,,,-0.11861435022285317,0.11861435022285317
2003-06,2003Q2,2003-06,demand_orders_inventories,Demand / orders / inventories,demand,-0.035659304447712176,0.035659304447712176
2003-06,2003Q2,2003-06,financial_conditions,Financial conditions,financial,-0.006425202755444312,0.006425202755444312
2003-06,2003Q2,2003-06,housing_construction,Housing & construction,housing,0.003906634910481759,0.003906634910481759
2003-06,2003Q2,2003-06,labor_market,Labor market,labor,0.0026046538635387294,0.0026046538635387294
2003-06,2003Q2,2003-06,prices_inflation,Prices & inflation,prices,0.02396243875279538,0.02396243875279538
2003-06,2003Q2,2003-06,real_activity_income,Real activity & income,real_activity,-0.01893582772826408,0.01893582772826408
2003-06,2003Q2,2003-06,,,,-547.3880682840655,547.3880682840655
2003-08,2003Q3,2003-09,demand_orders_inventories,Demand / orders / inventories,demand,0.0015888238892255969,0.0015888238892255969
2003-08,2003Q3,2003-09,financial_conditions,Financial conditions,financial,-0.0012365526346080364,0.0012365526346080364
2003-08,2003Q3,2003-09,housing_construction,Housing & construction,housing,-0.000585839447424268,0.000585839447424268
2003-08,2003Q3,2003-09,labor_market,Labor market,labor,-0.00018078242741391312,0.00018078242741391312
2003-08,2003Q3,2003-09,prices_inflation,Prices & inflation,prices,0.00040149262148777936,0.00040149262148777936
2003-08,2003Q3,2003-09,real_activity_income,Real activity & income,real_activity,-0.0006276945947388679,0.0006276945947388679
2003-08,2003Q3,2003-09,,,,-0.14984306116706875,0.14984306116706875
2003-09,2003Q3,2003-09,demand_orders_inventories,Demand / orders / inventories,demand,-0.06266196049252255,0.06266196049252255
2003-09,2003Q3,2003-09,financial_conditions,Financial conditions,financial,-0.03246384133240511,0.03246384133240511
2003-09,2003Q3,2003-09,housing_construction,Housing & construction,housing,-0.011042676417323542,0.011042676417323542
2003-09,2003Q3,2003-09,labor_market,Labor market,labor,0.010422325170560933,0.010422325170560933
2003-09,2003Q3,2003-09,prices_inflation,Prices & inflation,prices,-0.002994988059751831,0.002994988059751831
2003-09,2003Q3,2003-09,real_activity_income,Real activity & income,real_activity,-0.006463901325243054,0.006463901325243054
2003-09,2003Q3,2003-09,,,,-454.4141706728279,454.4141706728279
2003-11,2003Q4,2003-12,demand_orders_inventories,Demand / orders / inventories,demand,-0.024002461369465624,0.024002461369465624
2003-11,2003Q4,2003-12,financial_conditions,Financial conditions,financial,-0.010182031490683939,0.010182031490683939
2003-11,2003Q4,2003-12,housing_construction,Housing & construction,housing,0.0017753359695603876,0.0017753359695603876
2003-11,2003Q4,2003-12,labor_market,Labor market,labor,0.001148878889422317,0.001148878889422317
2003-11,2003Q4,2003-12,prices_inflation,Prices & inflation,prices,0.0002058704989459344,0.0002058704989459344
2003-11,2003Q4,2003-12,real_activity_income,Real activity & income,real_activity,-0.004797505673923535,0.004797505673923535
2003-11,2003Q4,2003-12,,,,0.4107211041022889,0.4107211041022889
2003-12,2003Q4,2003-12,demand_orders_inventories,Demand / orders / inventories,demand,-0.008511465516130938,0.008511465516130938
2003-12,2003Q4,2003-12,financial_conditions,Financial conditions,financial,-0.007287643655439098,0.007287643655439098
2003-12,2003Q4,2003-12,housing_construction,Housing & construction,housing,-0.0038333511673429898,0.0038333511673429898
2003-12,2003Q4,2003-12,labor_market,Labor market,labor,-0.0010788623529305102,0.0010788623529305102
2003-12,2003Q4,2003-12,prices_inflation,Prices & inflation,prices,0.0006376108533345352,0.0006376108533345352
2003-12,2003Q4,2003-12,real_activity_income,Real activity & income,real_activity,0.0002357777258106021,0.0002357777258106021
2003-12,2003Q4,2003-12,,,,-577.0842782084803,577.0842782084803
2004-02,2004Q1,2004-03,demand_orders_inventories,Demand / orders / inventories,demand,-0.018945286990061937,0.018945286990061937
2004-02,2004Q1,2004-03,financial_conditions,Financial conditions,financial,0.013029937771684756,0.013029937771684756
2004-02,2004Q1,2004-03,housing_construction,Housing & construction,housing,0.0020956132648494888,0.0020956132648494888
2004-02,2004Q1,2004-03,labor_market,Labor market,labor,0.013448042971501178,0.013448042971501178
2004-02,2004Q1,2004-03,prices_inflation,Prices & inflation,prices,0.008832197326759026,0.008832197326759026
2004-02,2004Q1,2004-03,real_activity_income,Real activity & income,real_activity,-0.018178823227116593,0.018178823227116593
2004-02,2004Q1,2004-03,,,,-0.1774019699925988,0.1774019699925988
2004-03,2004Q1,2004-03,demand_orders_inventories,Demand / orders / inventories,demand,-0.0002562108945870638,0.0002562108945870638
2004-03,2004Q1,2004-03,financial_conditions,Financial conditions,financial,0.016159642586413624,0.016159642586413624
2004-03,2004Q1,2004-03,housing_construction,Housing & construction,housing,0.011064264376789004,0.011064264376789004
2004-03,2004Q1,2004-03,labor_market,Labor market,labor,0.010981091823983978,0.010981091823983978
2004-03,2004Q1,2004-03,prices_inflation,Prices & inflation,prices,-0.02377843944381064,0.02377843944381064
2004-03,2004Q1,2004-03,real_activity_income,Real activity & income,real_activity,0.03472905351381575,0.03472905351381575
2004-03,2004Q1,2004-03,,,,-382.6054262111807,382.6054262111807
2004-05,2004Q2,2004-06,demand_orders_inventories,Demand / orders / inventories,demand,-0.008958417288679363,0.008958417288679363
2004-05,2004Q2,2004-06,financial_conditions,Financial conditions,financial,0.006162988487899194,0.006162988487899194
2004-05,2004Q2,2004-06,housing_construction,Housing & construction,housing,0.0008184662248680822,0.0008184662248680822
2004-05,2004Q2,2004-06,labor_market,Labor market,labor,0.00016500628880772528,0.00016500628880772528
2004-05,2004Q2,2004-06,prices_inflation,Prices & inflation,prices,-0.005517014233691787,0.005517014233691787
2004-05,2004Q2,2004-06,real_activity_income,Real activity & income,real_activity,-0.0018876260066520002,0.0018876260066520002
2004-05,2004Q2,2004-06,,,,0.09508845792737687,0.09508845792737687
2004-06,2004Q2,2004-06,demand_orders_inventories,Demand / orders / inventories,demand,-0.030976116148687914,0.030976116148687914
2004-06,2004Q2,2004-06,financial_conditions,Financial conditions,financial,-0.04223294776714087,0.04223294776714087
2004-06,2004Q2,2004-06,housing_construction,Housing & construction,housing,-0.014497229631544623,0.014497229631544623
2004-06,2004Q2,2004-06,labor_market,Labor market,labor,-0.011444559977370173,0.011444559977370173
2004-06,2004Q2,2004-06,prices_inflation,Prices & inflation,prices,-0.05466700494937127,0.05466700494937127
2004-06,2004Q2,2004-06,real_activity_income,Real activity & income,real_activity,-0.017964020195601883,0.017964020195601883
2004-06,2004Q2,2004-06,,,,-266.7785615885242,266.7785615885242
2004-08,2004Q3,2004-09,demand_orders_inventories,Demand / orders / inventories,demand,0.044863485365581865,0.044863485365581865
2004-08,2004Q3,2004-09,financial_conditions,Financial conditions,financial,-0.004001614956445609,0.004001614956445609
2004-08,2004Q3,2004-09,housing_construction,Housing & construction,housing,-0.0018230279557151707,0.0018230279557151707
2004-08,2004Q3,2004-09,labor_market,Labor market,labor,-0.02085334806849635,0.02085334806849635
2004-08,2004Q3,2004-09,prices_inflation,Prices & inflation,prices,-0.036552155652900965,0.036552155652900965
2004-08,2004Q3,2004-09,real_activity_income,Real activity & income,real_activity,0.004510342781052551,0.004510342781052551
2004-08,2004Q3,2004-09,,,,-0.17167626548855897,0.17167626548855897
2004-09,2004Q3,2004-09,demand_orders_inventories,Demand / orders / inventories,demand,-0.027628049984705586,0.027628049984705586
2004-09,2004Q3,2004-09,financial_conditions,Financial conditions,financial,0.02092629566173552,0.02092629566173552
2004-09,2004Q3,2004-09,housing_construction,Housing & construction,housing,-0.018157940738215483,0.018157940738215483
2004-09,2004Q3,2004-09,labor_market,Labor market,labor,-0.0421540948185147,0.0421540948185147
2004-09,2004Q3,2004-09,prices_inflation,Prices & inflation,prices,-0.004646808889630619,0.004646808889630619
2004-09,2004Q3,2004-09,real_activity_income,Real activity & income,real_activity,-0.016295389496070803,0.016295389496070803
2004-09,2004Q3,2004-09,,,,-272.70177966911433,272.70177966911433
2004-11,2004Q4,2004-12,demand_orders_inventories,Demand / orders / inventories,demand,-0.02126349658325805,0.02126349658325805
2004-11,2004Q4,2004-12,financial_conditions,Financial conditions,financial,0.007031530858373125,0.007031530858373125
2004-11,2004Q4,2004-12,housing_construction,Housing & construction,housing,0.07549722792801838,0.07549722792801838
2004-11,2004Q4,2004-12,labor_market,Labor market,labor,0.14845349514685213,0.14845349514685213
2004-11,2004Q4,2004-12,prices_inflation,Prices & inflation,prices,0.005526359061480338,0.005526359061480338
2004-11,2004Q4,2004-12,real_activity_income,Real activity & income,real_activity,0.13673863484665605,0.13673863484665605
2004-11,2004Q4,2004-12,,,,0.017037932269156113,0.017037932269156113
2004-12,2004Q4,2004-12,demand_orders_inventories,Demand / orders / inventories,demand,-0.03996811858336741,0.03996811858336741
2004-12,2004Q4,2004-12,financial_conditions,Financial conditions,financial,0.008168436007185111,0.008168436007185111
2004-12,2004Q4,2004-12,housing_construction,Housing & construction,housing,0.07332796418590572,0.07332796418590572
2004-12,2004Q4,2004-12,labor_market,Labor market,labor,0.001241749911727761,0.001241749911727761
2004-12,2004Q4,2004-12,prices_inflation,Prices & inflation,prices,-0.04984287617423816,0.04984287617423816
2004-12,2004Q4,2004-12,real_activity_income,Real activity & income,real_activity,-0.005792658503906473,0.005792658503906473
2004-12,2004Q4,2004-12,,,,-307.77808008471834,307.77808008471834
2005-02,2005Q1,2005-03,demand_orders_inventories,Demand / orders / inventories,demand,-0.008606230484983463,0.008606230484983463
2005-02,2005Q1,2005-03,financial_conditions,Financial conditions,financial,-0.010177162048302435,0.010177162048302435
2005-02,2005Q1,2005-03,housing_construction,Housing & construction,housing,0.0024455372299877925,0.0024455372299877925
2005-02,2005Q1,2005-03,labor_market,Labor market,labor,0.009075840331440151,0.009075840331440151
2005-02,2005Q1,2005-03,prices_inflation,Prices & inflation,prices,-0.023999638834815085,0.023999638834815085
2005-02,2005Q1,2005-03,real_activity_income,Real activity & income,real_activity,-0.16506393675349354,0.16506393675349354
2005-02,2005Q1,2005-03,,,,-0.1555619221108855,0.1555619221108855
2005-03,2005Q1,2005-03,demand_orders_inventories,Demand / orders / inventories,demand,0.0061623583978276724,0.0061623583978276724
2005-03,2005Q1,2005-03,financial_conditions,Financial conditions,financial,0.01156385509811442,0.01156385509811442
2005-03,2005Q1,2005-03,housing_construction,Housing & construction,housing,0.000925674357558907,0.000925674357558907
2005-03,2005Q1,2005-03,labor_market,Labor market,labor,-0.000945891470191263,0.000945891470191263
2005-03,2005Q1,2005-03,prices_inflation,Prices & inflation,prices,0.0007034959091173776,0.0007034959091173776
2005-03,2005Q1,2005-03,real_activity_income,Real activity & income,real_activity,0.016134635871289445,0.016134635871289445
2005-03,2005Q1,2005-03,,,,-506.16182508307804,506.16182508307804
2005-05,2005Q2,2005-06,demand_orders_inventories,Demand / orders / inventories,demand,0.0038076218134877023,0.0038076218134877023
2005-05,2005Q2,2005-06,financial_conditions,Financial conditions,financial,0.006489975150708478,0.006489975150708478
2005-05,2005Q2,2005-06,housing_construction,Housing & construction,housing,-0.0007852137621234458,0.0007852137621234458
2005-05,2005Q2,2005-06,labor_market,Labor market,labor,0.007326661983885117,0.007326661983885117
2005-05,2005Q2,2005-06,prices_inflation,Prices & inflation,prices,0.005839701605835777,0.005839701605835777
2005-05,2005Q2,2005-06,real_activity_income,Real activity & income,real_activity,-0.00033802370783476147,0.00033802370783476147
2005-05,2005Q2,2005-06,,,,-0.026036746206950602,0.026036746206950602
2005-06,2005Q2,2005-06,demand_orders_inventories,Demand / orders / inventories,demand,0.06568470119559111,0.06568470119559111
2005-06,2005Q2,2005-06,financial_conditions,Financial conditions,financial,0.020589021244401987,0.020589021244401987
2005-06,2005Q2,2005-06,housing_construction,Housing & construction,housing,-0.03736095195110022,0.03736095195110022
2005-06,2005Q2,2005-06,labor_market,Labor market,labor,-0.020094777563274758,0.020094777563274758
2005-06,2005Q2,2005-06,prices_inflation,Prices & inflation,prices,0.014636676081447399,0.014636676081447399
2005-06,2005Q2,2005-06,real_activity_income,Real activity & income,real_activity,0.014173384615971878,0.014173384615971878
2005-06,2005Q2,2005-06,,,,-60.70006472913953,60.70006472913953
2005-08,2005Q3,2005-09,demand_orders_inventories,Demand / orders / inventories,demand,-0.019146698527542187,0.019146698527542187
2005-08,2005Q3,2005-09,financial_conditions,Financial conditions,financial,0.02216780399804047,0.02216780399804047
2005-08,2005Q3,2005-09,housing_construction,Housing & construction,housing,0.001457767706376886,0.001457767706376886
2005-08,2005Q3,2005-09,labor_market,Labor market,labor,0.003293973738589937,0.003293973738589937
2005-08,2005Q3,2005-09,prices_inflation,Prices & inflation,prices,0.017576090585070456,0.017576090585070456
2005-08,2005Q3,2005-09,real_activity_income,Real activity & income,real_activity,0.00013912461599309227,0.00013912461599309227
2005-08,2005Q3,2005-09,,,,0.005966083049650285,0.005966083049650285
2005-09,2005Q3,2005-09,demand_orders_inventories,Demand / orders / inventories,demand,0.006465083255289692,0.006465083255289692
2005-09,2005Q3,2005-09,financial_conditions,Financial conditions,financial,0.0004347992919148901,0.0004347992919148901
2005-09,2005Q3,2005-09,housing_construction,Housing & construction,housing,-0.001989147073438094,0.001989147073438094
2005-09,2005Q3,2005-09,labor_market,Labor market,labor,0.021658789861476582,0.021658789861476582
2005-09,2005Q3,2005-09,prices_inflation,Prices & inflation,prices,0.027100082878634607,0.027100082878634607
2005-09,2005Q3,2005-09,real_activity_income,Real activity & income,real_activity,-0.02622669799850977,0.02622669799850977
2005-09,2005Q3,2005-09,,,,-403.00614617838596,403.00614617838596
2005-11,2005Q4,2005-12,demand_orders_inventories,Demand / orders / inventories,demand,0.0232728445070861,0.0232728445070861
2005-11,2005Q4,2005-12,financial_conditions,Financial conditions,financial,0.00328279818805271,0.00328279818805271
2005-11,2005Q4,2005-12,housing_construction,Housing & construction,housing,-0.001272864048927213,0.001272864048927213
2005-11,2005Q4,2005-12,labor_market,Labor market,labor,0.031000719554981945,0.031000719554981945
2005-11,2005Q4,2005-12,prices_inflation,Prices & inflation,prices,0.053161599371958294,0.053161599371958294
2005-11,2005Q4,2005-12,real_activity_income,Real activity & income,real_activity,0.008708967307369569,0.008708967307369569
2005-11,2005Q4,2005-12,,,,0.15082190630710265,0.15082190630710265
2005-12,2005Q4,2005-12,demand_orders_inventories,Demand / orders / inventories,demand,7.777808930582589e-05,7.777808930582589e-05
2005-12,2005Q4,2005-12,financial_conditions,Financial conditions,financial,0.00298868733596432,0.00298868733596432
2005-12,2005Q4,2005-12,housing_construction,Housing & construction,housing,-0.03528220915987941,0.03528220915987941
2005-12,2005Q4,2005-12,labor_market,Labor market,labor,0.011848374183532117,0.011848374183532117
2005-12,2005Q4,2005-12,prices_inflation,Prices & inflation,prices,0.08760962824292234,0.08760962824292234
2005-12,2005Q4,2005-12,real_activity_income,Real activity & income,real_activity,0.04039359037776653,0.04039359037776653
2005-12,2005Q4,2005-12,,,,-405.62085366109056,405.62085366109056
2006-02,2006Q1,2006-03,demand_orders_inventories,Demand / orders / inventories,demand,-0.07183323254038074,0.07183323254038074
2006-02,2006Q1,2006-03,financial_conditions,Financial conditions,financial,0.022087692302513808,0.022087692302513808
2006-02,2006Q1,2006-03,housing_construction,Housing & construction,housing,0.0011077682022077038,0.0011077682022077038
2006-02,2006Q1,2006-03,labor_market,Labor market,labor,0.029477005418421257,0.029477005418421257
2006-02,2006Q1,2006-03,prices_inflation,Prices & inflation,prices,0.06746951518275275,0.06746951518275275
2006-02,2006Q1,2006-03,real_activity_income,Real activity & income,real_activity,0.03385526027490461,0.03385526027490461
2006-02,2006Q1,2006-03,,,,-0.3854920056561397,0.3854920056561397
2006-03,2006Q1,2006-03,demand_orders_inventories,Demand / orders / inventories,demand,0.024142166986433247,0.024142166986433247
2006-03,2006Q1,2006-03,financial_conditions,Financial conditions,financial,-0.01765706094523517,0.01765706094523517
2006-03,2006Q1,2006-03,housing_construction,Housing & construction,housing,0.032525847746136136,0.032525847746136136
2006-03,2006Q1,2006-03,labor_market,Labor market,labor,-0.01774784611808202,0.01774784611808202
2006-03,2006Q1,2006-03,prices_inflation,Prices & inflation,prices,-0.034222745473520215,0.034222745473520215
2006-03,2006Q1,2006-03,real_activity_income,Real activity & income,real_activity,-0.03273796615958271,0.03273796615958271
2006-03,2006Q1,2006-03,,,,-419.78328256283265,419.78328256283265
2006-05,2006Q2,2006-06,demand_orders_inventories,Demand / orders / inventories,demand,-0.02177854265139986,0.02177854265139986
2006-05,2006Q2,2006-06,financial_conditions,Financial conditions,financial,0.0032890850836928467,0.0032890850836928467
2006-05,2006Q2,2006-06,housing_construction,Housing & construction,housing,0.0006563920857534907,0.0006563920857534907
2006-05,2006Q2,2006-06,labor_market,Labor market,labor,0.001619669396370652,0.001619669396370652
2006-05,2006Q2,2006-06,prices_inflation,Prices & inflation,prices,0.01728007479936939,0.01728007479936939
2006-05,2006Q2,2006-06,real_activity_income,Real activity & income,real_activity,0.02383872420116995,0.02383872420116995
2006-05,2006Q2,2006-06,,,,0.14504885353163766,0.14504885353163766
2006-06,2006Q2,2006-06,demand_orders_inventories,Demand / orders / inventories,demand,-0.011680157627767723,0.011680157627767723
2006-06,2006Q2,2006-06,financial_conditions,Financial conditions,financial,0.0010978549618066507,0.0010978549618066507
2006-06,2006Q2,2006-06,housing_construction,Housing & construction,housing,-0.046759523843953016,0.046759523843953016
2006-06,2006Q2,2006-06,labor_market,Labor market,labor,-0.008412599210671359,0.008412599210671359
2006-06,2006Q2,2006-06,prices_inflation,Prices & inflation,prices,-0.008298113004925726,0.008298113004925726
2006-06,2006Q2,2006-06,real_activity_income,Real activity & income,real_activity,-0.03437168036601281,0.03437168036601281
2006-06,2006Q2,2006-06,,,,-263.2918870489423,263.2918870489423
2006-08,2006Q3,2006-09,demand_orders_inventories,Demand / orders / inventories,demand,-0.03487072687337306,0.03487072687337306
2006-08,2006Q3,2006-09,financial_conditions,Financial conditions,financial,-0.0015380314528348376,0.0015380314528348376
2006-08,2006Q3,2006-09,housing_construction,Housing & construction,housing,0.0016428476233258018,0.0016428476233258018
2006-08,2006Q3,2006-09,labor_market,Labor market,labor,-0.04045693561873315,0.04045693561873315
2006-08,2006Q3,2006-09,prices_inflation,Prices & inflation,prices,-0.017097063113520907,0.017097063113520907
2006-08,2006Q3,2006-09,real_activity_income,Real activity & income,real_activity,0.006170614067942147,0.006170614067942147
2006-08,2006Q3,2006-09,,,,-0.2299169337227496,0.2299169337227496
2006-09,2006Q3,2006-09,demand_orders_inventories,Demand / orders / inventories,demand,-0.004066929026258682,0.004066929026258682
2006-09,2006Q3,2006-09,financial_conditions,Financial conditions,financial,0.007574321557839786,0.007574321557839786
2006-09,2006Q3,2006-09,housing_construction,Housing & construction,housing,-0.0010973560472151637,0.0010973560472151637
2006-09,2006Q3,2006-09,labor_market,Labor market,labor,0.0012179197816125462,0.0012179197816125462
2006-09,2006Q3,2006-09,prices_inflation,Prices & inflation,prices,0.004095648057980546,0.004095648057980546
2006-09,2006Q3,2006-09,real_activity_income,Real activity & income,real_activity,0.0004497981242361479,0.0004497981242361479
2006-09,2006Q3,2006-09,,,,-559.5367096674685,559.5367096674685
2006-11,2006Q4,2006-12,demand_orders_inventories,Demand / orders / inventories,demand,-0.04206119559120808,0.04206119559120808
2006-11,2006Q4,2006-12,financial_conditions,Financial conditions,financial,-0.013054700908712724,0.013054700908712724
2006-11,2006Q4,2006-12,housing_construction,Housing & construction,housing,0.001531495633008634,0.001531495633008634
2006-11,2006Q4,2006-12,labor_market,Labor market,labor,-0.008835017073115793,0.008835017073115793
2006-11,2006Q4,2006-12,prices_inflation,Prices & inflation,prices,0.008235014223016238,0.008235014223016238
2006-11,2006Q4,2006-12,real_activity_income,Real activity & income,real_activity,-0.01927436325444861,0.01927436325444861
2006-11,2006Q4,2006-12,,,,-0.18938785343660244,0.18938785343660244
2006-12,2006Q4,2006-12,demand_orders_inventories,Demand / orders / inventories,demand,0.0012118023745379632,0.0012118023745379632
2006-12,2006Q4,2006-12,financial_conditions,Financial conditions,financial,0.03349774422505989,0.03349774422505989
2006-12,2006Q4,2006-12,housing_construction,Housing & construction,housing,0.008334324361898415,0.008334324361898415
2006-12,2006Q4,2006-12,labor_market,Labor market,labor,-1.1172133295727586e-05,1.1172133295727586e-05
2006-12,2006Q4,2006-12,prices_inflation,Prices & inflation,prices,-0.005504371389904375,0.005504371389904375
2006-12,2006Q4,2006-12,real_activity_income,Real activity & income,real_activity,-0.002088478988878739,0.002088478988878739
2006-12,2006Q4,2006-12,,,,-406.83745185089595,406.83745185089595
2007-02,2007Q1,2007-03,demand_orders_inventories,Demand / orders / inventories,demand,-0.12914560753139118,0.12914560753139118
2007-02,2007Q1,2007-03,financial_conditions,Financial conditions,financial,0.0024969520783350856,0.0024969520783350856
2007-02,2007Q1,2007-03,housing_construction,Housing & construction,housing,-0.013824683450823827,0.013824683450823827
2007-02,2007Q1,2007-03,labor_market,Labor market,labor,-0.007807421688082311,0.007807421688082311
2007-02,2007Q1,2007-03,prices_inflation,Prices & inflation,prices,-0.01106818244669059,0.01106818244669059
2007-02,2007Q1,2007-03,real_activity_income,Real activity & income,real_activity,-0.14033700927984039,0.14033700927984039
2007-02,2007Q1,2007-03,,,,0.06334583566304809,0.06334583566304809
2007-03,2007Q1,2007-03,demand_orders_inventories,Demand / orders / inventories,demand,-0.009530125433214857,0.009530125433214857
2007-03,2007Q1,2007-03,financial_conditions,Financial conditions,financial,0.024404343894901724,0.024404343894901724
2007-03,2007Q1,2007-03,housing_construction,Housing & construction,housing,0.010238755204209665,0.010238755204209665
2007-03,2007Q1,2007-03,labor_market,Labor market,labor,-0.0031342265631049368,0.0031342265631049368
2007-03,2007Q1,2007-03,prices_inflation,Prices & inflation,prices,0.009910040565793213,0.009910040565793213
2007-03,2007Q1,2007-03,real_activity_income,Real activity & income,real_activity,0.052083747320250354,0.052083747320250354
2007-03,2007Q1,2007-03,,,,-316.52956346333076,316.52956346333076
2007-05,2007Q2,2007-06,demand_orders_inventories,Demand / orders / inventories,demand,0.006400453188382268,0.006400453188382268
2007-05,2007Q2,2007-06,financial_conditions,Financial conditions,financial,0.01335763717780415,0.01335763717780415
2007-05,2007Q2,2007-06,housing_construction,Housing & construction,housing,0.0007760644142147413,0.0007760644142147413
2007-05,2007Q2,2007-06,labor_market,Labor market,labor,-0.003927519193206247,0.003927519193206247
2007-05,2007Q2,2007-06,prices_inflation,Prices & inflation,prices,0.007489323797910775,0.007489323797910775
2007-05,2007Q2,2007-06,real_activity_income,Real activity & income,real_activity,0.0031500016271314366,0.0031500016271314366
2007-05,2007Q2,2007-06,,,,-0.2948314822676355,0.2948314822676355
2007-06,2007Q2,2007-06,demand_orders_inventories,Demand / orders / inventories,demand,-0.007224638533405763,0.007224638533405763
2007-06,2007Q2,2007-06,financial_conditions,Financial conditions,financial,0.005626861843997392,0.005626861843997392
2007-06,2007Q2,2007-06,housing_construction,Housing & construction,housing,0.0015220610442889092,0.0015220610442889092
2007-06,2007Q2,2007-06,labor_market,Labor market,labor,0.012581325076476389,0.012581325076476389
2007-06,2007Q2,2007-06,prices_inflation,Prices & inflation,prices,-0.007924987626659765,0.007924987626659765
2007-06,2007Q2,2007-06,real_activity_income,Real activity & income,real_activity,-0.21847117897701904,0.21847117897701904
2007-06,2007Q2,2007-06,,,,-79.78856351645894,79.78856351645894
2007-08,2007Q3,2007-09,demand_orders_inventories,Demand / orders / inventories,demand,0.10089045261854945,0.10089045261854945
2007-08,2007Q3,2007-09,financial_conditions,Financial conditions,financial,-0.022824523531133952,0.022824523531133952
2007-08,2007Q3,2007-09,housing_construction,Housing & construction,housing,-0.019199244433940374,0.019199244433940374
2007-08,2007Q3,2007-09,labor_market,Labor market,labor,-0.003718724578158826,0.003718724578158826
2007-08,2007Q3,2007-09,prices_inflation,Prices & inflation,prices,0.01981884505686922,0.01981884505686922
2007-08,2007Q3,2007-09,real_activity_income,Real activity & income,real_activity,0.1501376412372721,0.1501376412372721
2007-08,2007Q3,2007-09,,,,-0.029293924362704376,0.029293924362704376
2007-09,2007Q3,2007-09,demand_orders_inventories,Demand / orders / inventories,demand,0.011356679423214739,0.011356679423214739
2007-09,2007Q3,2007-09,financial_conditions,Financial conditions,financial,0.038690532469718965,0.038690532469718965
2007-09,2007Q3,2007-09,housing_construction,Housing & construction,housing,0.051242263181569936,0.051242263181569936
2007-09,2007Q3,2007-09,labor_market,Labor market,labor,-0.03969817467383815,0.03969817467383815
2007-09,2007Q3,2007-09,prices_inflation,Prices & inflation,prices,-0.0006313645872122505,0.0006313645872122505
2007-09,2007Q3,2007-09,real_activity_income,Real activity & income,real_activity,-0.07037382348653701,0.07037382348653701
2007-09,2007Q3,2007-09,,,,-47.40966584975335,47.40966584975335
2007-11,2007Q4,2007-12,demand_orders_inventories,Demand / orders / inventories,demand,0.027567837962509452,0.027567837962509452
2007-11,2007Q4,2007-12,financial_conditions,Financial conditions,financial,0.008467930257567233,0.008467930257567233
2007-11,2007Q4,2007-12,housing_construction,Housing & construction,housing,0.006412146431661682,0.006412146431661682
2007-11,2007Q4,2007-12,labor_market,Labor market,labor,0.026902209392063683,0.026902209392063683
2007-11,2007Q4,2007-12,prices_inflation,Prices & inflation,prices,0.012223018183718154,0.012223018183718154
2007-11,2007Q4,2007-12,real_activity_income,Real activity & income,real_activity,0.009512135199734978,0.009512135199734978
2007-11,2007Q4,2007-12,,,,0.1189423265312956,0.1189423265312956
2007-12,2007Q4,2007-12,demand_orders_inventories,Demand / orders / inventories,demand,0.049119665148562384,0.049119665148562384
2007-12,2007Q4,2007-12,financial_conditions,Financial conditions,financial,0.011153121709693658,0.011153121709693658
2007-12,2007Q4,2007-12,housing_construction,Housing & construction,housing,0.052046924279493686,0.052046924279493686
2007-12,2007Q4,2007-12,labor_market,Labor market,labor,-0.0032239348370041248,0.0032239348370041248
2007-12,2007Q4,2007-12,prices_inflation,Prices & inflation,prices,0.005239530642092168,0.005239530642092168
2007-12,2007Q4,2007-12,real_activity_income,Real activity & income,real_activity,-0.001509115500307412,0.001509115500307412
2007-12,2007Q4,2007-12,,,,-229.54088524500867,229.54088524500867
2008-02,2008Q1,2008-03,demand_orders_inventories,Demand / orders / inventories,demand,-0.009064825483092665,0.009064825483092665
2008-02,2008Q1,2008-03,financial_conditions,Financial conditions,financial,0.005820372813471927,0.005820372813471927
2008-02,2008Q1,2008-03,housing_construction,Housing & construction,housing,-0.0018701143135397094,0.0018701143135397094
2008-02,2008Q1,2008-03,labor_market,Labor market,labor,0.02495825234167464,0.02495825234167464
2008-02,2008Q1,2008-03,prices_inflation,Prices & inflation,prices,0.00946319716672217,0.00946319716672217
2008-02,2008Q1,2008-03,real_activity_income,Real activity & income,real_activity,-0.006295057970249716,0.006295057970249716
2008-02,2008Q1,2008-03,,,,-0.3864963180955022,0.3864963180955022
2008-03,2008Q1,2008-03,demand_orders_inventories,Demand / orders / inventories,demand,0.03421078058211823,0.03421078058211823
2008-03,2008Q1,2008-03,financial_conditions,Financial conditions,financial,-0.012976684466619114,0.012976684466619114
2008-03,2008Q1,2008-03,housing_construction,Housing & construction,housing,0.04660198000670359,0.04660198000670359
2008-03,2008Q1,2008-03,labor_market,Labor market,labor,-0.01835680787669442,0.01835680787669442
2008-03,2008Q1,2008-03,prices_inflation,Prices & inflation,prices,-0.0010338179751719593,0.0010338179751719593
2008-03,2008Q1,2008-03,real_activity_income,Real activity & income,real_activity,0.01877485255929828,0.01877485255929828
2008-03,2008Q1,2008-03,,,,-330.4681683423377,330.4681683423377
2008-05,2008Q2,2008-06,demand_orders_inventories,Demand / orders / inventories,demand,-0.002632554563351097,0.002632554563351097
2008-05,2008Q2,2008-06,financial_conditions,Financial conditions,financial,0.03096698012857647,0.03096698012857647
2008-05,2008Q2,2008-06,housing_construction,Housing & construction,housing,-0.0001612944248250538,0.0001612944248250538
2008-05,2008Q2,2008-06,labor_market,Labor market,labor,0.04059854213043498,0.04059854213043498
2008-05,2008Q2,2008-06,prices_inflation,Prices & inflation,prices,0.0075725894210164945,0.0075725894210164945
2008-05,2008Q2,2008-06,real_activity_income,Real activity & income,real_activity,-0.009288960881611203,0.009288960881611203
2008-05,2008Q2,2008-06,,,,-0.1368341277574318,0.1368341277574318
2008-06,2008Q2,2008-06,demand_orders_inventories,Demand / orders / inventories,demand,0.06080590157636671,0.06080590157636671
2008-06,2008Q2,2008-06,financial_conditions,Financial conditions,financial,-0.008874063290796427,0.008874063290796427
2008-06,2008Q2,2008-06,housing_construction,Housing & construction,housing,0.055746044962074075,0.055746044962074075
2008-06,2008Q2,2008-06,labor_market,Labor market,labor,0.0237184626086218,0.0237184626086218
2008-06,2008Q2,2008-06,prices_inflation,Prices & inflation,prices,0.022533069685093776,0.022533069685093776
2008-06,2008Q2,2008-06,real_activity_income,Real activity & income,real_activity,0.047702821992583834,0.047702821992583834
2008-06,2008Q2,2008-06,,,,-379.64954325348924,379.64954325348924
2008-08,2008Q3,2008-09,demand_orders_inventories,Demand / orders / inventories,demand,0.00034662247524005737,0.00034662247524005737
2008-08,2008Q3,2008-09,financial_conditions,Financial conditions,financial,0.0003405837915284027,0.0003405837915284027
2008-08,2008Q3,2008-09,housing_construction,Housing & construction,housing,-0.0016818321509649257,0.0016818321509649257
2008-08,2008Q3,2008-09,labor_market,Labor market,labor,0.0018432453827225772,0.0018432453827225772
2008-08,2008Q3,2008-09,prices_inflation,Prices & inflation,prices,0.010116605758298348,0.010116605758298348
2008-08,2008Q3,2008-09,real_activity_income,Real activity & income,real_activity,-0.0021160450722244955,0.0021160450722244955
2008-08,2008Q3,2008-09,,,,-0.06518584049487554,0.06518584049487554
2008-09,2008Q3,2008-09,demand_orders_inventories,Demand / orders / inventories,demand,0.01222528678684118,0.01222528678684118
2008-09,2008Q3,2008-09,financial_conditions,Financial conditions,financial,0.008067253031952677,0.008067253031952677
2008-09,2008Q3,2008-09,housing_construction,Housing & construction,housing,0.09649222243766725,0.09649222243766725
2008-09,2008Q3,2008-09,labor_market,Labor market,labor,-0.038052402182482466,0.038052402182482466
2008-09,2008Q3,2008-09,prices_inflation,Prices & inflation,prices,-0.06365093366465639,0.06365093366465639
2008-09,2008Q3,2008-09,real_activity_income,Real activity & income,real_activity,0.020212111287787556,0.020212111287787556
2008-09,2008Q3,2008-09,,,,-368.87383374681133,368.87383374681133
2008-11,2008Q4,2008-12,demand_orders_inventories,Demand / orders / inventories,demand,-0.006073011544845123,0.006073011544845123
2008-11,2008Q4,2008-12,financial_conditions,Financial conditions,financial,-0.006798965333396361,0.006798965333396361
2008-11,2008Q4,2008-12,housing_construction,Housing & construction,housing,0.005669697516167172,0.005669697516167172
2008-11,2008Q4,2008-12,labor_market,Labor market,labor,-0.003658898294146515,0.003658898294146515
2008-11,2008Q4,2008-12,prices_inflation,Prices & inflation,prices,0.01984199898881861,0.01984199898881861
2008-11,2008Q4,2008-12,real_activity_income,Real activity & income,real_activity,0.1068241979195678,0.1068241979195678
2008-11,2008Q4,2008-12,,,,-0.316133253600203,0.316133253600203
2008-12,2008Q4,2008-12,demand_orders_inventories,Demand / orders / inventories,demand,0.0011214318202609087,0.0011214318202609087
2008-12,2008Q4,2008-12,financial_conditions,Financial conditions,financial,0.03182198541176937,0.03182198541176937
2008-12,2008Q4,2008-12,housing_construction,Housing & construction,housing,0.10521124112867627,0.10521124112867627
2008-12,2008Q4,2008-12,labor_market,Labor market,labor,0.007768185954149368,0.007768185954149368
2008-12,2008Q4,2008-12,prices_inflation,Prices & inflation,prices,-0.003363802494525116,0.003363802494525116
2008-12,2008Q4,2008-12,real_activity_income,Real activity & income,real_activity,0.0006736953611721966,0.0006736953611721966
2008-12,2008Q4,2008-12,,,,-602.3598846387615,602.3598846387615
2009-02,2009Q1,2009-03,demand_orders_inventories,Demand / orders / inventories,demand,-0.00357130907453019,0.00357130907453019
2009-02,2009Q1,2009-03,financial_conditions,Financial conditions,financial,0.008455362553854918,0.008455362553854918
2009-02,2009Q1,2009-03,housing_construction,Housing & construction,housing,-0.012406401691282314,0.012406401691282314
2009-02,2009Q1,2009-03,labor_market,Labor market,labor,-0.006894107033564459,0.006894107033564459
2009-02,2009Q1,2009-03,prices_inflation,Prices & inflation,prices,-0.013772887376565936,0.013772887376565936
2009-02,2009Q1,2009-03,real_activity_income,Real activity & income,real_activity,-0.01778535576388743,0.01778535576388743
2009-02,2009Q1,2009-03,,,,-0.8095130753461962,0.8095130753461962
2009-03,2009Q1,2009-03,demand_orders_inventories,Demand / orders / inventories,demand,0.05427329874477459,0.05427329874477459
2009-03,2009Q1,2009-03,financial_conditions,Financial conditions,financial,0.008693734322810755,0.008693734322810755
2009-03,2009Q1,2009-03,housing_construction,Housing & construction,housing,-0.05670218780053546,0.05670218780053546
2009-03,2009Q1,2009-03,labor_market,Labor market,labor,0.007280102890655272,0.007280102890655272
2009-03,2009Q1,2009-03,prices_inflation,Prices & inflation,prices,0.008397600145338175,0.008397600145338175
2009-03,2009Q1,2009-03,real_activity_income,Real activity & income,real_activity,0.016985623700266114,0.016985623700266114
2009-03,2009Q1,2009-03,,,,-601.1713117612765,601.1713117612765
2009-05,2009Q2,2009-06,demand_orders_inventories,Demand / orders / inventories,demand,0.011489378167395595,0.011489378167395595
2009-05,2009Q2,2009-06,financial_conditions,Financial conditions,financial,0.0068573648779739795,0.0068573648779739795
2009-05,2009Q2,2009-06,housing_construction,Housing & construction,housing,-0.010570397783340358,0.010570397783340358
2009-05,2009Q2,2009-06,labor_market,Labor market,labor,0.009740313229203466,0.009740313229203466
2009-05,2009Q2,2009-06,prices_inflation,Prices & inflation,prices,0.010346142562516135,0.010346142562516135
2009-05,2009Q2,2009-06,real_activity_income,Real activity & income,real_activity,0.01395170667435321,0.01395170667435321
2009-05,2009Q2,2009-06,,,,-0.6814399281612684,0.6814399281612684
2009-06,2009Q2,2009-06,demand_orders_inventories,Demand / orders / inventories,demand,0.03065935147902228,0.03065935147902228
2009-06,2009Q2,2009-06,financial_conditions,Financial conditions,financial,0.012142588545638735,0.012142588545638735
2009-06,2009Q2,2009-06,housing_construction,Housing & construction,housing,-0.05313705487087695,0.05313705487087695
2009-06,2009Q2,2009-06,labor_market,Labor market,labor,-0.006778398099224365,0.006778398099224365
2009-06,2009Q2,2009-06,prices_inflation,Prices & inflation,prices,0.007171831249771242,0.007171831249771242
2009-06,2009Q2,2009-06,real_activity_income,Real activity & income,real_activity,0.06460392739302762,0.06460392739302762
2009-06,2009Q2,2009-06,,,,-741.2747748828504,741.2747748828504
2009-08,2009Q3,2009-09,demand_orders_inventories,Demand / orders / inventories,demand,0.01168349247845406,0.01168349247845406
2009-08,2009Q3,2009-09,financial_conditions,Financial conditions,financial,0.0007151376413884211,0.0007151376413884211
2009-08,2009Q3,2009-09,housing_construction,Housing & construction,housing,-3.0157416408889415e-05,3.0157416408889415e-05
2009-08,2009Q3,2009-09,labor_market,Labor market,labor,-0.014623128148739154,0.014623128148739154
2009-08,2009Q3,2009-09,prices_inflation,Prices & inflation,prices,0.02363151289490386,0.02363151289490386
2009-08,2009Q3,2009-09,real_activity_income,Real activity & income,real_activity,0.02264317589408854,0.02264317589408854
2009-08,2009Q3,2009-09,,,,0.10556811870828019,0.10556811870828019
2009-09,2009Q3,2009-09,demand_orders_inventories,Demand / orders / inventories,demand,-0.0011562567192364812,0.0011562567192364812
2009-09,2009Q3,2009-09,financial_conditions,Financial conditions,financial,-0.0012533389485027185,0.0012533389485027185
2009-09,2009Q3,2009-09,housing_construction,Housing & construction,housing,0.0005263292160956779,0.0005263292160956779
2009-09,2009Q3,2009-09,labor_market,Labor market,labor,0.0016822176813891267,0.0016822176813891267
2009-09,2009Q3,2009-09,prices_inflation,Prices & inflation,prices,0.0020520581944578017,0.0020520581944578017
2009-09,2009Q3,2009-09,real_activity_income,Real activity & income,real_activity,-0.0002159210187858774,0.0002159210187858774
2009-09,2009Q3,2009-09,,,,-752.7046806253699,752.7046806253699
2009-11,2009Q4,2009-12,demand_orders_inventories,Demand / orders / inventories,demand,0.010064953445013736,0.010064953445013736
2009-11,2009Q4,2009-12,financial_conditions,Financial conditions,financial,0.001984649457504914,0.001984649457504914
2009-11,2009Q4,2009-12,housing_construction,Housing & construction,housing,-0.0025026082083071505,0.0025026082083071505
2009-11,2009Q4,2009-12,labor_market,Labor market,labor,-0.0019240802613935462,0.0019240802613935462
2009-11,2009Q4,2009-12,prices_inflation,Prices & inflation,prices,0.0030027308615045143,0.0030027308615045143
2009-11,2009Q4,2009-12,real_activity_income,Real activity & income,real_activity,-0.0002543012958688048,0.0002543012958688048
2009-11,2009Q4,2009-12,,,,0.41237976997460646,0.41237976997460646
2009-12,2009Q4,2009-12,demand_orders_inventories,Demand / orders / inventories,demand,0.037065360400154505,0.037065360400154505
2009-12,2009Q4,2009-12,financial_conditions,Financial conditions,financial,0.0023899367372867603,0.0023899367372867603
2009-12,2009Q4,2009-12,housing_construction,Housing & construction,housing,-0.024702562507529145,0.024702562507529145
2009-12,2009Q4,2009-12,labor_market,Labor market,labor,-0.019106837246561616,0.019106837246561616
2009-12,2009Q4,2009-12,prices_inflation,Prices & inflation,prices,-0.003029112476695689,0.003029112476695689
2009-12,2009Q4,2009-12,real_activity_income,Real activity & income,real_activity,0.024074727214869543,0.024074727214869543
2009-12,2009Q4,2009-12,,,,-680.3208475139816,680.3208475139816
2010-02,2010Q1,2010-03,demand_orders_inventories,Demand / orders / inventories,demand,0.007421694251187995,0.007421694251187995
2010-02,2010Q1,2010-03,financial_conditions,Financial conditions,financial,0.0017056806804216197,0.0017056806804216197
2010-02,2010Q1,2010-03,housing_construction,Housing & construction,housing,-0.0022198883359926297,0.0022198883359926297
2010-02,2010Q1,2010-03,labor_market,Labor market,labor,-0.005224683363665683,0.005224683363665683
2010-02,2010Q1,2010-03,prices_inflation,Prices & inflation,prices,0.0023833165537346097,0.0023833165537346097
2010-02,2010Q1,2010-03,real_activity_income,Real activity & income,real_activity,0.0015171252377829039,0.0015171252377829039
2010-02,2010Q1,2010-03,,,,0.7617742846792633,0.7617742846792633
2010-03,2010Q1,2010-03,demand_orders_inventories,Demand / orders / inventories,demand,-0.01569972390927655,0.01569972390927655
2010-03,2010Q1,2010-03,financial_conditions,Financial conditions,financial,-0.006073383112191762,0.006073383112191762
2010-03,2010Q1,2010-03,housing_construction,Housing & construction,housing,-0.01188287407129035,0.01188287407129035
2010-03,2010Q1,2010-03,labor_market,Labor market,labor,-0.0024407120191445478,0.0024407120191445478
2010-03,2010Q1,2010-03,prices_inflation,Prices & inflation,prices,-0.008517403732666521,0.008517403732666521
2010-03,2010Q1,2010-03,real_activity_income,Real activity & income,real_activity,-0.004732116508371336,0.004732116508371336
2010-03,2010Q1,2010-03,,,,-686.0752031777002,686.0752031777002
2010-05,2010Q2,2010-06,demand_orders_inventories,Demand / orders / inventories,demand,0.006478636043463273,0.006478636043463273
2010-05,2010Q2,2010-06,financial_conditions,Financial conditions,financial,-0.002871035691524338,0.002871035691524338
2010-05,2010Q2,2010-06,housing_construction,Housing & construction,housing,0.004714519856881835,0.004714519856881835
2010-05,2010Q2,2010-06,labor_market,Labor market,labor,-0.003206890092792793,0.003206890092792793
2010-05,2010Q2,2010-06,prices_inflation,Prices & inflation,prices,0.0009476924447522385,0.0009476924447522385
2010-05,2010Q2,2010-06,real_activity_income,Real activity & income,real_activity,0.0014784469763592556,0.0014784469763592556
2010-05,2010Q2,2010-06,,,,-0.008604947559035068,0.008604947559035068
2010-06,2010Q2,2010-06,demand_orders_inventories,Demand / orders / inventories,demand,-0.015472022122190553,0.015472022122190553
2010-06,2010Q2,2010-06,financial_conditions,Financial conditions,financial,0.018149063154555254,0.018149063154555254
2010-06,2010Q2,2010-06,housing_construction,Housing & construction,housing,-0.03492653044384605,0.03492653044384605
2010-06,2010Q2,2010-06,labor_market,Labor market,labor,0.014742596501562018,0.014742596501562018
2010-06,2010Q2,2010-06,prices_inflation,Prices & inflation,prices,0.0055694109197735485,0.0055694109197735485
2010-06,2010Q2,2010-06,real_activity_income,Real activity & income,real_activity,0.002777882982490309,0.002777882982490309
2010-06,2010Q2,2010-06,,,,-628.6775094639636,628.6775094639636
2010-08,2010Q3,2010-09,demand_orders_inventories,Demand / orders / inventories,demand,0.011487828154029038,0.011487828154029038
2010-08,2010Q3,2010-09,financial_conditions,Financial conditions,financial,0.0071408164587492395,0.0071408164587492395
2010-08,2010Q3,2010-09,housing_construction,Housing & construction,housing,0.0014023710271398393,0.0014023710271398393
2010-08,2010Q3,2010-09,labor_market,Labor market,labor,2.1539371407901502e-05,2.1539371407901502e-05
2010-08,2010Q3,2010-09,prices_inflation,Prices & inflation,prices,-0.001233608664426893,0.001233608664426893
2010-08,2010Q3,2010-09,real_activity_income,Real activity & income,real_activity,0.01014985063032947,0.01014985063032947
2010-08,2010Q3,2010-09,,,,-0.006714143750908325,0.006714143750908325
2010-09,2010Q3,2010-09,demand_orders_inventories,Demand / orders / inventories,demand,-0.004408155774185959,0.004408155774185959
2010-09,2010Q3,2010-09,financial_conditions,Financial conditions,financial,0.007186635848487071,0.007186635848487071
2010-09,2010Q3,2010-09,housing_construction,Housing & construction,housing,0.0017526344138354094,0.0017526344138354094
2010-09,2010Q3,2010-09,labor_market,Labor market,labor,-0.002161701170815494,0.002161701170815494
2010-09,2010Q3,2010-09,prices_inflation,Prices & inflation,prices,-0.00160329071321199,0.00160329071321199
2010-09,2010Q3,2010-09,real_activity_income,Real activity & income,real_activity,-0.002383163562520672,0.002383163562520672
2010-09,2010Q3,2010-09,,,,-751.2689262610252,751.2689262610252
2010-11,2010Q4,2010-12,demand_orders_inventories,Demand / orders / inventories,demand,-0.0012667188762280459,0.0012667188762280459
2010-11,2010Q4,2010-12,financial_conditions,Financial conditions,financial,0.010874839077866107,0.010874839077866107
2010-11,2010Q4,2010-12,housing_construction,Housing & construction,housing,-0.0007183403269192135,0.0007183403269192135
2010-11,2010Q4,2010-12,labor_market,Labor market,labor,-0.0032218225226429142,0.0032218225226429142
2010-11,2010Q4,2010-12,prices_inflation,Prices & inflation,prices,0.004336700523285914,0.004336700523285914
2010-11,2010Q4,2010-12,real_activity_income,Real activity & income,real_activity,0.01473503225918239,0.01473503225918239
2010-11,2010Q4,2010-12,,,,-0.01878586981271259,0.01878586981271259
2010-12,2010Q4,2010-12,demand_orders_inventories,Demand / orders / inventories,demand,-0.005460881786910766,0.005460881786910766
2010-12,2010Q4,2010-12,financial_conditions,Financial conditions,financial,0.0019195069596611358,0.0019195069596611358
2010-12,2010Q4,2010-12,housing_construction,Housing & construction,housing,-0.004686347662883789,0.004686347662883789
2010-12,2010Q4,2010-12,labor_market,Labor market,labor,0.003705072592149212,0.003705072592149212
2010-12,2010Q4,2010-12,prices_inflation,Prices & inflation,prices,0.004263864345119147,0.004263864345119147
2010-12,2010Q4,2010-12,real_activity_income,Real activity & income,real_activity,0.003979219230073979,0.003979219230073979
2010-12,2010Q4,2010-12,,,,-728.5834602127454,728.5834602127454
2011-02,2011Q1,2011-03,demand_orders_inventories,Demand / orders / inventories,demand,-0.004819242600774869,0.004819242600774869
2011-02,2011Q1,2011-03,financial_conditions,Financial conditions,financial,-0.0022277328726471703,0.0022277328726471703
2011-02,2011Q1,2011-03,housing_construction,Housing & construction,housing,-0.0018500776431868253,0.0018500776431868253
2011-02,2011Q1,2011-03,labor_market,Labor market,labor,0.01324631828212531,0.01324631828212531
2011-02,2011Q1,2011-03,prices_inflation,Prices & inflation,prices,-0.0016152017310553015,0.0016152017310553015
2011-02,2011Q1,2011-03,real_activity_income,Real activity & income,real_activity,-0.006129168573852556,0.006129168573852556
2011-02,2011Q1,2011-03,,,,-0.07282401445005716,0.07282401445005716
2011-03,2011Q1,2011-03,demand_orders_inventories,Demand / orders / inventories,demand,0.004798803776270264,0.004798803776270264
2011-03,2011Q1,2011-03,financial_conditions,Financial conditions,financial,0.0015567861592316813,0.0015567861592316813
2011-03,2011Q1,2011-03,housing_construction,Housing & construction,housing,0.015328828573311852,0.015328828573311852
2011-03,2011Q1,2011-03,labor_market,Labor market,labor,-0.002729913734722887,0.002729913734722887
2011-03,2011Q1,2011-03,prices_inflation,Prices & inflation,prices,0.00021106433787874583,0.00021106433787874583
2011-03,2011Q1,2011-03,real_activity_income,Real activity & income,real_activity,0.0016394925827011083,0.0016394925827011083
2011-03,2011Q1,2011-03,,,,-764.9653821080028,764.9653821080028
2011-05,2011Q2,2011-06,demand_orders_inventories,Demand / orders / inventories,demand,-0.004564782197013439,0.004564782197013439
2011-05,2011Q2,2011-06,financial_conditions,Financial conditions,financial,-0.0003672362827139476,0.0003672362827139476
2011-05,2011Q2,2011-06,housing_construction,Housing & construction,housing,0.0004583268145415941,0.0004583268145415941
2011-05,2011Q2,2011-06,labor_market,Labor market,labor,-0.0042690090802721195,0.0042690090802721195
2011-05,2011Q2,2011-06,prices_inflation,Prices & inflation,prices,-0.0009458135186847254,0.0009458135186847254
2011-05,2011Q2,2011-06,real_activity_income,Real activity & income,real_activity,-0.0012748339282201847,0.0012748339282201847
2011-05,2011Q2,2011-06,,,,-0.40502569116922293,0.40502569116922293
2011-06,2011Q2,2011-06,demand_orders_inventories,Demand / orders / inventories,demand,0.006394761190257624,0.006394761190257624
2011-06,2011Q2,2011-06,financial_conditions,Financial conditions,financial,0.003052419225319042,0.003052419225319042
2011-06,2011Q2,2011-06,housing_construction,Housing & construction,housing,-0.01778739575936485,0.01778739575936485
2011-06,2011Q2,2011-06,labor_market,Labor market,labor,0.013600624140088186,0.013600624140088186
2011-06,2011Q2,2011-06,prices_inflation,Prices & inflation,prices,-0.0052124184271457406,0.0052124184271457406
2011-06,2011Q2,2011-06,real_activity_income,Real activity & income,real_activity,0.0008868453454294149,0.0008868453454294149
2011-06,2011Q2,2011-06,,,,-561.8187946842978,561.8187946842978
2011-08,2011Q3,2011-09,demand_orders_inventories,Demand / orders / inventories,demand,0.020140922758697825,0.020140922758697825
2011-08,2011Q3,2011-09,financial_conditions,Financial conditions,financial,0.002810329354938673,0.002810329354938673
2011-08,2011Q3,2011-09,housing_construction,Housing & construction,housing,0.0007079375713460049,0.0007079375713460049
2011-08,2011Q3,2011-09,labor_market,Labor market,labor,-0.00963817226276273,0.00963817226276273
2011-08,2011Q3,2011-09,prices_inflation,Prices & inflation,prices,0.01707363392636867,0.01707363392636867
2011-08,2011Q3,2011-09,real_activity_income,Real activity & income,real_activity,-0.0033017579529178525,0.0033017579529178525
2011-08,2011Q3,2011-09,,,,-0.1471061419306309,0.1471061419306309
2011-09,2011Q3,2011-09,demand_orders_inventories,Demand / orders / inventories,demand,0.0009778238204191693,0.0009778238204191693
2011-09,2011Q3,2011-09,financial_conditions,Financial conditions,financial,0.02316581622383041,0.02316581622383041
2011-09,2011Q3,2011-09,housing_construction,Housing & construction,housing,-0.014200740958163094,0.014200740958163094
2011-09,2011Q3,2011-09,labor_market,Labor market,labor,-0.0010811471494631437,0.0010811471494631437
2011-09,2011Q3,2011-09,prices_inflation,Prices & inflation,prices,-0.001647655266584187,0.001647655266584187
2011-09,2011Q3,2011-09,real_activity_income,Real activity & income,real_activity,0.0029049823161633095,0.0029049823161633095
2011-09,2011Q3,2011-09,,,,-783.3965354993578,783.3965354993578
2011-11,2011Q4,2011-12,demand_orders_inventories,Demand / orders / inventories,demand,-0.005424243028314194,0.005424243028314194
2011-11,2011Q4,2011-12,financial_conditions,Financial conditions,financial,0.005864399346881515,0.005864399346881515
2011-11,2011Q4,2011-12,housing_construction,Housing & construction,housing,-0.0002141762394079484,0.0002141762394079484
2011-11,2011Q4,2011-12,labor_market,Labor market,labor,-0.0008070547203080598,0.0008070547203080598
2011-11,2011Q4,2011-12,prices_inflation,Prices & inflation,prices,-0.0010485228504420298,0.0010485228504420298
2011-11,2011Q4,2011-12,real_activity_income,Real activity & income,real_activity,0.001677453471303123,0.001677453471303123
2011-11,2011Q4,2011-12,,,,0.04267864000892346,0.04267864000892346
2011-12,2011Q4,2011-12,demand_orders_inventories,Demand / orders / inventories,demand,-0.0003613190787653801,0.0003613190787653801
2011-12,2011Q4,2011-12,financial_conditions,Financial conditions,financial,0.0006512642893332903,0.0006512642893332903
2011-12,2011Q4,2011-12,housing_construction,Housing & construction,housing,0.0025224169265632727,0.0025224169265632727
2011-12,2011Q4,2011-12,labor_market,Labor market,labor,0.0025526707178813723,0.0025526707178813723
2011-12,2011Q4,2011-12,prices_inflation,Prices & inflation,prices,-0.00020686126828423142,0.00020686126828423142
2011-12,2011Q4,2011-12,real_activity_income,Real activity & income,real_activity,-0.00021036211904144382,0.00021036211904144382
2011-12,2011Q4,2011-12,,,,-801.7557075679749,801.7557075679749
2012-02,2012Q1,2012-03,demand_orders_inventories,Demand / orders / inventories,demand,-0.0063714399553660315,0.0063714399553660315
2012-02,2012Q1,2012-03,financial_conditions,Financial conditions,financial,0.0015389833056678533,0.0015389833056678533
2012-02,2012Q1,2012-03,housing_construction,Housing & construction,housing,-0.0018736281090697793,0.0018736281090697793
2012-02,2012Q1,2012-03,labor_market,Labor market,labor,-0.005772890731055818,0.005772890731055818
2012-02,2012Q1,2012-03,prices_inflation,Prices & inflation,prices,-0.0021772587976800315,0.0021772587976800315
2012-02,2012Q1,2012-03,real_activity_income,Real activity & income,real_activity,-0.00018520590165758196,0.00018520590165758196
2012-02,2012Q1,2012-03,,,,-0.14022517617558147,0.14022517617558147
2012-03,2012Q1,2012-03,demand_orders_inventories,Demand / orders / inventories,demand,-0.000990379740060289,0.000990379740060289
2012-03,2012Q1,2012-03,financial_conditions,Financial conditions,financial,0.0012430431013092163,0.0012430431013092163
2012-03,2012Q1,2012-03,housing_construction,Housing & construction,housing,-0.001284867849680692,0.001284867849680692
2012-03,2012Q1,2012-03,labor_market,Labor market,labor,-0.00025282820859890527,0.00025282820859890527
2012-03,2012Q1,2012-03,prices_inflation,Prices & inflation,prices,0.0009399070078080062,0.0009399070078080062
2012-03,2012Q1,2012-03,real_activity_income,Real activity & income,real_activity,0.0024665703112001685,0.0024665703112001685
2012-03,2012Q1,2012-03,,,,-804.0241702084726,804.0241702084726
2012-05,2012Q2,2012-06,demand_orders_inventories,Demand / orders / inventories,demand,-0.014073109956897126,0.014073109956897126
2012-05,2012Q2,2012-06,financial_conditions,Financial conditions,financial,0.0007467231679549668,0.0007467231679549668
2012-05,2012Q2,2012-06,housing_construction,Housing & construction,housing,-0.003019202208458297,0.003019202208458297
2012-05,2012Q2,2012-06,labor_market,Labor market,labor,-0.018677202254342846,0.018677202254342846
2012-05,2012Q2,2012-06,prices_inflation,Prices & inflation,prices,-0.004822466273103533,0.004822466273103533
2012-05,2012Q2,2012-06,real_activity_income,Real activity & income,real_activity,0.0006716465202854793,0.0006716465202854793
2012-05,2012Q2,2012-06,,,,-0.19485640405976773,0.19485640405976773
2012-06,2012Q2,2012-06,demand_orders_inventories,Demand / orders / inventories,demand,-4.847915110852438e-05,4.847915110852438e-05
2012-06,2012Q2,2012-06,financial_conditions,Financial conditions,financial,-0.0004688028514760882,0.0004688028514760882
2012-06,2012Q2,2012-06,housing_construction,Housing & construction,housing,0.0016204357117209477,0.0016204357117209477
2012-06,2012Q2,2012-06,labor_market,Labor market,labor,0.00014249636901456558,0.00014249636901456558
2012-06,2012Q2,2012-06,prices_inflation,Prices & inflation,prices,-0.00110246137523278,0.00110246137523278
2012-06,2012Q2,2012-06,real_activity_income,Real activity & income,real_activity,7.861835834799747e-05,7.861835834799747e-05
2012-06,2012Q2,2012-06,,,,-820.1057363777926,820.1057363777926
2012-08,2012Q3,2012-09,demand_orders_inventories,Demand / orders / inventories,demand,0.0014388227988903976,0.0014388227988903976
2012-08,2012Q3,2012-09,financial_conditions,Financial conditions,financial,0.0009253714687075798,0.0009253714687075798
2012-08,2012Q3,2012-09,housing_construction,Housing & construction,housing,-0.0027238011735618043,0.0027238011735618043
2012-08,2012Q3,2012-09,labor_market,Labor market,labor,0.0010262504421544977,0.0010262504421544977
2012-08,2012Q3,2012-09,prices_inflation,Prices & inflation,prices,0.0009690520390561705,0.0009690520390561705
2012-08,2012Q3,2012-09,real_activity_income,Real activity & income,real_activity,-0.0001616253620681496,0.0001616253620681496
2012-08,2012Q3,2012-09,,,,-0.15420697989095059,0.15420697989095059
2012-09,2012Q3,2012-09,demand_orders_inventories,Demand / orders / inventories,demand,0.004911761522165445,0.004911761522165445
2012-09,2012Q3,2012-09,financial_conditions,Financial conditions,financial,0.003439508974826605,0.003439508974826605
2012-09,2012Q3,2012-09,housing_construction,Housing & construction,housing,-0.0022187400611634886,0.0022187400611634886
2012-09,2012Q3,2012-09,labor_market,Labor market,labor,-0.006132928410956747,0.006132928410956747
2012-09,2012Q3,2012-09,prices_inflation,Prices & inflation,prices,-0.003937995631310632,0.003937995631310632
2012-09,2012Q3,2012-09,real_activity_income,Real activity & income,real_activity,0.0034041743502932044,0.0034041743502932044
2012-09,2012Q3,2012-09,,,,-789.3448954143909,789.3448954143909
2012-11,2012Q4,2012-12,demand_orders_inventories,Demand / orders / inventories,demand,-0.0009969874263107059,0.0009969874263107059
2012-11,2012Q4,2012-12,financial_conditions,Financial conditions,financial,0.004612783950633093,0.004612783950633093
2012-11,2012Q4,2012-12,housing_construction,Housing & construction,housing,0.0007192371639071453,0.0007192371639071453
2012-11,2012Q4,2012-12,labor_market,Labor market,labor,-0.00533677556538007,0.00533677556538007
2012-11,2012Q4,2012-12,prices_inflation,Prices & inflation,prices,-0.006488099802305251,0.006488099802305251
2012-11,2012Q4,2012-12,real_activity_income,Real activity & income,real_activity,-0.02877039184960607,0.02877039184960607
2012-11,2012Q4,2012-12,,,,-0.0171161624815028,0.0171161624815028
2012-12,2012Q4,2012-12,demand_orders_inventories,Demand / orders / inventories,demand,-0.0024374394167476243,0.0024374394167476243
2012-12,2012Q4,2012-12,financial_conditions,Financial conditions,financial,0.002283130819323942,0.002283130819323942
2012-12,2012Q4,2012-12,housing_construction,Housing & construction,housing,0.020540736719692435,0.020540736719692435
2012-12,2012Q4,2012-12,labor_market,Labor market,labor,0.0061359762032805925,0.0061359762032805925
2012-12,2012Q4,2012-12,prices_inflation,Prices & inflation,prices,-0.021459209139746256,0.021459209139746256
2012-12,2012Q4,2012-12,real_activity_income,Real activity & income,real_activity,0.0345497301501478,0.0345497301501478
2012-12,2012Q4,2012-12,,,,-569.0673956281796,569.0673956281796
2013-02,2013Q1,2013-03,demand_orders_inventories,Demand / orders / inventories,demand,-0.0047558503480170135,0.0047558503480170135
2013-02,2013Q1,2013-03,financial_conditions,Financial conditions,financial,0.0019483369980491292,0.0019483369980491292
2013-02,2013Q1,2013-03,housing_construction,Housing & construction,housing,0.0007127269526274577,0.0007127269526274577
2013-02,2013Q1,2013-03,labor_market,Labor market,labor,-0.002423783988747119,0.002423783988747119
2013-02,2013Q1,2013-03,prices_inflation,Prices & inflation,prices,0.0012145748583112224,0.0012145748583112224
2013-02,2013Q1,2013-03,real_activity_income,Real activity & income,real_activity,-0.007090144520278188,0.007090144520278188
2013-02,2013Q1,2013-03,,,,-0.7036757481354543,0.7036757481354543
2013-03,2013Q1,2013-03,demand_orders_inventories,Demand / orders / inventories,demand,0.05328597707914004,0.05328597707914004
2013-03,2013Q1,2013-03,financial_conditions,Financial conditions,financial,-0.0026249523457094765,0.0026249523457094765
2013-03,2013Q1,2013-03,housing_construction,Housing & construction,housing,-0.0014389174642832027,0.0014389174642832027
2013-03,2013Q1,2013-03,labor_market,Labor market,labor,0.0016889076688930567,0.0016889076688930567
2013-03,2013Q1,2013-03,prices_inflation,Prices & inflation,prices,-0.004003903733115866,0.004003903733115866
2013-03,2013Q1,2013-03,real_activity_income,Real activity & income,real_activity,0.016666253224103807,0.016666253224103807
2013-03,2013Q1,2013-03,,,,-667.9598199097807,667.9598199097807
2013-05,2013Q2,2013-06,demand_orders_inventories,Demand / orders / inventories,demand,-0.00934697240092823,0.00934697240092823
2013-05,2013Q2,2013-06,financial_conditions,Financial conditions,financial,0.002468209907692299,0.002468209907692299
2013-05,2013Q2,2013-06,housing_construction,Housing & construction,housing,-0.004351906202866653,0.004351906202866653
2013-05,2013Q2,2013-06,labor_market,Labor market,labor,-0.002171818569189026,0.002171818569189026
2013-05,2013Q2,2013-06,prices_inflation,Prices & inflation,prices,-0.00273297040067943,0.00273297040067943
2013-05,2013Q2,2013-06,real_activity_income,Real activity & income,real_activity,0.0012350577024240212,0.0012350577024240212
2013-05,2013Q2,2013-06,,,,0.08359431996440936,0.08359431996440936
2013-06,2013Q2,2013-06,demand_orders_inventories,Demand / orders / inventories,demand,0.042413620586706814,0.042413620586706814
2013-06,2013Q2,2013-06,financial_conditions,Financial conditions,financial,-0.0016206677196713877,0.0016206677196713877
2013-06,2013Q2,2013-06,housing_construction,Housing & construction,housing,-0.02208614182966765,0.02208614182966765
2013-06,2013Q2,2013-06,labor_market,Labor market,labor,0.007965185813797012,0.007965185813797012
2013-06,2013Q2,2013-06,prices_inflation,Prices & inflation,prices,0.020239045928474142,0.020239045928474142
2013-06,2013Q2,2013-06,real_activity_income,Real activity & income,real_activity,0.01958502089111921,0.01958502089111921
2013-06,2013Q2,2013-06,,,,-565.1126221901045,565.1126221901045
2013-08,2013Q3,2013-09,demand_orders_inventories,Demand / orders / inventories,demand,-0.0032083754822998423,0.0032083754822998423
2013-08,2013Q3,2013-09,financial_conditions,Financial conditions,financial,0.0007059941942010946,0.0007059941942010946
2013-08,2013Q3,2013-09,housing_construction,Housing & construction,housing,0.00041874253782084976,0.00041874253782084976
2013-08,2013Q3,2013-09,labor_market,Labor market,labor,0.0014291031165740065,0.0014291031165740065
2013-08,2013Q3,2013-09,prices_inflation,Prices & inflation,prices,-0.003634748117705404,0.003634748117705404
2013-08,2013Q3,2013-09,real_activity_income,Real activity & income,real_activity,0.0007550097123500943,0.0007550097123500943
2013-08,2013Q3,2013-09,,,,-0.26732526091483977,0.26732526091483977
2013-09,2013Q3,2013-09,demand_orders_inventories,Demand / orders / inventories,demand,0.014482921973439419,0.014482921973439419
2013-09,2013Q3,2013-09,financial_conditions,Financial conditions,financial,0.0005692840095255492,0.0005692840095255492
2013-09,2013Q3,2013-09,housing_construction,Housing & construction,housing,0.005175034161351675,0.005175034161351675
2013-09,2013Q3,2013-09,labor_market,Labor market,labor,-0.016977187961051722,0.016977187961051722
2013-09,2013Q3,2013-09,prices_inflation,Prices & inflation,prices,0.0013956196290594673,0.0013956196290594673
2013-09,2013Q3,2013-09,real_activity_income,Real activity & income,real_activity,0.005938443636391388,0.005938443636391388
2013-09,2013Q3,2013-09,,,,-681.1595248591676,681.1595248591676
2013-11,2013Q4,2013-12,demand_orders_inventories,Demand / orders / inventories,demand,-0.02393809026589267,0.02393809026589267
2013-11,2013Q4,2013-12,financial_conditions,Financial conditions,financial,0.010504196703524019,0.010504196703524019
2013-11,2013Q4,2013-12,housing_construction,Housing & construction,housing,0.02646852948185175,0.02646852948185175
2013-11,2013Q4,2013-12,labor_market,Labor market,labor,-0.06876532541920288,0.06876532541920288
2013-11,2013Q4,2013-12,prices_inflation,Prices & inflation,prices,0.0013746564373769234,0.0013746564373769234
2013-11,2013Q4,2013-12,real_activity_income,Real activity & income,real_activity,0.041682968196891636,0.041682968196891636
2013-11,2013Q4,2013-12,,,,-0.006401612103449752,0.006401612103449752
2013-12,2013Q4,2013-12,demand_orders_inventories,Demand / orders / inventories,demand,0.04286745615054128,0.04286745615054128
2013-12,2013Q4,2013-12,financial_conditions,Financial conditions,financial,9.884035859698262e-05,9.884035859698262e-05
2013-12,2013Q4,2013-12,housing_construction,Housing & construction,housing,-0.1410763369901759,0.1410763369901759
2013-12,2013Q4,2013-12,labor_market,Labor market,labor,0.03332790731485056,0.03332790731485056
2013-12,2013Q4,2013-12,prices_inflation,Prices & inflation,prices,0.0030895987857132044,0.0030895987857132044
2013-12,2013Q4,2013-12,real_activity_income,Real activity & income,real_activity,-0.010045466314490228,0.010045466314490228
2013-12,2013Q4,2013-12,,,,-577.0152161145105,577.0152161145105
2014-02,2014Q1,2014-03,demand_orders_inventories,Demand / orders / inventories,demand,-0.0077339950210939794,0.0077339950210939794
2014-02,2014Q1,2014-03,financial_conditions,Financial conditions,financial,0.000867488685055254,0.000867488685055254
2014-02,2014Q1,2014-03,housing_construction,Housing & construction,housing,-0.0017609107493399348,0.0017609107493399348
2014-02,2014Q1,2014-03,labor_market,Labor market,labor,0.004626268020526011,0.004626268020526011
2014-02,2014Q1,2014-03,prices_inflation,Prices & inflation,prices,0.00557789352809917,0.00557789352809917
2014-02,2014Q1,2014-03,real_activity_income,Real activity & income,real_activity,-0.004422468849637311,0.004422468849637311
2014-02,2014Q1,2014-03,,,,0.06733942441755775,0.06733942441755775
2014-03,2014Q1,2014-03,demand_orders_inventories,Demand / orders / inventories,demand,0.0003603292218460935,0.0003603292218460935
2014-03,2014Q1,2014-03,financial_conditions,Financial conditions,financial,0.01084576641158837,0.01084576641158837
2014-03,2014Q1,2014-03,housing_construction,Housing & construction,housing,0.013301874454763121,0.013301874454763121
2014-03,2014Q1,2014-03,labor_market,Labor market,labor,0.012999808037390318,0.012999808037390318
2014-03,2014Q1,2014-03,prices_inflation,Prices & inflation,prices,0.00029109976880224876,0.00029109976880224876
2014-03,2014Q1,2014-03,real_activity_income,Real activity & income,real_activity,0.018274594324581218,0.018274594324581218
2014-03,2014Q1,2014-03,,,,-598.3717801102651,598.3717801102651
2014-05,2014Q2,2014-06,demand_orders_inventories,Demand / orders / inventories,demand,-0.03933190928593757,0.03933190928593757
2014-05,2014Q2,2014-06,financial_conditions,Financial conditions,financial,0.00341903693985417,0.00341903693985417
2014-05,2014Q2,2014-06,housing_construction,Housing & construction,housing,0.034582585581827446,0.034582585581827446
2014-05,2014Q2,2014-06,labor_market,Labor market,labor,0.04437735377395055,0.04437735377395055
2014-05,2014Q2,2014-06,prices_inflation,Prices & inflation,prices,-0.011267415409540182,0.011267415409540182
2014-05,2014Q2,2014-06,real_activity_income,Real activity & income,real_activity,-0.5477442484359024,0.5477442484359024
2014-05,2014Q2,2014-06,,,,0.36398012866204965,0.36398012866204965
2014-06,2014Q2,2014-06,demand_orders_inventories,Demand / orders / inventories,demand,0.0001020018525118141,0.0001020018525118141
2014-06,2014Q2,2014-06,financial_conditions,Financial conditions,financial,-0.0030295989909937017,0.0030295989909937017
2014-06,2014Q2,2014-06,housing_construction,Housing & construction,housing,0.04030169921365325,0.04030169921365325
2014-06,2014Q2,2014-06,labor_market,Labor market,labor,-0.004574591238377711,0.004574591238377711
2014-06,2014Q2,2014-06,prices_inflation,Prices & inflation,prices,0.005519286405086027,0.005519286405086027
2014-06,2014Q2,2014-06,real_activity_income,Real activity & income,real_activity,0.009438814614020073,0.009438814614020073
2014-06,2014Q2,2014-06,,,,-526.9970041626323,526.9970041626323
2014-08,2014Q3,2014-09,demand_orders_inventories,Demand / orders / inventories,demand,0.18094296696790263,0.18094296696790263
2014-08,2014Q3,2014-09,financial_conditions,Financial conditions,financial,0.0021494272727862226,0.0021494272727862226
2014-08,2014Q3,2014-09,housing_construction,Housing & construction,housing,0.0009661140188770238,0.0009661140188770238
2014-08,2014Q3,2014-09,labor_market,Labor market,labor,-0.0004643483103130097,0.0004643483103130097
2014-08,2014Q3,2014-09,prices_inflation,Prices & inflation,prices,-0.002446636979771574,0.002446636979771574
2014-08,2014Q3,2014-09,real_activity_income,Real activity & income,real_activity,0.05730599395900743,0.05730599395900743
2014-08,2014Q3,2014-09,,,,0.16833350846925763,0.16833350846925763
2014-09,2014Q3,2014-09,demand_orders_inventories,Demand / orders / inventories,demand,-0.054359173413088505,0.054359173413088505
2014-09,2014Q3,2014-09,financial_conditions,Financial conditions,financial,-0.0027344956943198473,0.0027344956943198473
2014-09,2014Q3,2014-09,housing_construction,Housing & construction,housing,-0.03130014382097875,0.03130014382097875
2014-09,2014Q3,2014-09,labor_market,Labor market,labor,-0.008516889251197044,0.008516889251197044
2014-09,2014Q3,2014-09,prices_inflation,Prices & inflation,prices,0.008023816936718433,0.008023816936718433
2014-09,2014Q3,2014-09,real_activity_income,Real activity & income,real_activity,0.0016186760889827987,0.0016186760889827987
2014-09,2014Q3,2014-09,,,,-739.0868243024405,739.0868243024405
2014-11,2014Q4,2014-12,demand_orders_inventories,Demand / orders / inventories,demand,0.00460118786626912,0.00460118786626912
2014-11,2014Q4,2014-12,financial_conditions,Financial conditions,financial,0.001467480193072292,0.001467480193072292
2014-11,2014Q4,2014-12,housing_construction,Housing & construction,housing,-0.00744279624477152,0.00744279624477152
2014-11,2014Q4,2014-12,labor_market,Labor market,labor,0.00024150478326489806,0.00024150478326489806
2014-11,2014Q4,2014-12,prices_inflation,Prices & inflation,prices,0.0034172106709915886,0.0034172106709915886
2014-11,2014Q4,2014-12,real_activity_income,Real activity & income,real_activity,0.003918728616903901,0.003918728616903901
2014-11,2014Q4,2014-12,,,,0.024391760295190353,0.024391760295190353
2014-12,2014Q4,2014-12,demand_orders_inventories,Demand / orders / inventories,demand,-0.0062434214566912324,0.0062434214566912324
2014-12,2014Q4,2014-12,financial_conditions,Financial conditions,financial,0.0036477254770808537,0.0036477254770808537
2014-12,2014Q4,2014-12,housing_construction,Housing & construction,housing,0.0110868051925435,0.0110868051925435
2014-12,2014Q4,2014-12,labor_market,Labor market,labor,0.005665829543755115,0.005665829543755115
2014-12,2014Q4,2014-12,prices_inflation,Prices & inflation,prices,-0.003075648306945991,0.003075648306945991
2014-12,2014Q4,2014-12,real_activity_income,Real activity & income,real_activity,0.010639004092118733,0.010639004092118733
2014-12,2014Q4,2014-12,,,,-375.5556820046417,375.5556820046417
2015-02,2015Q1,2015-03,demand_orders_inventories,Demand / orders / inventories,demand,-0.009585290779667357,0.009585290779667357
2015-02,2015Q1,2015-03,financial_conditions,Financial conditions,financial,-0.003660395748133196,0.003660395748133196
2015-02,2015Q1,2015-03,housing_construction,Housing & construction,housing,-0.003276665330511276,0.003276665330511276
2015-02,2015Q1,2015-03,labor_market,Labor market,labor,0.013111438521589027,0.013111438521589027
2015-02,2015Q1,2015-03,prices_inflation,Prices & inflation,prices,-0.0049863462591407965,0.0049863462591407965
2015-02,2015Q1,2015-03,real_activity_income,Real activity & income,real_activity,-0.0015952326289694983,0.0015952326289694983
2015-02,2015Q1,2015-03,,,,0.00753004806418122,0.00753004806418122
2015-03,2015Q1,2015-03,demand_orders_inventories,Demand / orders / inventories,demand,-0.03589306429031897,0.03589306429031897
2015-03,2015Q1,2015-03,financial_conditions,Financial conditions,financial,0.006126053553125593,0.006126053553125593
2015-03,2015Q1,2015-03,housing_construction,Housing & construction,housing,0.06656108943539363,0.06656108943539363
2015-03,2015Q1,2015-03,labor_market,Labor market,labor,0.0023312477592104903,0.0023312477592104903
2015-03,2015Q1,2015-03,prices_inflation,Prices & inflation,prices,0.0359778861924579,0.0359778861924579
2015-03,2015Q1,2015-03,real_activity_income,Real activity & income,real_activity,-0.01758034734473446,0.01758034734473446
2015-03,2015Q1,2015-03,,,,-690.6968916007384,690.6968916007384
2015-05,2015Q2,2015-06,demand_orders_inventories,Demand / orders / inventories,demand,0.0069106093407093555,0.0069106093407093555
2015-05,2015Q2,2015-06,financial_conditions,Financial conditions,financial,0.007279064129785306,0.007279064129785306
2015-05,2015Q2,2015-06,housing_construction,Housing & construction,housing,0.004244624558886955,0.004244624558886955
2015-05,2015Q2,2015-06,labor_market,Labor market,labor,-0.00047681123591650405,0.00047681123591650405
2015-05,2015Q2,2015-06,prices_inflation,Prices & inflation,prices,0.0070390482954188205,0.0070390482954188205
2015-05,2015Q2,2015-06,real_activity_income,Real activity & income,real_activity,0.007299618002161582,0.007299618002161582
2015-05,2015Q2,2015-06,,,,-0.31956080733209385,0.31956080733209385
2015-06,2015Q2,2015-06,demand_orders_inventories,Demand / orders / inventories,demand,-0.011051197063297854,0.011051197063297854
2015-06,2015Q2,2015-06,financial_conditions,Financial conditions,financial,0.010249261063636059,0.010249261063636059
2015-06,2015Q2,2015-06,housing_construction,Housing & construction,housing,0.07298751414072578,0.07298751414072578
2015-06,2015Q2,2015-06,labor_market,Labor market,labor,0.010208269171521327,0.010208269171521327
2015-06,2015Q2,2015-06,prices_inflation,Prices & inflation,prices,0.007057213534636201,0.007057213534636201
2015-06,2015Q2,2015-06,real_activity_income,Real activity & income,real_activity,0.008698562993550879,0.008698562993550879
2015-06,2015Q2,2015-06,,,,-413.6415388800364,413.6415388800364
2015-08,2015Q3,2015-09,demand_orders_inventories,Demand / orders / inventories,demand,0.01568787784339052,0.01568787784339052
2015-08,2015Q3,2015-09,financial_conditions,Financial conditions,financial,-0.0049739315822621925,0.0049739315822621925
2015-08,2015Q3,2015-09,housing_construction,Housing & construction,housing,0.0072037068098824404,0.0072037068098824404
2015-08,2015Q3,2015-09,labor_market,Labor market,labor,-0.007326901900126693,0.007326901900126693
2015-08,2015Q3,2015-09,prices_inflation,Prices & inflation,prices,-0.00021607312106924426,0.00021607312106924426
2015-08,2015Q3,2015-09,real_activity_income,Real activity & income,real_activity,0.08495975462498057,0.08495975462498057
2015-08,2015Q3,2015-09,,,,0.015096354069318493,0.015096354069318493
2015-09,2015Q3,2015-09,demand_orders_inventories,Demand / orders / inventories,demand,-0.036689287121633586,0.036689287121633586
2015-09,2015Q3,2015-09,financial_conditions,Financial conditions,financial,0.004747657276164551,0.004747657276164551
2015-09,2015Q3,2015-09,housing_construction,Housing & construction,housing,0.032474550842185035,0.032474550842185035
2015-09,2015Q3,2015-09,labor_market,Labor market,labor,-0.0059535884184491045,0.0059535884184491045
2015-09,2015Q3,2015-09,prices_inflation,Prices & inflation,prices,0.004617246852722148,0.004617246852722148
2015-09,2015Q3,2015-09,real_activity_income,Real activity & income,real_activity,-0.03083134019361675,0.03083134019361675
2015-09,2015Q3,2015-09,,,,-81.16477526520568,81.16477526520568
2015-11,2015Q4,2015-12,demand_orders_inventories,Demand / orders / inventories,demand,0.054643237138649284,0.054643237138649284
2015-11,2015Q4,2015-12,financial_conditions,Financial conditions,financial,0.008361529521925298,0.008361529521925298
2015-11,2015Q4,2015-12,housing_construction,Housing & construction,housing,0.0017664874365968118,0.0017664874365968118
2015-11,2015Q4,2015-12,labor_market,Labor market,labor,0.023706773689842982,0.023706773689842982
2015-11,2015Q4,2015-12,prices_inflation,Prices & inflation,prices,0.008839170586050469,0.008839170586050469
2015-11,2015Q4,2015-12,real_activity_income,Real activity & income,real_activity,0.04964927771435898,0.04964927771435898
2015-11,2015Q4,2015-12,,,,-0.12346624074382027,0.12346624074382027
2015-12,2015Q4,2015-12,demand_orders_inventories,Demand / orders / inventories,demand,-0.0035967633662277215,0.0035967633662277215
2015-12,2015Q4,2015-12,financial_conditions,Financial conditions,financial,0.003125664297359409,0.003125664297359409
2015-12,2015Q4,2015-12,housing_construction,Housing & construction,housing,-0.052754116179998325,0.052754116179998325
2015-12,2015Q4,2015-12,labor_market,Labor market,labor,-0.00011891732845977407,0.00011891732845977407
2015-12,2015Q4,2015-12,prices_inflation,Prices & inflation,prices,0.001735466463250711,0.001735466463250711
2015-12,2015Q4,2015-12,real_activity_income,Real activity & income,real_activity,0.022079653450899336,0.022079653450899336
2015-12,2015Q4,2015-12,,,,-486.96753601408017,486.96753601408017
2016-02,2016Q1,2016-03,demand_orders_inventories,Demand / orders / inventories,demand,0.032412928168749425,0.032412928168749425
2016-02,2016Q1,2016-03,financial_conditions,Financial conditions,financial,-0.0010984023806007927,0.0010984023806007927
2016-02,2016Q1,2016-03,housing_construction,Housing & construction,housing,-0.0031054727125754853,0.0031054727125754853
2016-02,2016Q1,2016-03,labor_market,Labor market,labor,0.0132120419962779,0.0132120419962779
2016-02,2016Q1,2016-03,prices_inflation,Prices & inflation,prices,0.004202946271845407,0.004202946271845407
2016-02,2016Q1,2016-03,real_activity_income,Real activity & income,real_activity,0.03865211320327532,0.03865211320327532
2016-02,2016Q1,2016-03,,,,-0.17593532040556092,0.17593532040556092
2016-03,2016Q1,2016-03,demand_orders_inventories,Demand / orders / inventories,demand,0.011286378287337407,0.011286378287337407
2016-03,2016Q1,2016-03,financial_conditions,Financial conditions,financial,0.025270581661480804,0.025270581661480804
2016-03,2016Q1,2016-03,housing_construction,Housing & construction,housing,-0.008751748418079231,0.008751748418079231
2016-03,2016Q1,2016-03,labor_market,Labor market,labor,0.005449204943542824,0.005449204943542824
2016-03,2016Q1,2016-03,prices_inflation,Prices & inflation,prices,0.00048688007995471226,0.00048688007995471226
2016-03,2016Q1,2016-03,real_activity_income,Real activity & income,real_activity,0.005882321271654485,0.005882321271654485
2016-03,2016Q1,2016-03,,,,-74.32805553815861,74.32805553815861
2016-05,2016Q2,2016-06,demand_orders_inventories,Demand / orders / inventories,demand,0.04387046230203998,0.04387046230203998
2016-05,2016Q2,2016-06,financial_conditions,Financial conditions,financial,0.0027964911602920825,0.0027964911602920825
2016-05,2016Q2,2016-06,housing_construction,Housing & construction,housing,0.0002893870762777015,0.0002893870762777015
2016-05,2016Q2,2016-06,labor_market,Labor market,labor,-0.008275843879713111,0.008275843879713111
2016-05,2016Q2,2016-06,prices_inflation,Prices & inflation,prices,-0.008235006050012069,0.008235006050012069
