haminh109/Nowcasting-GDP-Growth/outputs/layer1_dfm/dfm_diagnostics.csv
vintage_period,vintage_timestamp_start,target_quarter,within_quarter_origin,n_monthly_series,n_monthly_obs,factor_order,llf_final,em_iterations,em_tolerance_used,em_maxiter_used,em_convergence_delta_last,llf_path_json,converged_flag,sample_end_period,model_index_generated,model_index_type,model_index_monotonic,row_labels_type,row_labels_monotonic
2000-01,2000-01-01,2000Q1,1,44,492,1,-19627.977100542106,73,2e-06,100,1.8201894505226121e-06,"[-21737.482529436078, -20754.622212245362, -20455.36600783195, -20241.568171164337, -20085.31438816473, -19981.54787697469, -19916.890869967123, -19873.89519698974, -19841.02641848634, -19813.967879297707, -19791.68840370368, -19773.749112403664, -19759.444182932908, -19747.500173385935, -19735.437307541466, -19717.579278762925, -19688.820348381716, -19665.297295758595, -19655.345850998598, -19650.892511525984, -19648.09642628221, -19645.92158693874, -19644.09593431225, -19642.524281489565, -19641.155569556446, -19639.954222501947, -19638.892977180793, -19637.95023534204, -19637.10860126617, -19636.353894897322, -19635.674437966518, -19635.06052352833, -19634.504015493538, -19633.998042388725, -19633.536760424904, -19633.115168193755, -19632.728960274817, -19632.37441049639, -19632.048278032602, -19631.74773125981, -19631.470285551834, -19631.2137521098, -19630.976195598065, -19630.75589886061, -19630.55133337068, -19630.361134353156, -19630.18407973878, -19630.01907227868, -19629.86512427929, -19629.721344521022, -19629.586927005104, -19629.461141238065, -19629.343323814443, -19629.232871100172, -19629.129232852596, -19629.031906640077, -19628.940432946856, -19628.854390866734, -19628.773394304433, -19628.697088615947, -19628.625147629537, -19628.55727099772, -19628.49318183775, -19628.432624624416, -19628.375363303818, -19628.321179601317, -19628.269871500546, -19628.221251873314, -19628.17514724307, -19628.131396666795, -19628.089850722194, -19628.05037058857, -19628.012827211474, -19627.977100542106]",True,1999-12,False,PeriodIndex,True,PeriodIndex,True
2000-02,2000-02-01,2000Q1,2,44,493,1,-19670.886023230167,44,2e-06,100,1.8642745261505176e-06,"[-19704.240458279237, -19684.174262899993, -19681.648481979857, -19680.026804165005, -19678.821978066157, -19677.869825129474, -19677.091067220867, -19676.4394828543, -19675.885117897407, -19675.407245786148, -19674.99087278264, -19674.624795455795, -19674.300431821175, -19674.011075886083, -19673.751400725712, -19673.517115541694, -19673.304722284083, -19673.111338905932, -19672.93456849301, -19672.772400736092, -19672.623136670427, -19672.485330448464, -19672.357743774104, -19672.239309877208, -19672.1291047639, -19672.026324076975, -19671.93026432496, -19671.84030754438, -19671.755908682684, -19671.676585154004, -19671.60190814268, -19671.531495322142, -19671.465004727317, -19671.402129572427, -19671.342593848283, -19671.286148565385, -19671.232568534862, -19671.18164959939, -19671.13320624234, -19671.0870695161, -19671.043085240897, -19671.001112433732, -19670.961021933756, -19670.92269519607, -19670.886023230167]",True,2000-01,False,PeriodIndex,True,PeriodIndex,True
2000-03,2000-03-01,2000Q1,3,44,494,1,-19710.97935347122,43,2e-06,100,1.8893566135910769e-06,"[-19743.600131022547, -19723.92445379758, -19721.462334169715, -19719.86325498818, -19718.675087603962, -19717.73787362042, -19716.97289468763, -19716.334075364553, -19715.79155758067, -19715.32469649066, -19714.918569364756, -19714.56203476514, -19714.246565323905, -19713.96550367932, -19713.713566636776, -19713.486503048873, -19713.280851058655, -19713.093761829357, -19712.92286904389, -19712.766190670947, -19712.62205394289, -19712.489037326042, -19712.36592512192, -19712.251671585313, -19712.14537230007, -19712.046241150507, -19711.953591649817, -19711.86682169204, -19711.785401016605, -19711.708860838637, -19711.636785221097, -19711.56880385692, -19711.504585999806, -19711.4438353363, -19711.38628563333, -19711.3316970281, -19711.27985285252, -19711.230556904644, -19711.18363109559, -19711.138913413037, -19711.096256152843, -19711.0555243786, -19711.0165945756, -19710.97935347122]",True,2000-02,False,PeriodIndex,True,PeriodIndex,True
2000-04,2000-04-01,2000Q2,1,44,495,1,-19758.28116583625,43,2e-06,100,1.8939808763921948e-06,"[-19791.789598895484, -19771.42890605297, -19768.880185864597, -19767.245006749814, -19766.03723423044, -19765.08770727126, -19764.31427339055, -19763.669291464215, -19763.12208430741, -19762.651535263503, -19762.242430465692, -19761.883439363904, -19761.565906714575, -19761.283085799132, -19761.029629221903, -19760.801238585176, -19760.594416515116, -19760.406286974125, -19760.234462463653, -19760.07694421072, -19759.932046036945, -19759.79833553565, -19759.67458809587, -19759.559750593908, -19759.452912449426, -19759.353282353986, -19759.26016941289, -19759.17296775212, -19759.091143869082, -19759.01422617269, -19758.941796283434, -19758.873481757342, -19758.80894996965, -19758.74790294819, -19758.69007298918, -19758.635218920703, -19758.583122905162, -19758.533587692298, -19758.486434250513, -19758.441499717195, -19758.398635619153, -19758.35770632249, -19758.31858767837, -19758.28116583625]",True,2000-03,False,PeriodIndex,True,PeriodIndex,True
2000-05,2000-05-01,2000Q2,2,44,496,1,-19795.807926925725,43,2e-06,100,1.8844872456848523e-06,"[-19829.52466084756, -19808.990299601744, -19806.428113003007, -19804.78638457083, -19803.57362494747, -19802.62016650156, -19801.84369119082, -19801.19640886705, -19800.647499858984, -19800.175721556196, -19799.76575474855, -19799.40618369945, -19799.08828571633, -19798.805261412464, -19798.55172265802, -19798.323339766983, -19798.11659145564, -19797.92858348806, -19797.756914560625, -19797.599575459615, -19797.454872134185, -19797.321366261553, -19797.197828802735, -19797.083203336733, -19796.976576844492, -19796.87715623043, -19796.784249306966, -19796.697249281817, -19796.6156220178, -19796.538895503778, -19796.46665110205, -19796.39851623222, -19796.334158224246, -19796.27327912854, -19796.215611313906, -19796.16091371741, -19796.10896863642, -19796.059578973705, -19796.012565862657, -19795.967766613012, -19795.925032927742, -19795.884229350322, -19795.84523190843, -19795.807926925725]",True,2000-04,False,PeriodIndex,True,PeriodIndex,True
2000-06,2000-06-01,2000Q2,3,44,497,1,-19842.462676049596,43,2e-06,100,1.8816708639056559e-06,"[-19875.890972443565, -19855.5842421633, -19853.05177575801, -19851.42062772291, -19850.2138212512, -19849.264372171143, -19848.490766975134, -19847.845587593212, -19847.29823734743, -19846.827622966666, -19846.41852982816, -19846.05961701701, -19845.74221607612, -19845.459567325175, -19845.206311948878, -19844.978142065615, -19844.771552721006, -19844.58366198663, -19844.412077892084, -19844.254798343638, -19844.110134754217, -19843.97665301848, -19843.853127372076, -19843.738503951543, -19843.631871746955, -19843.532439250186, -19843.43951553492, -19843.35249481645, -19843.27084376658, -19843.19409102685, -19843.1218184884, -19843.053654001003, -19842.989265245735, -19842.92835456036, -19842.870654549406, -19842.815924343588, -19842.763946399515, -19842.7145237509, -19842.66747763874, -19842.622645461062, -19842.579878993074, -19842.539042837117, -19842.50001306861, -19842.462676049596]",True,2000-05,False,PeriodIndex,True,PeriodIndex,True
2000-07,2000-07-01,2000Q3,1,44,498,1,-19901.133452370785,43,2e-06,100,1.885632913191114e-06,"[-19934.954397709316, -19914.216023403802, -19911.69929172352, -19910.08086477781, -19908.88227715013, -19907.938062085766, -19907.167791081105, -19906.52470932828, -19905.978630346937, -19905.508723799703, -19905.09994942535, -19904.74108514052, -19904.423545178397, -19904.14062829015, -19903.88701740376, -19903.65843467654, -19903.451396859033, -19903.263037723023, -19903.090976632167, -19902.933219629973, -19902.788083913954, -19902.654139426173, -19902.530163164578, -19902.415103077277, -19902.30804926368, -19902.208210808218, -19902.114896999214, -19902.027501992798, -19901.94549220606, -19901.868395888992, -19901.79579444836, -19901.727315189783, -19901.66262521487, -19901.601426264846, -19901.54345034396, -19901.488455988565, -19901.436225073754, -19901.38656006931, -19901.339281673107, -19901.29422676284, -19901.251246617256, -19901.210205366602, -19901.170978638413, -19901.133452370785]",True,2000-06,False,PeriodIndex,True,PeriodIndex,True
2000-08,2000-08-01,2000Q3,2,47,499,1,-21729.6874419125,73,2e-06,100,1.851955747657989e-06,"[-23897.00106678589, -22857.32712805929, -22553.136864246888, -22337.168496394188, -22180.924688410603, -22077.967115538944, -22014.315281516414, -21972.427167281312, -21940.662599497922, -21914.55491748092, -21892.940150757113, -21875.233982870104, -21860.419923414498, -21846.218117578912, -21827.148545898282, -21797.468831490427, -21771.936592581846, -21760.507097340975, -21755.28203633787, -21752.042289105615, -21749.568952228045, -21747.520901390246, -21745.774640217114, -21744.26453687305, -21742.945987025283, -21741.78560819252, -21740.757498946303, -21739.84118129182, -21739.02023655387, -21738.281338480505, -21737.613549802492, -21737.00780247592, -21736.45650859098, -21735.953265448312, -21735.49262929953, -21735.069939742018, -21734.68118191881, -21734.322877259583, -21733.99199601012, -21733.6858865748, -21733.402217965297, -21733.138932564907, -21732.8942070856, -21732.66642008665, -21732.45412479, -21732.256026202245, -21732.070961762078, -21731.897884891492, -21731.735850952806, -21731.58400520929, -21731.441572463005, -21731.307848102886, -21731.182190343898, -21731.064013476018, -21730.952781972836, -21730.848005334294, -21730.749233558723, -21730.656053155915, -21730.56808362681, -21730.484974346902, -21730.40640179973, -21730.332067114974, -21730.26169387229, -21730.19502613733, -21730.131826701567, -21730.071875501, -21730.01496819261, -21729.960914870077, -21729.90953890277, -21729.860675884076, -21729.81417267702, -21729.769886546568, -21729.727684369318, -21729.6874419125]",True,2000-07,False,PeriodIndex,True,PeriodIndex,True
2000-09,2000-09-01,2000Q3,3,47,500,1,-21770.65648764514,43,2e-06,100,1.8849016448962542e-06,"[-21804.584132292788, -21784.53435608879, -21781.95426463216, -21780.258644105146, -21778.991126946683, -21777.98746322394, -21777.165907918632, -21776.478278543087, -21775.893199800317, -21775.388896461787, -21774.94958015624, -21774.56343210369, -21774.221385723366, -21773.916348256498, -21773.642680665635, -21773.395837902215, -21773.172113091125, -21772.968451408502, -21772.7823120394, -21772.611564096966, -21772.454407017005, -21772.309308899465, -21772.174958210664, -21772.05022556615, -21771.93413321102, -21771.825830441816, -21771.724573659776, -21771.629710066874, -21771.540664250686, -21771.45692707788, -21771.378046445796, -21771.30361953927, -21771.23328631472, -21771.1667239904, -21771.10364236636, -21771.043779831853, -21770.986899945452, -21770.932788494138, -21770.881250955088, -21770.832110297186, -21770.7852050704, -21770.740387740043, -21770.69752323004, -21770.65648764514]",True,2000-08,False,PeriodIndex,True,PeriodIndex,True
2000-10,2000-10-01,2000Q4,1,47,501,1,-21814.58339229351,42,2e-06,100,1.905531559173244e-06,"[-21848.407409603828, -21828.108766662735, -21825.552158424965, -21823.882446515476, -21822.638103503185, -21821.65489258008, -21820.851524921767, -21820.180213932792, -21819.60988652511, -21819.118997804664, -21818.691938687716, -21818.317033231368, -21817.985331071577, -21817.68983574425, -21817.424989256277, -21817.186315691164, -21816.970167832675, -21816.773542860898, -21816.593945689856, -21816.42928595099, -21816.27779922067, -21816.137986022255, -21816.00856405877, -21815.888430426494, -21815.77663144884, -21815.672338391312, -21815.57482775996, -21815.483465204357, -21815.397692278555, -21815.317015485583, -21815.240997159384, -21815.169247835074, -21815.1014198322, -21815.037201832332, -21814.976314276264, -21814.918505440182, -21814.86354807714, -21814.811236531314, -21814.761384249392, -21814.713821627018, -21814.66839413892, -21814.624960710218, -21814.58339229351]",True,2000-09,False,PeriodIndex,True,PeriodIndex,True
2000-11,2000-11-01,2000Q4,2,47,502,1,-21855.97139433453,42,2e-06,100,1.8943133237974461e-06,"[-21889.789909741005, -21869.480364102434, -21866.922898926954, -21865.252926542707, -21864.00848046716, -21863.02541245731, -21862.222419256897, -21861.551660937883, -21860.982009435735, -21860.491874212752, -21860.06561130518, -21859.691519235905, -21859.360629481012, -21859.06593298845, -21858.801863291497, -21858.56393899596, -21858.348509567386, -21858.152570410166, -21857.973625753548, -21857.80958530611, -21857.658685244336, -21857.51942704179, -21857.390529576893, -21857.27089125685, -21857.159559787477, -21857.055707842705, -21856.95861333129, -21856.867643277896, -21856.782240569388, -21856.701912989905, -21856.626224097134, -21856.554785589604, -21856.487250888968, -21856.42330971789, -21856.362683498563, -21856.30512143077, -21856.25039713565, -21856.19830577255, -21856.148661553063, -21856.101295590197, -21856.056054031214, -21856.01279643156, -21855.97139433453]",True,2000-10,False,PeriodIndex,True,PeriodIndex,True
2000-12,2000-12-01,2000Q4,3,47,503,1,-21892.776686814384,42,2e-06,100,1.8631452944871337e-06,"[-21926.958534731515, -21906.364412381634, -21903.780253780238, -21902.089771005936, -21900.829659172585, -21899.83460056488, -21899.022456684328, -21898.34478100313, -21897.76998453946, -21897.276116240246, -21896.847245822966, -21896.471442596485, -21896.139553707173, -21895.84442144847, -21895.58035924397, -21895.342788534894, -21895.127980132373, -21894.93286576398, -21894.754898132815, -21894.591945300723, -21894.442209845467, -21894.30416620815, -21894.17651159866, -21894.058127141056, -21893.948046845086, -21893.845432622915, -21893.749554021015, -21893.65977166227, -21893.57552363147, -21893.496314213477, -21893.421704524953, -21893.351304680116, -21893.284767206835, -21893.22178148757, -21893.162069044945, -21893.10537952683, -21893.051487273602, -21893.000188372083, -21892.951298118074, -21892.904648823293, -21892.86008791386, -21892.81747627625, -21892.776686814384]",True,2000-11,False,PeriodIndex,True,PeriodIndex,True
2001-01,2001-01-01,2001Q1,1,47,504,1,-21933.780616486787,42,2e-06,100,1.8861509896848105e-06,"[-21967.70522175041, -21947.305819685047, -21944.743168709392, -21943.06919563408, -21941.821782087958, -21940.836481346636, -21940.031811145287, -21939.359809444868, -21938.789255234937, -21938.298484499297, -21937.87179475655, -21937.497437974813, -21937.166408676363, -21936.871668527467, -21936.607627884398, -21936.36978702098, -21936.154480912362, -21935.958693519475, -21935.779920047138, -21935.616063103043, -21935.465353294763, -21935.32628774912, -21935.197581974244, -21935.078131788145, -21934.966982932714, -21934.86330661871, -21934.76637969262, -21934.67556843748, -21934.590315254623, -21934.5101276465, -21934.434569050834, -21934.363251173792, -21934.29582754452, -21934.23198807064, -21934.171454418552, -21934.113976076675, -21934.0593269873, -21934.007302653714, -21933.95771764643, -21933.91040344607, -21933.8652065711, -21933.82198694782, -21933.780616486787]",True,2000-12,False,PeriodIndex,True,PeriodIndex,True
2001-02,2001-02-01,2001Q1,2,47,505,1,-22002.106736500733,42,2e-06,100,1.8783818495493623e-06,"[-22036.250247622324, -22015.637603321604, -22013.07639025638, -22011.40368170685, -22010.156025900786, -22009.16975586172, -22008.363875468393, -22007.690658531043, -22007.11898832461, -22006.62724035012, -22006.199720165292, -22005.8246728771, -22005.4930796576, -22005.1978866413, -22004.933488649138, -22004.695371463255, -22004.47985705245, -22004.28391797658, -22004.105039599275, -22003.941116122485, -22003.790371027815, -22003.651295434527, -22003.522599807802, -22003.40317574722, -22003.29206547662, -22003.18843728103, -22003.091565580493, -22003.000814651587, -22002.915625241716, -22002.83550349506, -22002.760011738697, -22002.68876077532, -22002.62140340385, -22002.557628946393, -22002.49715860456, -22002.439741502654, -22002.38515130262, -22002.333183297007, -22002.28365190335, -22002.236388497062, -22002.191239530814, -22002.148064897494, -22002.106736500733]",True,2001-01,False,PeriodIndex,True,PeriodIndex,True
2001-03,2001-03-01,2001Q1,3,47,506,1,-22048.66231195625,42,2e-06,100,1.8751051702321816e-06,"[-22082.69257482756, -22062.208499366425, -22059.64024434756, -22057.96471512094, -22056.715422805955, -22055.728096763414, -22054.92151482028, -22054.247825053484, -22053.675833315625, -22053.18386526908, -22052.756193431887, -22052.38104059903, -22052.049372721507, -22051.754125506584, -22051.489686633624, -22051.251537013457, -22051.035995319082, -22050.840031909607, -22050.66113070857, -22050.49718500454, -22050.346417728448, -22050.207319696303, -22050.078601236542, -22049.95915392172, -22049.848020018704, -22049.744367897954, -22049.647472088407, -22049.556696985954, -22049.471483459143, -22049.391337769484, -22049.315822354045, -22049.244548116156, -22049.177167945047, -22049.113371242493, -22049.05287927925, -22048.99544123873, -22048.94083083255, -22048.888843394245, -22048.83929337437, -22048.792012174184, -22048.746846265778, -22048.70365555571, -22048.66231195625]",True,2001-02,False,PeriodIndex,True,PeriodIndex,True
2001-04,2001-04-01,2001Q2,1,47,507,1,-22100.431456300677,42,2e-06,100,1.871288154255131e-06,"[-22134.38595447978, -22113.943220023924, -22111.391099840344, -22109.720584350594, -22108.474048215852, -22107.488616894974, -22106.683445788258, -22106.010853288542, -22105.43974170433, -22104.9484964999, -22104.521429297838, -22104.14678955118, -22103.815562036616, -22103.52069616592, -22103.25658986167, -22103.018731869895, -22102.803446980615, -22102.607710416207, -22102.42901003005, -22102.265242332804, -22102.114632931938, -22101.975674892972, -22101.847080455, -22101.727742828778, -22101.61670569778, -22101.513138666876, -22101.41631734807, -22101.325607093466, -22101.2404496206, -22101.16035194857, -22101.084877193596, -22101.01363687042, -22100.946284420697, -22100.88250974708, -22100.822034575853, -22100.764608505866, -22100.710005628564, -22100.65802162553, -22100.608471266933, -22100.561186248036, -22100.51601331185, -22100.47281261496, -22100.431456300677]",True,2001-03,False,PeriodIndex,True,PeriodIndex,True
2001-05,2001-05-01,2001Q2,2,48,508,1,-22305.54276505108,76,2e-06,100,1.8391621151277751e-06,"[-24504.53480825996, -23447.15326044145, -23140.318613462587, -22921.83078156216, -22763.34651169277, -22659.056641290845, -22594.98560044748, -22553.210274536337, -22521.65906731913, -22495.650396750512, -22474.088167819005, -22456.666494012148, -22442.936101282463, -22432.099581787148, -22422.956548986193, -22413.43894366052, -22398.79428140117, -22372.544213454796, -22346.020555497744, -22333.392091787326, -22328.272010280758, -22325.509130929295, -22323.507319273405, -22321.850056306885, -22320.416505480476, -22319.156352573078, -22318.038953848303, -22317.04171798893, -22316.14684710912, -22315.33996628069, -22314.609304569887, -22313.945121119825, -22313.33928032254, -22312.78493031691, -22312.276256321184, -22311.808289193083, -22311.376755266007, -22310.977957381212, -22310.60867975135, -22310.266111217552, -22309.94778284392, -22309.651516791975, -22309.375384148094, -22309.11766991521, -22308.876843781334, -22308.65153557924, -22308.440514580478, -22308.242671942728, -22308.057005764662, -22307.88260830834, -22307.718655032084, -22307.56439514224, -22307.419143424675, -22307.282273158504, -22307.153209948643, -22307.03142634094, -22306.9164371061, -22306.807795097015, -22306.705087599097, -22306.607933105777, -22306.515978461644, -22306.428896324443, -22306.34638290415, -22306.26815594374, -22306.19395291114, -22306.123529376033, -22306.05665754934, -22305.993124965666, -22305.932733292095, -22305.875297248713, -22305.820643628293, -22305.76861040411, -22305.719045916332, -22305.671808128587, -22305.62676394739, -22305.583788598015, -22305.54276505108]",True,2001-04,False,PeriodIndex,True,PeriodIndex,True
2001-06,2001-06-01,2001Q2,3,48,509,1,-22349.021927738453,43,2e-06,100,1.8597233644223768e-06,"[-22383.62554308194, -22363.249919491802, -22360.58619332039, -22358.82331620749, -22357.505639529765, -22356.46610930898, -22355.61925620828, -22354.913770177056, -22354.31596712744, -22353.802453358705, -22353.356332828644, -22352.96503703443, -22352.618993866075, -22352.310769328753, -22352.03449295872, -22351.785461540094, -22351.559858985238, -22351.35455411809, -22351.166951981475, -22350.994882694868, -22350.836517147167, -22350.69030218799, -22350.554910201972, -22350.42919943993, -22350.31218249746, -22350.20300103654, -22350.10090534245, -22350.00523766262, -22349.915418530756, -22349.83093546686, -22349.75133358322, -22349.676207730146, -22349.605195894124, -22349.53797362086, -22349.47424928198, -22349.413760040006, -22349.356268394247, -22349.301559212126, -22349.249437168306, -22349.199724527596, -22349.15225921898, -22349.106893157194, -22349.063490775352, -22349.021927738453]",True,2001-05,False,PeriodIndex,True,PeriodIndex,True
2001-07,2001-07-01,2001Q3,1,48,510,1,-22398.498504003008,42,2e-06,100,1.8748044455554852e-06,"[-22432.2116423477, -22412.039589252767, -22409.515255125378, -22407.85073510403, -22406.603829767162, -22405.615845985645, -22404.80737426968, -22404.131288868623, -22403.556724305945, -22403.062165593343, -22402.63196469022, -22402.254383318596, -22401.920404787266, -22401.622970340344, -22401.35646665636, -22401.116370083386, -22400.898992891012, -22400.701298205677, -22400.520762485477, -22400.355271669207, -22400.20304165119, -22400.06255662885, -22399.932520777824, -22399.81181999641, -22399.699491347517, -22399.59469844751, -22399.496711493874, -22399.40489094355, -22399.318674087473, -22399.23756394029, -22399.161119993616, -22399.088950479192, -22399.020705862877, -22398.956073347763, -22398.894772209016, -22398.836549817945, -22398.781178239733, -22398.72845131102, -22398.67818212046, -22398.630200829255, -22398.584352779464, -22398.54049684694, -22398.498504003008]",True,2001-06,False,PeriodIndex,True,PeriodIndex,True
2001-08,2001-08-01,2001Q3,2,48,511,1,-22446.135251919284,42,2e-06,100,1.8688925391932357e-06,"[-22480.130303432223, -22459.818786773616, -22457.240616268602, -22455.542251324063, -22454.27374453182, -22453.271866138643, -22452.454435653468, -22451.772594007976, -22451.194368339966, -22450.697525378615, -22450.26594648276, -22449.887582994725, -22449.553212598672, -22449.25563990601, -22448.989160640966, -22448.749190562194, -22448.532001599866, -22448.334530080727, -22448.154234735386, -22447.988989863923, -22447.83700381293, -22447.696755982106, -22447.566947597268, -22447.446462846645, -22447.334337912125, -22447.229736080226, -22447.131927581555, -22447.040273141443, -22446.95421046792, -22446.8732430826, -22446.796931034194, -22446.72488313479, -22446.65675043577, -22446.592220718958, -22446.531013823645, -22446.472877665627, -22446.417584831972, -22446.36492965687, -22446.314725701523, -22446.266803574475, -22446.221009040313, -22446.17720137319, -22446.135251919284]",True,2001-07,False,PeriodIndex,True,PeriodIndex,True
2001-09,2001-09-01,2001Q3,3,48,512,1,-22472.66191005335,42,2e-06,100,1.8538919127647448e-06,"[-22506.531211650512, -22486.239164517927, -22483.68872763496, -22482.008449743826, -22480.75228784952, -22479.759057931413, -22478.947826918615, -22478.270537981545, -22477.695746023783, -22477.201568924287, -22476.772123128954, -22476.39551800928, -22476.062637873652, -22475.766359594505, -22475.501028163966, -22475.262093212008, -22475.045850219183, -22474.84925213085, -22474.669769625914, -22474.505285790452, -22474.35401560004, -22474.214443596713, -22474.08527510948, -22473.96539769016, -22473.853850345877, -22473.7497987862, -22473.65251535562, -22473.561362648623, -22473.475780043023, -22473.395272563732, -22473.319401620513, -22473.247777262863, -22473.180051670668, -22473.11591365721, -22473.055084006213, -22472.997311499457, -22472.942369518918, -22472.89005312929, -22472.840176563666, -22472.79257104924, -22472.74708292071, -22472.70357197814, -22472.66191005335]",True,2001-08,False,PeriodIndex,True,PeriodIndex,True
2001-10,2001-10-01,2001Q4,1,48,513,1,-22297.13821472239,41,2e-06,100,1.8860929182040074e-06,"[-22406.754623976383, -22317.437430495585, -22310.56247546867, -22307.710979703577, -22305.883162671442, -22304.578106948215, -22303.59251228902, -22302.81492123039, -22302.180120459736, -22301.648445962688, -22301.194650837944, -22300.80182620351, -22300.458066654242, -22300.15461217088, -22299.884782310364, -22299.64333979765, -22299.426092133446, -22299.229629651323, -22299.05114517339, -22298.888304804135, -22298.73915231348, -22298.602036554246, -22298.475555270732, -22298.358510926988, -22298.249875562018, -22298.14876255148, -22298.054403732065, -22297.96613073881, -22297.883359684398, -22297.805578511303, -22297.73233649668, -22297.663235501997, -22297.597922644833, -22297.536084135827, -22297.47744007468, -22297.421740039437, -22297.36875933434, -22297.318295786747, -22297.270167003633, -22297.224208014, -22297.18026923653, -22297.13821472239]",True,2001-09,False,PeriodIndex,True,PeriodIndex,True
2001-11,2001-11-01,2001Q4,2,48,514,1,-22394.382344746926,41,2e-06,100,1.8761583893905727e-06,"[-22433.922989753755, -22408.319717812323, -22405.18267746475, -22403.363331155662, -22402.08406839531, -22401.10397938917, -22400.31712050802, -22399.66662661219, -22399.117879521327, -22398.647924890814, -22398.240608210675, -22397.884070943117, -22397.569337710716, -22397.289457030445, -22397.038946623088, -22396.8134184368, -22396.609316025075, -22396.423725491823, -22396.254236390545, -22396.098837530404, -22395.955837741953, -22395.82380483095, -22395.70151799937, -22395.58793037704, -22395.482139237476, -22395.38336211802, -22395.29091752234, -22395.20420921163, -22395.122713330362, -22395.045967788097, -22394.973563450327, -22394.905136789428, -22394.840363721836, -22394.778954414513, -22394.72064888799, -22394.66521327744, -22394.61243664012, -22394.562128218473, -22394.514115085156, -22394.468240109378, -22394.42436019465, -22394.382344746926]",True,2001-10,False,PeriodIndex,True,PeriodIndex,True
2001-12,2001-12-01,2001Q4,3,48,515,1,-22901.301686456678,54,2e-06,100,1.9298435675565213e-06,"[-22950.965689524208, -22918.484601315373, -22914.989588539553, -22913.09255428885, -22911.729773272873, -22910.655371008674, -22909.77231192543, -22909.027976293775, -22908.38910687317, -22907.832945605453, -22907.343152413163, -22906.9075999442, -22906.517058441914, -22906.16435940089, -22905.843839336376, -22905.550957281856, -22905.28202471896, -22905.034010691863, -22904.804398541015, -22904.591078865524, -22904.392268396932, -22904.206447714263, -22904.03231286223, -22903.86873736537, -22903.71474210976, -22903.569471244726, -22903.432172737907, -22903.30218256133, -22903.178911735467, -22903.061835641605, -22902.950485147994, -22902.84443919709, -22902.743318577603, -22902.646780663585, -22902.554514947456, -22902.466239228866, -22902.38169634781, -22902.300651372323, -22902.222889167166, -22902.148212283682, -22902.076439121545, -22902.007402321433, -22901.94094735507, -22901.87693128409, -22901.815221664336, -22901.755695575568, -22901.698238759745, -22901.642744853765, -22901.589114704482, -22901.537255755582, -22901.487081497602, -22901.438510973443, -22901.39146833265, -22901.345882429072, -22901.301686456678]",True,2001-11,False,PeriodIndex,True,PeriodIndex,True
2002-01,2002-01-01,2002Q1,1,48,516,1,-22970.3057121137,54,2e-06,100,1.90832476712264e-06,"[-23009.38794748156, -22986.430151459906, -22983.694640961803, -22981.94348569805, -22980.631473239235, -22979.584335061994, -22978.718637085694, -22977.985979539342, -22977.3551355313, -22976.80456929827, -22976.318738079965, -22975.886047345542, -22975.497625708944, -22975.14654605386, -22974.827307519743, -22974.535478673843, -22974.267444723202, -22974.020224268606, -22973.79133388506, -22973.578686381472, -22973.380513256554, -22973.195304839657, -22973.021763553777, -22972.858767045476, -22972.705338823387, -22972.560624672537, -22972.423873555847, -22972.29442203315, -22972.17168146119, -22972.055127409098, -22971.944290852098, -22971.83875080197, -22971.738128106103, -22971.64208020259, -22971.550296662164, -22971.462495381147, -22971.37841931585, -22971.297833669516, -22971.22052345937, -22971.146291404206, -22971.074956083627, -22971.0063503283, -22970.940319807527, -22970.876721786037, -22970.81542402627, -22970.75630381629, -22970.69924710669, -22970.644147741936, -22970.59090677437, -22970.53943185015, -22970.489636658553, -22970.44144043685, -22970.394767524194, -22970.349546958823, -22970.3057121137]",True,2001-12,False,PeriodIndex,True,PeriodIndex,True
2002-02,2002-02-01,2002Q1,2,48,517,1,-23020.212196891956,54,2e-06,100,1.921096716895925e-06,"[-23057.048318143698, -23036.05073588135, -23033.47155194114, -23031.761608345892, -23030.46937937875, -23029.434812972297, -23028.57831925351, -23027.852948040614, -23027.228133116958, -23026.682686731343, -23026.201273263425, -23025.77243408328, -23025.387393621346, -23025.03929588171, -23024.722694807104, -23024.433202428176, -23024.167239243252, -23023.92185309202, -23023.69458520424, -23023.483369501184, -23023.28645580394, -23023.102350526013, -23022.929770346258, -23022.76760564784, -23022.61489139284, -23022.470783720004, -23022.33454099091, -23022.205508325205, -23022.083104895337, -23021.96681342085, -23021.856171428473, -23021.750763939497, -23021.65021731822, -23021.554194070435, -23021.462388423774, -23021.374522555117, -23021.29034335597, -23021.20961964747, -23021.132139772988, -23021.057709509005, -23020.986150245684, -23020.917297396725, -23020.850999004877, -23020.787114515282, -23020.72551369291, -23020.66607566461, -23020.608688068773, -23020.55324629871, -23020.49965282746, -23020.44781660399, -23020.397652511703, -23020.349080881955, -23020.302027055794, -23020.25642098851, -23020.212196891956]",True,2002-01,False,PeriodIndex,True,PeriodIndex,True
2002-03,2002-03-01,2002Q1,3,48,518,1,-23069.75792188326,54,2e-06,100,1.9068144808069955e-06,"[-23106.51272657839, -23085.680075309276, -23083.089007915776, -23081.366345603885, -23080.063870293237, -23079.021125872026, -23078.158008598097, -23077.427190513605, -23076.797836073165, -23076.248562124594, -23075.76388875082, -23075.332249279258, -23074.944786267446, -23074.59458093592, -23074.276138469755, -23073.985032513927, -23073.717652904455, -23073.471022616555, -23073.242662409466, -23073.030489100973, -23072.83273802119, -23072.647903147536, -23072.474690362935, -23072.31198058357, -23072.158800397843, -23072.014298483693, -23071.877726514882, -23071.748423586243, -23071.625803420924, -23071.509343793758, -23071.39857773319, -23071.293086160196, -23071.192491695707, -23071.096453423997, -23071.004662442716, -23070.91683806354, -23070.832724554057, -23070.752088331836, -23070.67471553813, -23070.60040993186, -23070.52899105481, -23070.460292627482, -23070.394161141943, -23070.330454623465, -23070.26904153741, -23070.20979982143, -23070.152616026266, -23070.097384550856, -23070.044006959626, -23069.99239137173, -23069.942451913237, -23069.894108224682, -23069.847285017524, -23069.801911673676, -23069.75792188326]",True,2002-02,False,PeriodIndex,True,PeriodIndex,True
2002-04,2002-04-01,2002Q2,1,48,519,1,-23115.846467101903,54,2e-06,100,1.927125425956503e-06,"[-23152.676590787574, -23131.547296308698, -23128.970562423685, -23127.263395469312, -23125.976317192977, -23124.94841422113, -23124.09938154053, -23123.381806414673, -23122.764828458072, -23122.227072449423, -23121.753084489297, -23121.331333607828, -23120.95300284594, -23120.61121581131, -23120.300520293167, -23120.016531772395, -23119.755680582835, -23119.515028537775, -23119.29213340354, -23119.08494709544, -23118.891738111393, -23118.711031684314, -23118.541563082214, -23118.382240793937, -23118.232117236712, -23118.090365248554, -23117.956259073628, -23117.82915886853, -23117.70849799075, -23117.59377250264, -23117.484532452465, -23117.38037459007, -23117.280936248528, -23117.1858901788, -23117.094940167757, -23117.007817303678, -23116.924276779493, -23116.844095144916, -23116.767067934874, -23116.693007614962, -23116.62174179492, -23116.553111669782, -23116.486970655027, -23116.42318318777, -23116.361623670542, -23116.302175537843, -23116.244730428938, -23116.18918745277, -23116.13545253289, -23116.083437822377, -23116.033061179915, -23115.984245699463, -23115.93691928724, -23115.891014280296, -23115.846467101903]",True,2002-03,False,PeriodIndex,True,PeriodIndex,True
2002-05,2002-05-01,2002Q2,2,48,520,1,-23166.348681219846,54,2e-06,100,1.934809965535796e-06,"[-23203.320036870773, -23182.080926208073, -23179.49961471203, -23177.791182973822, -23176.503581847333, -23175.47526129739, -23174.62574661441, -23173.90759795838, -23173.289968959118, -23172.751506729473, -23172.276777905652, -23171.85426782789, -23171.47517169283, -23171.132621852616, -23170.821172227268, -23170.53644248817, -23170.274865741307, -23170.03350554406, -23169.809920666157, -23169.60206349605, -23169.408202628336, -23169.226863128664, -23169.05677991614, -23168.89686100917, -23168.746158276925, -23168.603843963636, -23168.469191696873, -23168.341561010246, -23168.220384643435, -23168.105158054143, -23167.995430704388, -23167.890798779626, -23167.790899072337, -23167.695403817674, -23167.604016311692, -23167.51646717661, -23167.432511163483, -23167.351924403392, -23167.274502035012, -23167.200056148955, -23167.128414000166, -23167.059416447977, -23166.99291659018, -23166.928778563157, -23166.866876484688, -23166.807093519503, -23166.74932105124, -23166.693457946407, -23166.63940989855, -23166.58708884247, -23166.53641242945, -23166.487303556416, -23166.439689942184, -23166.3935037455, -23166.348681219846]",True,2002-04,False,PeriodIndex,True,PeriodIndex,True
2002-06,2002-06-01,2002Q2,3,48,521,1,-23209.238090082607,55,2e-06,100,1.9034816939050041e-06,"[-23246.507468867385, -23225.33623803261, -23222.662119924542, -23220.890140276773, -23219.55889442753, -23218.50077449523, -23217.630994226638, -23216.8990664091, -23216.272033214183, -23215.72710101852, -23215.24786334118, -23214.822152426525, -23214.4407267582, -23214.096427160235, -23213.783612985026, -23213.497773933563, -23213.23525614824, -23212.993064876806, -23212.76871970819, -23212.56014665895, -23212.365596563257, -23212.183582543923, -23212.01283152922, -23211.852246247778, -23211.700875136754, -23211.557888294017, -23211.42255809559, -23211.29424344904, -23211.17237690623, -23211.05645404385, -23210.94602465639, -23210.84068540848, -23210.740073670135, -23210.64386231704, -23210.55175532285, -23210.46348400522, -23210.37880381416, -23210.297491572783, -23210.21934309692, -23210.144171133878, -23210.071803570696, -23210.002081871367, -23209.93485970905, -23209.870001765106, -23209.807382671308, -23209.74688607541, -23209.68840381331, -23209.63183517361, -23209.57708624257, -23209.52406931914, -23209.472702391373, -23209.422908666522, -23209.37461614854, -23209.327757257266, -23209.282268484487, -23209.238090082607]",True,2002-05,False,PeriodIndex,True,PeriodIndex,True
2002-07,2002-07-01,2002Q3,1,48,522,1,-23245.647524683143,55,2e-06,100,1.9170989179539014e-06,"[-23282.55727774058, -23261.46778208999, -23258.88422444895, -23257.175175597313, -23255.88745882838, -23254.859140689856, -23254.009639666954, -23253.29147978114, -23252.67379986526, -23252.135239713636, -23251.660361684626, -23251.237648345414, -23250.858293071775, -23250.51542714123, -23250.203604057293, -23249.91844367767, -23249.656379844622, -23249.414477343016, -23249.190296596484, -23248.981792005925, -23248.78723446915, -23248.60515158089, -23248.43428095506, -23248.273533416697, -23248.12196370582, -23247.978746961035, -23247.843159693453, -23247.714564281065, -23247.592396245785, -23247.476153747397, -23247.365388855862, -23247.25970026017, -23247.158727144786, -23247.06214402053, -23246.969656340436, -23246.880996764176, -23246.795921961384, -23246.714209864713, -23246.635657300023, -23246.560077934082, -23246.48730049084, -23246.417167195686, -23246.34953241401, -23246.28426145595, -23246.221229523806, -23246.160320782383, -23246.101427535505, -23246.04444949452, -23245.989293126982, -23245.935871075024, -23245.88410163484, -23245.83390828972, -23245.785219290112, -23245.737967275294, -23245.692088931577, -23245.647524683143]",True,2002-06,False,PeriodIndex,True,PeriodIndex,True
2002-08,2002-08-01,2002Q3,2,48,523,1,-23290.415672122275,55,2e-06,100,1.9242476902318187e-06,"[-23327.51543427003, -23306.263841357082, -23303.677831244247, -23301.971111620645, -23300.684822071147, -23299.656990488194, -23298.807339782954, -23298.088622882595, -23297.470129689744, -23296.93059944347, -23296.454661002437, -23296.030841986252, -23295.65036646092, -23295.306386544537, -23294.993469711582, -23294.70724495013, -23294.44415180603, -23294.20125834179, -23293.976126548747, -23293.766711200784, -23293.57128274601, -23293.388367775417, -23293.21670253887, -23293.05519627619, -23292.902902020447, -23292.758993151896, -23292.622744421074, -23292.493516476832, -23292.370743165986, -23292.2539210415, -23292.14260064342, -23292.036379211982, -23291.934894565456, -23291.837819930395, -23291.744859555318, -23291.655744972246, -23291.570231796388, -23291.488096975336, -23291.40913641521, -23291.333162924333, -23291.26000442553, -23291.18950239652, -23291.121510504814, -23291.05589340899, -23290.992525702837, -23290.931290982568, -23290.872081020498, -23290.8147950309, -23290.759339016146, -23290.705625182807, -23290.653571419032, -23290.60310082556, -23290.55414129402, -23290.506625126825, -23290.460488693956, -23290.415672122275]",True,2002-07,False,PeriodIndex,True,PeriodIndex,True
2002-09,2002-09-01,2002Q3,3,48,524,1,-23337.97354888513,55,2e-06,100,1.928158940518793e-06,"[-23374.978179668993, -23353.791082182535, -23351.227556417576, -23349.529501205016, -23348.247734021454, -23347.22243463749, -23346.37418553476, -23345.656193477902, -23345.038013567042, -23344.49854589334, -23344.022518404694, -23343.598520180094, -23343.217813477357, -23342.87357409045, -23342.560384060645, -23342.273881206733, -23342.010510289707, -23341.76734231317, -23341.541940788746, -23341.33226113438, -23341.136573914264, -23340.95340553001, -23340.781491878275, -23340.619741770883, -23340.467207793372, -23340.323062891985, -23340.186581415528, -23340.05712365303, -23339.93412313702, -23339.81707615182, -23339.705533012326, -23339.599090773758, -23339.497387105504, -23339.400095117195, -23339.306918968294, -23339.21759012563, -23339.13186415952, -23339.04951798963, -23338.97034750816, -23338.894165520876, -23338.820799957182, -23338.750092308474, -23338.681896261347, -23338.616076497376, -23338.552507636075, -23338.491073301037, -23338.431665292752, -23338.37418285373, -23338.318532014113, -23338.26462500725, -23338.21237974675, -23338.161719357173, -23338.112571752135, -23338.064869254078, -23338.018548250864, -23337.97354888513]",True,2002-08,False,PeriodIndex,True,PeriodIndex,True
2002-10,2002-10-01,2002Q4,1,48,525,1,-23379.938526435923,55,2e-06,100,1.924595724091316e-06,"[-23416.918212596363, -23395.76762908895, -23393.193395604016, -23391.49019347306, -23390.205854233907, -23389.179375044623, -23388.33072699124, -23387.612775473484, -23386.99487908629, -23386.45582311373, -23385.98026798288, -23385.556763076253, -23385.17654752246, -23384.832783937258, -23384.5200471957, -23384.233971591446, -23383.971000560166, -23383.72820509648, -23383.503149473814, -23383.29379030422, -23383.09839956792, -23382.915505173958, -23382.743844537563, -23382.582327952026, -23382.430009419193, -23382.286063221305, -23382.14976495608, -23382.020476072634, -23381.897631176376, -23381.780727540765, -23381.669316390628, -23381.562995617096, -23381.461403656736, -23381.364214322886, -23381.27113242035, -23381.181890007796, -23381.096243198383, -23381.013969409847, -23380.934864991606, -23380.858743169374, -23380.785432258435, -23380.7147741051, -23380.646622722554, -23380.580843093187, -23380.517310113748, -23380.4559076636, -23380.39652777936, -23380.33906992175, -23380.28344032271, -23380.229551402426, -23380.17732124759, -23380.126673143306, -23380.07753515221, -23380.029839735198, -23379.98352340894, -23379.938526435923]",True,2002-09,False,PeriodIndex,True,PeriodIndex,True
2002-11,2002-11-01,2002Q4,2,48,526,1,-23435.4910429603,55,2e-06,100,1.9256911091349043e-06,"[-23472.705131448558, -23451.357352108455, -23448.775882543712, -23447.067607362642, -23445.77938553824, -23444.74984429415, -23443.898761772798, -23443.17887048379, -23442.559425887765, -23442.019130468925, -23441.542578035587, -23441.118264764933, -23440.737387671696, -23440.393076299762, -23440.07987971449, -23439.79341216023, -23439.53010154915, -23439.287006883747, -23439.06168318772, -23438.852079946453, -23438.656463654093, -23438.473358000156, -23438.301497157874, -23438.139788933142, -23437.987285423053, -23437.84315945526, -23437.70668552081, -23437.57722423112, -23437.454209561787, -23437.33713831709, -23437.225561376705, -23437.11907638211, -23437.017321593623, -23436.91997070451, -23436.826728442324, -23436.737326820716, -23436.651521932064, -23436.56909119113, -23436.489830957238, -23436.413554475064, -23436.340090084974, -23436.269279662087, -23436.200977250468, -23436.13504786411, -23436.071366431013, -23436.00981686076, -23435.950291218567, -23435.8926889918, -23435.836916436783, -23435.782885995675, -23435.730515774674, -23435.679729075873, -23435.630453976384, -23435.58262294915, -23435.536172520493, -23435.4910429603]",True,2002-10,False,PeriodIndex,True,PeriodIndex,True
2002-12,2002-12-01,2002Q4,3,49,527,1,-24061.37894679004,85,2e-06,100,1.8701493078883844e-06,"[-26507.90246350909, -25441.97117911198, -25114.513752289546, -24856.358249735655, -24641.396547097662, -24478.371536790874, -24370.1178246843, -24305.363468719035, -24267.252638120674, -24242.660198135658, -24224.49427300696, -24209.801788518897, -24197.592417798856, -24187.554406103136, -24179.396232359963, -24172.466651500858, -24165.256365527395, -24153.897647414677, -24131.198608588806, -24102.941075383016, -24087.69295034769, -24082.05961639556, -24079.629863283444, -24078.13063437868, -24076.94697162245, -24075.918589556557, -24074.99624968146, -24074.158228780725, -24073.391056536544, -24072.684816944333, -24072.031713959623, -24071.425441563402, -24070.860810878694, -24070.333494852828, -24069.83984284754, -24069.376742247376, -24068.94151337873, -24068.531828660492, -24068.145649693146, -24067.781177811255, -24067.43681485839, -24067.11113180317, -24066.802843424477, -24066.51078773377, -24066.233909122762, -24065.971244462424, -24065.721911555847, -24065.485099480662, -24065.260060457935, -24065.046102961816, -24064.84258584332, -24064.648913288285, -24064.46453046494, -24064.288919744882, -24064.12159740366, -24063.96211072418, -24063.81003544075, -24063.66497347227, -24063.526550902407, -24063.394416171577, -24063.26823845161, -24063.147706178755, -24063.03252572439, -24062.922420186365, -24062.817128286162, -24062.716403359533, -24062.620012429947, -24062.527735355765, -24062.43936404326, -24062.3547017187, -24062.27356225361, -24062.195769538128, -24062.12115689785, -24062.049566550366, -24061.98084909788, -24061.914863052916, -24061.851474394345, -24061.79055615137, -24061.731988013147, -24061.675655962274, -24061.62145193023, -24061.569273473302, -24061.51902346746, -24061.470609820928, -24061.4239452033, -24061.37894679004]",True,2002-11,False,PeriodIndex,True,PeriodIndex,True
2003-01,2003-01-01,2003Q1,1,49,528,1,-24106.655962804492,54,2e-06,100,1.917967741871291e-06,"[-24143.265156614623, -24122.25317776202, -24119.755283353057, -24118.10543032095, -24116.86024752629, -24115.862258506568, -24115.034027685026, -24114.330396277233, -24113.722216436352, -24113.189399917108, -24112.7174589949, -24112.29559033318, -24111.915527550114, -24111.570812956947, -24111.25631426003, -24110.96789236746, -24110.702166492276, -24110.456344119986, -24110.228095475228, -24110.015459257927, -24109.816770806778, -24109.630606635175, -24109.455741105972, -24109.29111223059, -24109.13579441118, -24108.9889765252, -24108.849944162153, -24108.71806511758, -24108.59277746411, -24108.473579677404, -24108.360022412926, -24108.2517016179, -24108.148252730145, -24108.049345767155, -24107.954681148418, -24107.8639861249, -24107.777011714086, -24107.69353005784, -24107.61333213554, -24107.536225777236, -24107.46203393103, -24107.390593146927, -24107.321752245574, -24107.255371145584, -24107.191319827492, -24107.1294774155, -24107.069731361502, -24107.01197671792, -24106.956115488007, -24106.902056043924, -24106.84971260425, -24106.799004763816, -24106.749857069583, -24106.702198637333, -24106.655962804492]",True,2002-12,False,PeriodIndex,True,PeriodIndex,True
2003-02,2003-02-01,2003Q1,2,49,529,1,-24145.819628673413,54,2e-06,100,1.8867011783053917e-06,"[-24182.53989155303, -24161.125762026277, -24158.624592331747, -24156.988234696746, -24155.75937282102, -24154.777806314276, -24153.96533896891, -24153.276598677887, -24152.682408749064, -24152.16271553005, -24151.7030848667, -24151.292769526328, -24150.923556093196, -24150.589035181198, -24150.28411813599, -24150.004705332256, -24149.747451860057, -24149.509598028235, -24149.28884428041, -24149.083257294013, -24148.891198432408, -24148.71126850979, -24148.542264648706, -24148.383146226435, -24148.233007737897, -24148.091056980695, -24147.956597377248, -24147.82901354242, -24147.707759419434, -24147.592348463775, -24147.482345472377, -24147.377359743605, -24147.277039320557, -24147.181066121426, -24147.089151800486, -24147.001034213987, -24146.916474389476, -24146.83525391599, -24146.757172687918, -24146.682046947142, -24146.609707577903, -24146.539998616725, -24146.472775945906, -24146.407906144235, -24146.345265473134, -24146.284738979466, -24146.226219699493, -24146.169607950535, -24146.11481069919, -24146.0617409963, -24146.01031747045, -24145.960463872914, -24145.912108667908, -24145.865184662733, -24145.819628673413]",True,2003-01,False,PeriodIndex,True,PeriodIndex,True
2003-03,2003-03-01,2003Q1,3,49,530,1,-24200.410028378574,53,2e-06,100,1.936381853915783e-06,"[-24236.927662667236, -24215.61300645548, -24213.141760248207, -24211.516831166282, -24210.29344202904, -24209.314909749115, -24208.504319728323, -24207.816841154334, -24207.22355001728, -24206.704521669868, -24206.245393977806, -24205.835463576605, -24205.466545958887, -24205.132252069678, -24204.827508283626, -24204.548226490486, -24204.291070823303, -24204.053288808926, -24203.83258671152, -24203.627035930105, -24203.43500166887, -24203.25508786786, -24203.08609418985, -24202.926982070225, -24202.776847663532, -24202.634900097233, -24202.500443850364, -24202.372864368233, -24202.25161623739, -24202.13621340214, -24202.026221020962, -24201.921248649276, -24201.82094450173, -24201.724990598494, -24201.63309863948, -24201.54500648136, -24201.460475116077, -24201.379286068743, -24201.30123914787, -24201.22615049277, -24201.153850872848, -24201.084184201078, -24201.017006230424, -24200.952183407026, -24200.889591858242, -24200.829116497058, -24200.770650227285, -24200.714093236194, -24200.659352363542, -24200.606340537106, -24200.554976266605, -24200.505183188972, -24200.45688965878, -24200.410028378574]",True,2003-02,False,PeriodIndex,True,PeriodIndex,True
2003-04,2003-04-01,2003Q2,1,49,531,1,-24231.92577139569,52,2e-06,100,1.9221918638990228e-06,"[-24268.724595053834, -24247.394378147146, -24244.83581902604, -24243.15487934775, -24241.890314647215, -24240.880352264638, -24240.04529312026, -24239.33846806702, -24238.729670916153, -24238.19806327805, -24237.728622933304, -24237.310163901282, -24236.934144505205, -24236.59390799793, -24236.284177459383, -24236.00070826296, -24235.740042331785, -24235.499330392566, -24235.27620092367, -24235.06866191893, -24234.87502617501, -24234.693853732744, -24234.523907018047, -24234.364115511835, -24234.21354765658, -24234.071388319342, -24233.93692056377, -24233.809510794883, -24233.688596566106, -24233.573676504704, -24233.464301935088, -24233.36006987282, -24233.260617131906, -24233.165615342597, -24233.07476671751, -24232.987800436764, -24232.90446954748, -24232.82454829311, -24232.747829803575, -24232.674124089477, -24232.603256294155, -24232.535065164804, -24232.469401710685, -24232.406128021867, -24232.34511622593, -24232.286247563803, -24232.22941156891, -24232.174505336, -24232.121432868204, -24232.070104492555, -24232.02043633547, -24231.97234985102, -24231.92577139569]",True,2003-03,False,PeriodIndex,True,PeriodIndex,True
2003-05,2003-05-01,2003Q2,2,49,532,1,-24263.32155379757,52,2e-06,100,1.9152274632812074e-06,"[-24300.13033199113, -24278.524351835724, -24276.037878935545, -24274.402636097766, -24273.169641963348, -24272.182369924994, -24271.36402308061, -24270.669760209832, -24270.07058816319, -24269.546494840833, -24269.083030421647, -24268.66941067456, -24268.297379135664, -24267.960483685587, -24267.653595703443, -24267.372579103525, -24267.11405603471, -24266.875237114822, -24266.653795994513, -24266.447775105993, -24266.25551379937, -24266.075592835252, -24265.90679101212, -24265.748050919676, -24265.598451639657, -24265.4571867941, -24265.323546750897, -24265.196904091335, -24265.076701658807, -24264.962442666016, -24264.853682456094, -24264.750021601543, -24264.651100092204, -24264.556592415414, -24264.46620337098, -24264.37966449476, -24264.296730988877, -24264.217179075913, -24264.14080370914, -24264.067416583704, -24263.9968444026, -24263.92892735976, -24263.863517808517, -24263.80047908923, -24263.739684493805, -24263.681016348404, -24263.62436519881, -24263.569629084774, -24263.516712892088, -24263.465527772634, -24263.41599062408, -24263.36802362186, -24263.32155379757]",True,2003-04,False,PeriodIndex,True,PeriodIndex,True
2003-06,2003-06-01,2003Q2,3,49,533,1,-24347.9799523704,51,2e-06,100,1.8772857064701446e-06,"[-24391.63536150357, -24363.54452584318, -24360.370299778828, -24358.66647054314, -24357.444210116562, -24356.477760865513, -24355.680261346104, -24355.005305403345, -24354.4237678967, -24353.91577672185, -24353.46706445358, -24353.067018964528, -24352.70753387417, -24352.38228448586, -24352.086249401975, -24351.815382657507, -24351.566382351655, -24351.3365234157, -24351.123534281636, -24350.925504346953, -24350.74081349787, -24350.56807771881, -24350.406106619113, -24350.253869911692, -24350.11047070077, -24349.975124006756, -24349.847139360965, -24349.72590659227, -24349.61088413908, -24349.501589374973, -24349.397590552002, -24349.298500052573, -24349.203968706555, -24349.113680981056, -24349.027350889053, -24348.944718493323, -24348.8655469062, -24348.78961970395, -24348.716738689713, -24348.646721950652, -24348.579402164614, -24348.514625119125, -24348.45224841177, -24348.392140306234, -24348.334178722296, -24348.27825034144, -24348.224249812753, -24348.172079045955, -24348.12164658033, -24348.072867020088, -24348.02566052805, -24347.9799523704]",True,2003-05,False,PeriodIndex,True,PeriodIndex,True
2003-07,2003-07-01,2003Q3,1,49,534,1,-24386.51928896251,51,2e-06,100,1.8748857746014227e-06,"[-24422.377697239026, -24401.257814909957, -24398.781130936943, -24397.172116767342, -24395.96698872539, -24395.005690016565, -24394.21078389738, -24393.537544975497, -24392.95727407923, -24392.450263667833, -24392.00233297486, -24391.602923310216, -24391.24396382534, -24390.91915448573, -24390.623491547885, -24390.35294201818, -24390.10421375507, -24389.874589195348, -24389.661802661074, -24389.463948257428, -24389.279409695002, -24389.10680610955, -24388.944949739096, -24388.79281251238, -24388.649499417952, -24388.514227090775, -24388.38630645427, -24388.265128544106, -24388.15015284963, -24388.04089766324, -24387.93693204304, -24387.837869080617, -24387.74336023147, -24387.65309051596, -24387.56677443719, -24387.48415249314, -24387.404988183105, -24387.329065428006, -24387.25618633838, -24387.186169275978, -24387.11884716415, -24387.054066010198, -24386.991683608674, -24386.93156839995, -24386.8735984624, -24386.817660620036, -24386.763649650107, -24386.71146757761, -24386.661023045643, -24386.61223075191, -24386.56501094348, -24386.51928896251]",True,2003-06,False,PeriodIndex,True,PeriodIndex,True
2003-08,2003-08-01,2003Q3,2,49,535,1,-24460.244340961726,51,2e-06,100,1.8820198274654566e-06,"[-24497.217411646514, -24475.480455069985, -24472.81278318711, -24471.094499803832, -24469.820565703463, -24468.814813359517, -24467.99085673315, -24467.29851648511, -24466.70565672196, -24466.190363246453, -24465.737018437714, -24465.334116976126, -24464.972957995895, -24464.64681844954, -24464.350408410482, -24464.079500042804, -24463.83066788243, -24463.601102811474, -24463.388476158412, -24463.190838688286, -24463.00654436885, -24462.834192042836, -24462.672580245613, -24462.52067181044, -24462.377565854804, -24462.242475398365, -24462.1147093236, -24461.993657719002, -24461.878779880295, -24461.769594418955, -24461.665671053976, -24461.566623758663, -24461.472105005407, -24461.381800906274, -24461.295427088786, -24461.21272517868, -24461.133459786404, -24461.05741591407, -24460.984396714783, -24460.914221549036, -24460.846724292307, -24460.781751856186, -24460.719162891768, -24460.65882664901, -24460.600621970352, -24460.544436400003, -24460.49016539352, -24460.43771161436, -24460.386984306275, -24460.33789873199, -24460.29037566988, -24460.244340961726]",True,2003-07,False,PeriodIndex,True,PeriodIndex,True
2003-09,2003-09-01,2003Q3,3,49,536,1,-24505.62378020887,51,2e-06,100,1.9137778728797098e-06,"[-24541.913904595953, -24520.351203638405, -24517.865543183594, -24516.258396889258, -24515.057542809926, -24514.100906661923, -24513.31045398285, -24512.641283048575, -24512.064659324715, -24511.560888456257, -24511.11581831003, -24510.718922014697, -24510.362159283497, -24510.039257983466, -24509.745239388496, -24509.476092844, -24509.228546199418, -24508.99989986839, -24508.787904430897, -24508.59066877745, -24508.406590131635, -24508.234300031174, -24508.072622134994, -24507.92053891705, -24507.777165121966, -24507.64172642373, -24507.51354212881, -24507.392011052543, -24507.27659990661, -24507.166833689284, -24507.06228768496, -24506.96258076532, -24506.867369750486, -24506.7763446383, -24506.689224548463, -24506.605754259166, -24506.525701236376, -24506.448853075442, -24506.37501528913, -24506.30400938787, -24506.23567120768, -24506.169849448954, -24506.106404395, -24506.045206785006, -24505.986136819694, -24505.92908328139, -24505.873942753362, -24505.820618925278, -24505.769021973683, -24505.71906800804, -24505.670678574297, -24505.62378020887]",True,2003-08,False,PeriodIndex,True,PeriodIndex,True
2003-10,2003-10-01,2003Q4,1,49,537,1,-24552.059828914927,50,2e-06,100,1.9169591229018213e-06,"[-24588.257572296043, -24566.735674591117, -24564.238665087385, -24562.623683961945, -24561.41723435466, -24560.456545989913, -24559.663125105126, -24558.991766478364, -24558.41353558509, -24557.908604753018, -24557.46273091719, -24557.06532325501, -24556.70829488929, -24556.385338464897, -24556.091447650215, -24555.822589430034, -24555.575473018667, -24555.34738293113, -24555.13605592918, -24554.939588720557, -24554.756367672402, -24554.585014571392, -24554.42434426836, -24554.273331248733, -24554.131082991822, -24553.996818551725, -24553.869851196167, -24553.749574228354, -24553.635449327383, -24553.52699689714, -24553.423788028933, -24553.325437769618, -24553.231599452774, -24553.141959900575, -24553.05623534308, -24552.97416793176, -24552.895522747764, -24552.820085224124, -24552.74765891576, -24552.67806356318, -24552.611133405306, -24552.546715703895, -24552.484669449288, -24552.424864221284, -24552.367179183657, -24552.31150219411, -24552.25772901409, -24552.205762605627, -24552.155512503723, -24552.106894255114, -24552.059828914927]",True,2003-09,False,PeriodIndex,True,PeriodIndex,True
2003-11,2003-11-01,2003Q4,2,49,538,1,-24580.433015296363,51,2e-06,100,1.9256034061401493e-06,"[-24617.952197339117, -24594.660766037436, -24592.18094494715, -24590.598602846843, -24589.42525879779, -24588.496332251605, -24587.73301767064, -24587.09006520327, -24586.538569198703, -24586.058755920294, -24585.63644476657, -24585.261109662977, -24584.924728407837, -24584.621057380667, -24584.34515271382, -24584.093042429216, -24583.861495241414, -24583.647853529335, -24583.449910189094, -24583.26581625106, -24583.094010526205, -24582.933165317136, -24582.782144031757, -24582.639967740564, -24582.50578853824, -24582.3788681409, -24582.258560552676, -24582.144297925028, -24582.035578942017, -24581.931959220197, -24581.833043326667, -24581.73847810591, -24581.647947071855, -24581.56116567195, -24581.47787726933, -24581.39784971918, -24581.320872439304, -24581.246753893825, -24581.175319423488, -24581.1064093682, -24581.039877436986, -24580.975589287933, -24580.913421287427, -24580.85325942263, -24580.794998345664, -24580.738540531056, -24580.683795531284, -24580.630679317073, -24580.579113691565, -24580.52902576863, -24580.480347507473, -24580.433015296363]",True,2003-10,False,PeriodIndex,True,PeriodIndex,True
2003-12,2003-12-01,2003Q4,3,44,539,1,-21470.341120394012,93,2e-06,100,1.9171359250368498e-06,"[-23969.57701363573, -22924.2514676476, -22573.522651861254, -22296.463558675405, -22068.431934461663, -21897.338585768448, -21784.560755418788, -21717.228819417924, -21677.491855778277, -21651.72050973004, -21632.504062911194, -21616.553841735877, -21602.22012072079, -21587.31291507939, -21566.41168331162, -21535.140415505317, -21509.04501749577, -21497.0952043328, -21492.039553220377, -21489.417094636272, -21487.684732669244, -21486.35360039, -21485.253092470928, -21484.308781941116, -21483.479885720695, -21482.740465539642, -21482.07263421721, -21481.46346878267, -21480.903333369715, -21480.384865645516, -21479.90232533155, -21479.45115801207, -21479.02769385059, -21478.628934132772, -21478.25239680329, -21477.896002700967, -21477.557990514993, -21477.236852399674, -21476.931284687493, -21476.640149785475, -21476.362446449868, -21476.097286400447, -21475.84387577366, -21475.601500299264, -21475.369513362934, -21475.147326321865, -21474.934400590708, -21474.7302411278, -21474.534391036017, -21474.34642705627, -21474.165955780518, -21473.992610448084, -21473.826048217707, -21473.665947830086, -21473.512007592588, -21473.363943631546, -21473.221488367835, -21473.08438917998, -21472.952407225595, -21472.825316397146, -21472.702902392306, -21472.584961882607, -21472.471301766727, -21472.3617384971, -21472.25609747015, -21472.15421247234, -21472.055925174835, -21471.961084671286, -21471.869547053513, -21471.78117502095, -21471.69583752005, -21471.613409410566, -21471.53377115581, -21471.456808534604, -21471.382412372703, -21471.310478291958, -21471.24090647537, -21471.173601446924, -21471.108471864634, -21471.04543032583, -21470.98439318367, -21470.925280373933, -21470.86801525133, -21470.812524434637, -21470.758737659966, -21470.706587641638, -21470.656009940052, -21470.60694283623, -21470.559327212446, -21470.513106438648, -21470.468226264304, -21470.42463471532, -21470.382281995753, -21470.341120394012]",True,2003-11,False,PeriodIndex,True,PeriodIndex,True
2004-01,2004-01-01,2004Q1,1,50,540,1,-25508.36108356602,86,2e-06,100,1.9094368577233395e-06,"[-28082.883976141606, -26934.24500809788, -26594.45210190926, -26328.20865502164, -26106.74024513069, -25937.608319172694, -25824.021691305516, -25755.42657559359, -25715.147481404438, -25689.617348235814, -25671.130772225984, -25656.30079009555, -25643.915429257508, -25633.53310215037, -25624.62667610822, -25615.782097275132, -25603.09427700533, -25579.40431769727, -25550.479520032943, -25534.576369831826, -25528.533424765854, -25525.96356481505, -25524.459978954048, -25523.323577323998, -25522.35957438957, -25521.505939321403, -25520.73600048654, -25520.034177115464, -25519.38959196574, -25518.794029500732, -25518.241052422512, -25517.725504175287, -25517.243184487932, -25516.790622802837, -25516.364914483514, -25515.963599815906, -25515.584573173153, -25515.226013919328, -25514.886333245988, -25514.564132847056, -25514.258172491223, -25513.967344348875, -25513.690652492485, -25513.42719639167, -25513.17615751648, -25512.936788376803, -25512.708403484154, -25512.490371841428, -25512.282110654898, -25512.08308003073, -25511.89277846973, -25511.710739013557, -25511.53652592603, -25511.3697318171, -25511.209975134858, -25511.05689796606, -25510.910164096313, -25510.76945729058, -25510.63447976145, -25510.50495079829, -25510.380605535363, -25510.261193840157, -25510.1464793065, -25510.03623833946, -25509.93025932087, -25509.82834184604, -25509.730296023703, -25509.635941832144, -25509.54510852565, -25509.457634086015, -25509.37336471457, -25509.292154360926, -25509.2138642848, -25509.13836264804, -25509.06552413404, -25508.995229592165, -25508.927365705247, -25508.861824677944, -25508.7985039446, -25508.737305894836, -25508.678137615665, -25508.620910648835, -25508.565540762283, -25508.511947734718, -25508.460055152405, -25508.409790217353, -25508.36108356602]",True,2003-12,False,PeriodIndex,True,PeriodIndex,True
2004-02,2004-02-01,2004Q1,2,50,541,1,-25553.55866309733,54,2e-06,100,1.9050673398766427e-06,"[-25590.798336229476, -25568.996025748074, -25566.383820929866, -25564.710624529493, -25563.46685675863, -25562.478938211454, -25561.66417691272, -25560.975389511565, -25560.38255415413, -25559.865165165258, -25559.40851299215, -25559.00166219999, -25558.63625884967, -25558.30578219104, -25558.00505213192, -25557.729892568983, -25557.476894135732, -25557.24324276732, -25557.02659319728, -25556.824973928018, -25556.63671473459, -25556.460390606895, -25556.294777881776, -25556.138819545402, -25555.991597523236, -25555.852310355727, -25555.72025506837, -25555.59481233926, -25555.475434281558, -25555.36163431592, -25555.25297872603, -25555.14907957843, -25555.049588755646, -25554.954192902987, -25554.86260912953, -25554.7745813348, -25554.689877057222, -25554.60828475975, -25554.52961148326, -25554.453680810842, -25554.38033109582, -25554.309413914365, -25554.240792710138, -25554.174341603677, -25554.109944343465, -25554.0474933794, -25553.986889042324, -25553.928038815513, -25553.870856686444, -25553.815262568525, -25553.761181784168, -25553.708544601774, -25553.657285819972, -25553.607344393728, -25553.55866309733]",True,2004-01,False,PeriodIndex,True,PeriodIndex,True
2004-03,2004-03-01,2004Q1,3,50,542,1,-25607.290538248053,52,2e-06,100,1.928621746279316e-06,"[-25643.928959174817, -25622.187254013807, -25619.605256480638, -25617.959732719275, -25616.740908123473, -25615.775572653285, -25614.981385201994, -25614.31146833249, -25613.736053179862, -25613.234837948577, -25612.79327591799, -25612.4005617899, -25612.04844631091, -25611.730493805706, -25611.441594187505, -25611.17762975423, -25610.9352405557, -25610.711654930747, -25610.50456448939, -25610.312030205096, -25610.1324107698, -25609.96430718596, -25609.80651939861, -25609.658011985208, -25609.51788674876, -25609.385360632914, -25609.259747782915, -25609.140444866942, -25609.026918983753, -25608.91869763832, -25608.815360383036, -25608.716531809823, -25608.621875644618, -25608.53108974694, -25608.443901856772, -25608.3600659614, -25608.279359179513, -25608.201579078544, -25608.12654135678, -25608.054077833447, -25607.984034700497, -25607.916270996884, -25607.850657273317, -25607.7870744201, -25607.72541263557, -25607.665570515725, -25607.60745424879, -25607.550976901017, -25607.49605778172, -25607.442621877668, -25607.39059934814, -25607.339925073073, -25607.290538248053]",True,2004-02,False,PeriodIndex,True,PeriodIndex,True
2004-04,2004-04-01,2004Q2,1,50,543,1,-25642.608749567775,53,2e-06,100,1.8958946342711263e-06,"[-25679.7389959475, -25657.900315294555, -25655.31785310841, -25653.66304105312, -25652.43169023931, -25651.45249188511, -25650.64394884821, -25649.959606217642, -25649.36992118974, -25648.854718728446, -25648.399525847875, -25647.99358124656, -25647.628662121857, -25647.29834832962, -25646.99753814593, -25646.72211728752, -25646.46872566647, -25646.23458883966, -25646.01739362211, -25645.815194636187, -25645.626343010266, -25645.449431237546, -25645.28325001961, -25645.1267541275, -25644.97903513495, -25644.839299449304, -25644.70685046887, -25644.581073984908, -25644.461426156922, -25644.347423545056, -25644.238634799047, -25644.134673690372, -25644.03519324028, -25643.939880747334, -25643.84845355751, -25643.760655450176, -25643.67625353776, -25643.59503559571, -25643.516807754393, -25643.44139249705, -25643.368626917072, -25643.298361196332, -25643.2304572724, -25643.164787667614, -25643.101234457674, -25643.039688360324, -25642.980047928388, -25642.922218833086, -25642.866113226228, -25642.811649171097, -25642.758750133573, -25642.707344526112, -25642.657365298197, -25642.608749567775]",True,2004-03,False,PeriodIndex,True,PeriodIndex,True
2004-05,2004-05-01,2004Q2,2,50,544,1,-25690.831241353626,52,2e-06,100,1.945135582696958e-06,"[-25727.763215078496, -25705.981292712197, -25703.40806322732, -25701.759717628942, -25700.5334748656, -25699.55871304527, -25698.754211807864, -25698.073638187838, -25697.487509886763, -25696.975685443616, -25696.52371229577, -25696.120842459895, -25695.758862293533, -25695.431358249552, -25695.133233581335, -25694.860377957702, -25694.60943460618, -25694.37763202054, -25694.16265974511, -25693.962575035544, -25693.77573162803, -25693.600724640048, -25693.43634743653, -25693.281557500195, -25693.135449165213, -25692.997231643065, -25692.866211171357, -25692.74177640546, -25692.623386382664, -25692.510560543265, -25692.40287040885, -25692.299932604205, -25692.20140297617, -25692.106971612895, -25692.016358606597, -25691.92931043318, -25691.845596846626, -25691.76500820429, -25691.687353155194, -25691.612456634917, -25691.540158120653, -25691.470310107834, -25691.40277677618, -25691.337432818153, -25691.274162407233, -25691.21285828677, -25691.153420963474, -25691.09575799139, -25691.039783335065, -25690.985416801646, -25690.932583533202, -25690.881213552224, -25690.831241353626]",True,2004-04,False,PeriodIndex,True,PeriodIndex,True
2004-06,2004-06-01,2004Q2,3,50,545,1,-25732.167892267986,52,2e-06,100,1.9311723712249593e-06,"[-25769.026144267664, -25747.342990203306, -25744.773951837153, -25743.12633015337, -25741.89927207557, -25740.92303517513, -25740.116792423978, -25739.434391236333, -25738.846434873994, -25738.33282354909, -25737.87912523198, -25737.47460194028, -25737.111044642337, -25736.782041579736, -25736.48249628279, -25736.20829786324, -25735.956088511666, -25735.72309539139, -25735.507006522363, -25735.305877496707, -25735.118060280067, -25734.94214813326, -25734.77693249393, -25734.621368859873, -25734.47454953463, -25734.335681664463, -25734.204069397958, -25734.079099287803, -25733.960228264536, -25733.84697366663, -25733.738904926828, -25733.635636601513, -25733.536822496135, -25733.442150690167, -25733.351339304925, -25733.264132887445, -25733.180299308333, -25733.0996270901, -25733.02192309773, -25732.94701053534, -25732.874727202547, -25732.804923972042, -25732.73746345602, -25732.67221883488, -25732.60907282536, -25732.54791676901, -25732.488649825013, -25732.431178253464, -25732.375414777587, -25732.321278014657, -25732.268691967307, -25732.217585567654, -25732.167892267986]",True,2004-05,False,PeriodIndex,True,PeriodIndex,True
2004-07,2004-07-01,2004Q3,1,50,546,1,-25774.44370510817,52,2e-06,100,1.9120535616137176e-06,"[-25811.427820517376, -25789.385611311318, -25786.833448790574, -25785.198596884053, -25783.98279675337, -25783.017011134532, -25782.220659646315, -25781.547694720968, -25780.968770779156, -25780.463815914627, -25780.0184152517, -25779.62184292224, -25779.265899689082, -25778.944182595995, -25778.651603624716, -25778.384060283166, -25778.138203222457, -25777.911268162323, -25777.700951764244, -25777.50531831776, -25777.32272850608, -25777.1517842919, -25776.991285765744, -25776.84019699972, -25776.697618767445, -25776.56276655925, -25776.434952723564, -25776.31357185365, -25776.19808874901, -25776.08802843569, -25775.98296784488, -25775.882528836453, -25775.786372320064, -25775.694193277384, -25775.605716528164, -25775.520693113613, -25775.438897194494, -25775.360123380633, -25775.284184423173, -25775.21090921367, -25775.14014104331, -25775.0717360836, -25775.005562056598, -25774.941497067382, -25774.87942857632, -25774.819252491885, -25774.760872367966, -25774.704198691667, -25774.649148250217, -25774.595643566558, -25774.543612395428, -25774.49298727217, -25774.44370510817]",True,2004-06,False,PeriodIndex,True,PeriodIndex,True
2004-08,2004-08-01,2004Q3,2,50,547,1,-25849.91658326875,51,2e-06,100,1.9462065489150066e-06,"[-25886.89495577777, -25864.74428389173, -25862.185054135185, -25860.553120266, -25859.341692438895, -25858.380299151737, -25857.588036738784, -25856.918803915556, -25856.343276899857, -25855.84142395551, -25855.398870667115, -25855.00492663697, -25854.65142219727, -25854.331978573973, -25854.041527424888, -25853.775982303403, -25853.532007029833, -25853.306848229186, -25853.09821168746, -25852.904169413956, -25852.723088697596, -25852.55357721728, -25852.39444006364, -25852.244645727387, -25852.103298924165, -25851.96961869196, -25851.842920597242, -25851.722602173257, -25851.6081309226, -25851.499034370674, -25851.394891771204, -25851.295327151798, -25851.200003453196, -25851.108617566486, -25851.020896111746, -25850.936591832015, -25850.85548050036, -25850.777358256993, -25850.702039308144, -25850.629353930854, -25850.5591467371, -25850.49127515892, -25850.42560812248, -25850.3620248839, -25850.300414004683, -25850.24067244724, -25850.182704774663, -25850.126422440953, -25850.071743159788, -25850.01859034229, -25849.96689259465, -25849.91658326875]",True,2004-07,False,PeriodIndex,True,PeriodIndex,True
2004-09,2004-09-01,2004Q3,3,50,548,1,-25898.927799350815,51,2e-06,100,1.918401527592894e-06,"[-25935.477646248422, -25913.661410621484, -25911.11780047322, -25909.4912797298, -25908.28319939789, -25907.32451646562, -25906.534743042746, -25905.867920349436, -25905.294770605622, -25904.795271535448, -25904.35504501857, -25903.96339324302, -25903.612139142908, -25903.29489786239, -25903.00659657557, -25902.7431458305, -25902.501207669025, -25902.278027897537, -25902.07131220489, -25901.879133028775, -25901.69985845797, -25901.53209722515, -25901.37465564099, -25901.226503518097, -25901.086746949557, -25900.95460637334, -25900.829398755675, -25900.71052301363, -25900.59744800754, -25900.489702588035, -25900.386867297846, -25900.2885674156, -25900.194467094465, -25900.10426439981, -25900.017687088723, -25899.93448900521, -25899.854446988706, -25899.777358212712, -25899.703037885163, -25899.631317254687, -25899.56204187616, -25899.49507009717, -25899.430271733218, -25899.36752690481, -25899.30672501382, -25899.247763840063, -25899.19054874192, -25899.134991947292, -25899.08101192327, -25899.02853281441, -25898.977483941126, -25898.927799350815]",True,2004-08,False,PeriodIndex,True,PeriodIndex,True
2004-10,2004-10-01,2004Q4,1,50,549,1,-25939.567236621322,51,2e-06,100,1.9129160337780052e-06,"[-25976.039792017724, -25954.30087565183, -25951.75790669737, -25950.13085917297, -25948.922033703515, -25947.962613622036, -25947.172166340548, -25946.504746947794, -25945.931080951807, -25945.43114564183, -25944.990560305687, -25944.598622982157, -25944.247151367403, -25943.92975470535, -25943.641353968196, -25943.37785347974, -25943.13590923581, -25942.912761308333, -25942.7061100441, -25942.51402297251, -25942.334863721495, -25942.167237004905, -25942.009945538848, -25941.861955940476, -25941.722371477244, -25941.590410100456, -25941.465386597607, -25941.34669798505, -25941.233811472015, -25941.126254481183, -25941.02360632619, -25940.92549123319, -25940.83157245947, -25940.741547312977, -25940.655142915584, -25940.572112583795, -25940.49223272431, -25940.415300161054, -25940.341129825425, -25940.26955275336, -25940.200414342846, -25940.13357283327, -25940.068897974266, -25940.006269857226, -25939.945577886723, -25939.886719872648, -25939.829601227066, -25939.774134251686, -25939.720237504538, -25939.667835235603, -25939.616856882858, -25939.567236621322]",True,2004-09,False,PeriodIndex,True,PeriodIndex,True
2004-11,2004-11-01,2004Q4,2,50,550,1,-25979.31457393532,51,2e-06,100,1.901301436411434e-06,"[-26015.763330683487, -25994.029333699393, -25991.48185552088, -25989.854053422838, -25988.64543518181, -25987.686563199866, -25986.89680899988, -25986.23015008703, -25985.657275266345, -25985.158142055727, -25984.718358143644, -25984.32721441095, -25983.976524024594, -25983.659893348326, -25983.37224154915, -25983.109471863565, -25982.868239686602, -25982.645784821296, -25982.439807572326, -25982.248375581337, -25982.069852692657, -25981.902843905667, -25981.746152266795, -25981.59874475138, -25981.459725001234, -25981.328311350073, -25981.2038189705, -25981.085645262945, -25980.973257817277, -25980.86618443189, -25980.764004790253, -25980.666343481924, -25980.572864120943, -25980.483264365215, -25980.397271679903, -25980.3146397181, -25980.235145216604, -25980.15858532304, -25980.084775286254, -25980.01354645347, -25979.944744528035, -25979.878228048718, -25979.81386705878, -25979.751541937483, -25979.691142371637, -25979.6325664478, -25979.575719849112, -25979.520515142925, -25979.466871147462, -25979.414712367492, -25979.363968490394, -25979.31457393532]",True,2004-10,False,PeriodIndex,True,PeriodIndex,True
2004-12,2004-12-01,2004Q4,3,50,551,1,-26013.596119879337,51,2e-06,100,1.911587924240155e-06,"[-26050.750488992206, -26028.417750161156, -26025.85250139077, -26024.215838097196, -26023.000116627758, -26022.03514593067, -26021.24004223477, -26020.56862904183, -26019.991490690572, -26019.488509454783, -26019.045235596815, -26018.650914014775, -26018.297319797013, -26017.97802710026, -26017.687927504732, -26017.42290043994, -26017.179580659787, -26016.95519001373, -26016.74741315163, -26016.55430403493, -26016.374214528627, -26016.205739120644, -26016.04767161487, -26015.89897084276, -26015.75873325485, -26015.626170821124, -26015.500593070217, -26015.381392385978, -26015.268031889354, -26015.16003538869, -26015.05697899698, -26014.95848410153, -26014.86421143786, -26014.773856070453, -26014.687143122632, -26014.603824128, -26014.52367390073, -26014.44648784044, -26014.37207960312, -26014.300279081264, -26014.230930646507, -26014.163891615928, -26014.09903090939, -26014.036227870947, -26013.975371231238, -26013.916358191767, -26013.859093614687, -26013.803489304082, -26013.749463367094, -26013.69693964465, -26013.645847203075, -26013.596119879337]",True,2004-11,False,PeriodIndex,True,PeriodIndex,True
2005-01,2005-01-01,2005Q1,1,50,552,1,-26061.18702568239,51,2e-06,100,1.9056443372435646e-06,"[-26097.74758078793, -26075.980336613553, -26073.422907354543, -26071.786698536987, -26070.571119643486, -26069.60656440663, -26068.812129450063, -26068.1415586741, -26067.565364778442, -26067.06337563105, -26066.621103141293, -26066.22776656542, -26065.875124709477, -26065.556742052326, -26065.267505023043, -26065.00329093034, -26064.760734389143, -26064.537058369562, -26064.329949409985, -26064.1374637969, -26063.95795593552, -26063.79002292342, -26063.632461149304, -26063.48423194541, -26063.34443414365, -26063.21228195673, -26063.08708700886, -26062.96824363093, -26062.855216745644, -26062.747531823974, -26062.644766510108, -26062.5465435998, -26062.45252512321, -26062.362407334585, -26062.27591645067, -26062.192805010403, -26062.11284875284, -26062.03584392919, -26061.96160498028, -26061.88996252267, -26061.820761596882, -26061.75386013861, -26061.689127640624, -26061.626443978254, -26061.565698375518, -26061.506788492807, -26061.449619619558, -26061.394103958424, -26061.340159988737, -26061.28771189954, -26061.236689083187, -26061.18702568239]",True,2004-12,False,PeriodIndex,True,PeriodIndex,True
2005-02,2005-02-01,2005Q1,2,50,553,1,-26107.831612997637,51,2e-06,100,1.8951009150355181e-06,"[-26146.019696494783, -26122.773521136456, -26120.1055306564, -26118.448216721612, -26117.224950365846, -26116.256293552004, -26115.45916777292, -26114.78662566345, -26114.208907834305, -26113.705713935713, -26113.26248347717, -26112.868387903243, -26112.515150842522, -26112.19630921784, -26111.906727141806, -26111.642263530972, -26111.399537694535, -26111.175759789632, -26110.96860558499, -26110.776122287338, -26110.596656628608, -26110.428799209058, -26110.271340907133, -26110.123238376058, -26109.98358647086, -26109.851596021712, -26109.726575774817, -26109.607917611836, -26109.495084371476, -26109.38759975208, -26109.285039891074, -26109.18702630461, -26109.093219937564, -26109.00331612507, -26108.91704030708, -26108.83414436758, -26108.75440349501, -26108.677613479274, -26108.603588376354, -26108.532158483456, -26108.46316857765, -26108.396476379035, -26108.331951205633, -26108.26947279284, -26108.2089302544, -26108.150221165626, -26108.093250752332, -26108.037931171595, -26107.984180872525, -26107.931924026758, -26107.8810900201, -26107.831612997637]",True,2005-01,False,PeriodIndex,True,PeriodIndex,True
2005-03,2005-03-01,2005Q1,3,50,554,1,-26166.31495402046,51,2e-06,100,1.9032826847064195e-06,"[-26203.465034818488, -26181.204640709242, -26178.591878125277, -26176.937735491538, -26175.713726239315, -26174.744676146238, -26173.947638185462, -26173.275446259624, -26172.698178081137, -26172.195441997847, -26171.752632494296, -26171.358901783937, -26171.005967650166, -26170.687367718776, -26170.397969760314, -26170.133637478026, -26169.890995199654, -26169.66725791413, -26169.460105858423, -26169.267590287047, -26169.088061559334, -26168.92011350858, -26168.762539887743, -26168.614299903955, -26168.474490682096, -26168.342325071637, -26168.217113617524, -26168.098249806237, -26167.985197910573, -26167.877482912634, -26167.77468210113, -26167.67641802644, -26167.582352564103, -26167.492181888327, -26167.405632196736, -26167.322456058726, -26167.242429283746, -26167.165348225375, -26167.091027451985, -26167.01929772735, -26166.950004254024, -26166.883005140724, -26166.818170060975, -26166.755379075832, -26166.694521597863, -26166.635495476876, -26166.578206191247, -26166.5225661308, -26166.46849395925, -26166.415914046607, -26166.36475596203, -26166.31495402046]",True,2005-02,False,PeriodIndex,True,PeriodIndex,True
2005-04,2005-04-01,2005Q2,1,50,555,1,-26218.571511328133,50,2e-06,100,1.943781843178124e-06,"[-26255.135546367997, -26233.329903075803, -26230.76438335694, -26229.123168444625, -26227.904207113883, -26226.937228374147, -26226.141037806214, -26225.469210232193, -26224.89214240751, -26224.38957654754, -26223.94695914677, -26223.55345866076, -26223.200794053253, -26222.88249834197, -26222.593432981528, -26222.3294553684, -26222.087184182295, -26221.863829601185, -26221.657067869055, -26221.46494697335, -26221.28581462235, -26221.118262509117, -26220.96108266501, -26220.81323291685, -26220.67380928666, -26220.54202374689, -26220.417186149294, -26220.29868943732, -26220.18599746355, -26220.078634890797, -26219.976178771376, -26219.87825148782, -26219.784514804433, -26219.694664831164, -26219.608427740397, -26219.52555610868, -26219.44582577963, -26219.369033163428, -26219.29499290368, -26219.223535854893, -26219.15450732317, -26219.0877655313, -26219.02318027549, -26218.960631746508, -26218.900009492165, -26218.84121150199, -26218.784143397417, -26218.728717713784, -26218.67485326218, -26218.62247456092, -26218.571511328133]",True,2005-03,False,PeriodIndex,True,PeriodIndex,True
2005-05,2005-05-01,2005Q2,2,50,556,1,-26280.71279734947,51,2e-06,100,1.896476836318206e-06,"[-26317.41000164194, -26295.621872787895, -26293.052379455592, -26291.406674791495, -26290.18289561986, -26289.21112917563, -26288.410302496326, -26287.734031105912, -26287.152723677988, -26286.64612222113, -26286.199667433622, -26285.80251943342, -26285.446387869117, -26285.124796297758, -26284.832597005676, -26284.565638730503, -26284.320532093112, -26284.09447983171, -26283.885151349183, -26283.69058834989, -26283.509132767464, -26283.339370976882, -26283.180090097787, -26283.03024340472, -26282.888922684506, -26282.75533595375, -26282.62878935457, -26282.508672338136, -26282.394445457187, -26282.285630245628, -26282.18180077947, -26282.082576601744, -26281.987616760714, -26281.896614762183, -26281.80929427663, -26281.725405472534, -26281.644721872206, -26281.567037645174, -26281.492165269883, -26281.419933506593, -26281.3501856343, -26281.282777912416, -26281.217578234573, -26281.154464947205, -26281.09332580976, -26281.034057077348, -26280.976562689095, -26280.920753548504, -26280.866546883735, -26280.813865677832, -26280.762638159795, -26280.71279734947]",True,2005-04,False,PeriodIndex,True,PeriodIndex,True
2005-06,2005-06-01,2005Q2,3,50,557,1,-26326.593348276438,50,2e-06,100,1.9058702902270347e-06,"[-26363.16528752169, -26341.261784542392, -26338.703933801902, -26337.06783847677, -26335.85254522378, -26334.88852724946, -26334.094949235558, -26333.425554691476, -26332.85082105834, -26332.350529682924, -26331.910145744507, -26331.518845960047, -26331.168352147448, -26330.85219739965, -26330.56524189041, -26330.30334116346, -26330.063111906056, -26329.841762396823, -26329.636967191902, -26329.446772854342, -26329.269525945507, -26329.103817281575, -26328.948438268595, -26328.80234633566, -26328.66463730904, -26328.534523142032, -26328.411313819845, -26328.29440254997, -26328.183253559844, -26328.07739198024, -26327.976395409074, -26327.879886838524, -26327.78752869484, -26327.699017791936, -26327.61408103946, -26327.532471776874, -26327.453966629942, -26327.3783628046, -26327.305475749155, -26327.235137127616, -26327.167193057026, -26327.10150256959, -26327.03793626702, -26326.976375139457, -26326.91670952637, -26326.85883819966, -26326.802667552674, -26326.748110881228, -26326.695087744585, -26326.643523396357, -26326.593348276438]",True,2005-05,False,PeriodIndex,True,PeriodIndex,True
2005-07,2005-07-01,2005Q3,1,50,558,1,-26371.602824374895,50,2e-06,100,1.924888074645666e-06,"[-26408.04692351126, -26386.3273489691, -26383.786472289576, -26382.15819140656, -26380.946617166937, -26379.98383691759, -26379.18987153159, -26378.5190085397, -26377.94208911036, -26377.439142665324, -26376.995805761406, -26376.60137472946, -26376.247655561423, -26375.928240938, -26375.638033355193, -26375.372918419773, -26375.12953409129, -26374.905103562098, -26374.697311668184, -26374.504211854066, -26374.324155057504, -26374.155734617634, -26373.997743088723, -26373.849138027756, -26373.709014632615, -26373.576583669543, -26373.451153527014, -26373.332115518624, -26373.21893176626, -26373.111125148534, -26373.0082709143, -26372.9099896477, -26372.81594133703, -26372.725820350548, -26372.639351161473, -26372.556284694943, -26372.476395194302, -26372.399477522216, -26372.32534482833, -26372.253826526547, -26372.184766535087, -26372.11802174062, -26372.053460653606, -26371.990962228057, -26371.93041482249, -26371.871715282912, -26371.81476813153, -26371.759484847033, -26371.705783224945, -26371.653586807537, -26371.602824374895]",True,2005-06,False,PeriodIndex,True,PeriodIndex,True
2005-08,2005-08-01,2005Q3,2,50,559,1,-26396.15435674557,49,2e-06,100,1.9368319982589444e-06,"[-26433.40393663849, -26410.913180948683, -26408.273203261742, -26406.608796467648, -26405.38022724733, -26404.409029703507, -26403.611121352093, -26402.938839774273, -26402.362006139963, -26401.860081586245, -26401.418369227795, -26401.02596032084, -26400.67452904089, -26400.357579785443, -26400.06995368349, -26399.80749228529, -26399.566801064404, -26399.34507874944, -26399.139991463468, -26398.9495781828, -26398.772178588086, -26398.606377239907, -26398.450959858077, -26398.304878709496, -26398.1672249408, -26398.037206268513, -26397.91412884569, -26397.797382415578, -26397.686428074616, -26397.58078812344, -26397.480037600828, -26397.38379718345, -26397.29172720079, -26397.2035225664, -26397.118908465687, -26397.03763667208, -26396.95948238721, -26396.884241520413, -26396.811728338085, -26396.74177342556, -26396.67422191418, -26396.608931934403, -26396.545773261874, -26396.48462612933, -26396.425380180855, -26396.36793354925, -26396.31219203995, -26396.258068407296, -26396.20548171147, -26396.15435674557]",True,2005-07,False,PeriodIndex,True,PeriodIndex,True
2005-09,2005-09-01,2005Q3,3,50,560,1,-26451.960123680936,49,2e-06,100,1.9204452078443284e-06,"[-26488.12418830755, -26466.388853236156, -26463.86260032418, -26462.249554186084, -26461.051911107723, -26460.101731249022, -26459.31922611381, -26458.658864928322, -26458.09163531944, -26457.597681765692, -26457.16273165919, -26456.776154005587, -26456.42981383198, -26456.117352489862, -26455.83371315215, -26455.574815841093, -26455.33732795438, -26455.11849811181, -26454.91603330489, -26454.72800643479, -26454.55278564759, -26454.388979600924, -26454.23539456642, -26454.091000451826, -26453.95490363164, -26453.826325033773, -26453.704582326005, -26453.58907533005, -26453.479273998506, -26453.37470844292, -26453.27496061514, -26453.179657330475, -26453.08846438664, -26453.00108158274, -26452.91723848175, -26452.83669079023, -26452.75921725294, -26452.68461697916, -26452.61270713224, -26452.543320926274, -26452.476305883465, -26452.41152231337, -26452.348841981962, -26452.288146943487, -26452.229328512276, -26452.172286355577, -26452.116927691004, -26452.063166574895, -26452.010923269772, -26451.960123680936]",True,2005-08,False,PeriodIndex,True,PeriodIndex,True
2005-10,2005-10-01,2005Q4,1,50,561,1,-26498.79295082244,49,2e-06,100,1.8998983604636173e-06,"[-26535.302675925996, -26513.15345231461, -26510.616072047953, -26509.004263680392, -26507.810113904372, -26506.86408266509, -26506.085846736347, -26505.42964225824, -26504.86635560305, -26504.376094898347, -26503.944583366014, -26503.56120110929, -26503.217830724454, -26502.908133096695, -26502.62707066848, -26502.37058144347, -26502.135349116783, -26501.918636844992, -26501.71816447288, -26501.53201621571, -26501.358570160417, -26501.196443697532, -26501.044450777594, -26500.901568072055, -26500.766907926172, -26500.63969655249, -26500.519256309766, -26500.404991196792, -26500.296374898113, -26500.19294087109, -26500.094274078045, -26500.00000405308, -26499.909799058543, -26499.82336113634, -26499.74042189816, -26499.660738929233, -26499.58409270361, -26499.510283928314, -26499.439131248317, -26499.37046925661, -26499.3041467631, -26499.24002528387, -26499.177977718966, -26499.117887191736, -26499.059646027366, -26499.003154851292, -26498.948321791726, -26498.89506177234, -26498.843295883547, -26498.79295082244]",True,2005-09,False,PeriodIndex,True,PeriodIndex,True
2005-11,2005-11-01,2005Q4,2,50,562,1,-26524.205721364946,48,2e-06,100,1.9112831954109935e-06,"[-26562.007267006098, -26538.47159589904, -26535.89159654463, -26534.27578114975, -26533.08576892825, -26532.145803953383, -26531.373779801765, -26530.723372002903, -26530.165312591464, -26529.6797025653, -26529.252310670206, -26528.872578052404, -26528.53244911869, -26528.225641815377, -26527.947169241674, -26527.693013572374, -26527.459896696244, -26527.24511466633, -26527.04641561024, -26526.861908037434, -26526.689990890434, -26526.529299452945, -26526.378663015978, -26526.237071390646, -26526.103648163524, -26525.977629150177, -26525.858344898115, -26525.745206373784, -26525.637693175027, -26525.535343762167, -26525.437747314743, -26525.344536906006, -26525.25538375266, -26525.16999234686, -26525.08809631642, -26525.009454889077, -26524.933849860317, -26524.861082982934, -26524.790973711562, -26524.72335724678, -26524.658082833692, -26524.595012276914, -26524.534018640537, -26524.47498510681, -26524.417803971286, -26524.3623757558, -26524.308608423435, -26524.25641668206, -26524.205721364946]",True,2005-10,False,PeriodIndex,True,PeriodIndex,True
2005-12,2005-12-01,2005Q4,3,50,563,1,-26585.16003067931,48,2e-06,100,1.9323210299449415e-06,"[-26623.271376621724, -26599.47327147594, -26596.901026224543, -26595.304664917647, -26594.12353275302, -26593.186255933015, -26592.413550140776, -26591.760619840068, -26591.199053058914, -26590.709446292563, -26590.277861332976, -26589.893914473843, -26589.549654599232, -26589.23886074402, -26588.956579941838, -26588.698811079572, -26588.462281767683, -26588.24428678804, -26588.042568615063, -26587.855227450444, -26587.680652426654, -26587.51746828536, -26587.364493556473, -26587.220707408404, -26587.08522312018, -26586.957266668836, -26586.83615930874, -26586.72130329583, -26586.61217011038, -26586.508290680624, -26586.40924722036, -26586.314666377068, -26586.224213451045, -26586.13758749482, -26586.05451714022, -26585.974757029842, -26585.898084753288, -26585.824298206586, -26585.75321330823, -26585.68466201688, -26585.61849060509, -26585.5545581516, -26585.492735220218, -26585.432902699184, -26585.374950778685, -26585.318778047524, -26585.264290693383, -26585.211401792756, -26585.16003067931]",True,2005-11,False,PeriodIndex,True,PeriodIndex,True
2006-01,2006-01-01,2006Q1,1,50,564,1,-26639.775322346137,49,2e-06,100,1.8949245136995212e-06,"[-26676.031508948803, -26654.075655613626, -26651.569351135044, -26649.977807616684, -26648.797599865415, -26647.861136483807, -26647.08939389091, -26646.437499738, -26645.876954130992, -26645.38829284957, -26644.95754219079, -26644.574300988414, -26644.230612485913, -26643.920257440346, -26643.638288976654, -26643.380714490264, -26643.144271267178, -26642.92626414353, -26642.72444553986, -26642.536925204615, -26642.362101253457, -26642.19860676532, -26642.045267931455, -26641.90107090863, -26641.765135314603, -26641.6366928504, -26641.51506992097, -26641.39967340324, -26641.289978912977, -26641.185521071417, -26641.085885383607, -26640.990701424853, -26640.899637095292, -26640.812393751872, -26640.72870206523, -26640.64831847822, -26640.571022166645, -26640.496612420902, -26640.424906381984, -26640.35573707712, -26640.28895170984, -26640.224410166633, -26640.161983708997, -26640.10155382451, -26640.043011214795, -26639.98625490174, -26639.93119143606, -26639.877734194975, -26639.825802757263, -26639.775322346137]",True,2005-12,False,PeriodIndex,True,PeriodIndex,True
2006-02,2006-02-01,2006Q1,2,50,565,1,-26692.39031481812,49,2e-06,100,1.8995763887369723e-06,"[-26729.19437629151, -26706.816128097158, -26704.272363190474, -26702.667275582095, -26701.47863761718, -26700.53551489199, -26699.757986661658, -26699.10090113692, -26698.535658008215, -26698.042745130668, -26697.608154758207, -26697.221454359373, -26696.874656008244, -26696.561509579384, -26696.277038241464, -26696.017220934627, -26695.778768365984, -26695.558960858638, -26695.355528436874, -26695.166560528767, -26694.99043690801, -26694.825774160898, -26694.67138369185, -26694.526238429116, -26694.389446175635, -26694.26022809362, -26694.13790119651, -26694.021863998376, -26693.911584672456, -26693.80659121958, -26693.70646325789, -26693.610825129686, -26693.51934008475, -26693.431705348543, -26693.347647922285, -26693.266920990744, -26693.18930083793, -26693.1145841885, -26693.04258590813, -26692.973137007382, -26692.906082903457, -26692.841281901798, -26692.778603865783, -26692.717929047933, -26692.659147060134, -26692.60215596415, -26692.54686146617, -26692.49317620192, -26692.44101910068, -26692.39031481812]",True,2006-01,False,PeriodIndex,True,PeriodIndex,True
2006-03,2006-03-01,2006Q1,3,50,566,1,-26730.007980843413,48,2e-06,100,1.9165622280349776e-06,"[-26766.63950893037, -26744.375890613373, -26741.818987027684, -26740.20030502801, -26739.001913260618, -26738.052130212345, -26737.270228112735, -26736.61044853648, -26736.043755118633, -26735.550321285933, -26735.115909506712, -26734.729916704247, -26734.384226415503, -26734.072490245162, -26733.789655282584, -26733.531640949433, -26733.295111006322, -26733.077308523323, -26732.875933847645, -26732.68905271926, -26732.515026002333, -26732.352455215238, -26732.200139800694, -26732.057043248184, -26731.922265977726, -26731.795023447863, -26731.674628341643, -26731.56047596672, -26731.452032209483, -26731.348823535554, -26731.250428641164, -26731.156471445618, -26731.06661518004, -26730.980557377377, -26730.898025607286, -26730.818773830244, -26730.742579268433, -26730.66923971012, -26730.598571179296, -26730.530405914113, -26730.464590607655, -26730.40098487224, -26730.339459894894, -26730.279897256907, -26730.222187894622, -26730.166231182266, -26730.111934120403, -26730.059210616157, -26730.007980843413]",True,2006-02,False,PeriodIndex,True,PeriodIndex,True
2006-04,2006-04-01,2006Q2,1,50,567,1,-26770.26791896538,48,2e-06,100,1.9049560584858926e-06,"[-26806.406844916062, -26784.517987265186, -26782.003753023906, -26780.401849816484, -26779.212678606527, -26778.26887925926, -26777.49130911821, -26776.834918449422, -26776.271025718706, -26775.779997269885, -26775.347707655816, -26774.963622707968, -26774.61967052977, -26774.309532941952, -26774.028178450862, -26773.771542297338, -26773.536300369196, -26773.3197053398, -26773.11946537302, -26772.933652717773, -26772.760633760365, -26772.599014776046, -26772.44759935679, -26772.305354649063, -26772.17138432424, -26772.044906753013, -26771.925237243708, -26771.81177348372, -26771.7039835275, -26771.60139582445, -26771.503590893146, -26771.410194332933, -26771.320870928685, -26771.235319654465, -26771.15326942015, -26771.074475435576, -26770.99871609008, -26770.925790264533, -26770.85551500759, -26770.787723519974, -26770.722263400367, -26770.658995114358, -26770.59779065395, -26770.538532360755, -26770.481111890153, -26770.425429296964, -26770.37139222667, -26770.31891519801, -26770.26791896538]",True,2006-03,False,PeriodIndex,True,PeriodIndex,True
2006-05,2006-05-01,2006Q2,2,50,568,1,-26818.79733111085,48,2e-06,100,1.9195060000107363e-06,"[-26855.191644868253, -26833.19920011098, -26830.63191965416, -26829.00400982214, -26827.8009152886, -26826.8491999753, -26826.066794566625, -26825.40716437009, -26824.840861501998, -26824.34785547103, -26823.9138164421, -26823.52810645171, -26823.18260223414, -26822.870961303925, -26822.58814157836, -26822.330074440764, -26822.09343503538, -26821.87547656698, -26821.67390810062, -26821.4868027356, -26821.31252748448, -26821.149688973557, -26820.9970908768, -26820.853700184132, -26820.718620209813, -26820.591068804777, -26820.47036062936, -26820.35589262459, -26820.247132025237, -26820.14360640845, -26820.044895385116, -26819.950623625144, -26819.86045497345, -26819.77408746243, -26819.69124906572, -26819.61169406781, -26819.535199948063, -26819.461564695892, -26819.390604489592, -26819.32215168244, -26819.256053049856, -26819.19216825916, -26819.13036852956, -26819.070535455583, -26819.012559971085, -26818.95634143486, -26818.90178682129, -26818.848810002648, -26818.79733111085]",True,2006-04,False,PeriodIndex,True,PeriodIndex,True
2006-06,2006-06-01,2006Q2,3,50,569,1,-26861.807199049905,48,2e-06,100,1.9416663379734087e-06,"[-26898.053696241786, -26876.209419529634, -26873.689346560765, -26872.082260063973, -26870.888047510118, -26869.939191889716, -26869.156540711338, -26868.49506737096, -26867.926117989693, -26867.43008381653, -26866.99286003085, -26866.603928912366, -26866.255231357805, -26865.940458908168, -26865.65458725051, -26865.393556726594, -26865.15404663144, -26864.933311672463, -26864.729060938684, -26864.539366712575, -26864.362594700633, -26864.197349930873, -26864.0424343001, -26863.896812909486, -26863.75958711496, -26863.62997276688, -26863.507282501814, -26863.390911227485, -26863.280324146253, -26863.175046811877, -26863.07465682718, -26862.97877687458, -26862.887068836128, -26862.799228809406, -26862.714982863876, -26862.634083412726, -26862.55630609839, -26862.48144710921, -26862.409320859093, -26862.339757974292, -26862.272603541125, -26862.207715575893, -26862.144963685023, -26862.08422788849, -26862.025397583635, -26861.968370630537, -26861.91305254239, -26861.859355767356, -26861.807199049905]",True,2006-05,False,PeriodIndex,True,PeriodIndex,True
2006-07,2006-07-01,2006Q3,1,50,570,1,-26903.780223907987,48,2e-06,100,1.936550098339751e-06,"[-26940.009839132304, -26918.16553067289, -26915.649117095312, -26914.044975007833, -26912.85275989689, -26911.90525967864, -26911.123552969188, -26910.462759874772, -26909.894317941253, -26909.398676055305, -26908.96176640647, -26908.573095484833, -26908.224620292156, -26907.9100432383, -26907.62434743435, -26907.363478343163, -26907.124118819927, -26906.90352606173, -26906.6994109059, -26906.50984686581, -26906.333200515477, -26906.168077494283, -26906.013280129388, -26905.867773824357, -26905.7306601472, -26905.601155097072, -26905.478571415177, -26905.36230408356, -26905.251818358447, -26905.14663983404, -26905.04634614526, -26904.950560001726, -26904.85894331034, -26904.771192192802, -26904.687032743146, -26904.606217400255, -26904.528521833865, -26904.45374226138, -26904.381693127645, -26904.312205091683, -26904.245123274322, -26904.180305727954, -26904.117622096583, -26904.056952438932, -26903.99818619223, -26903.94122125727, -26903.885963188706, -26903.832324476673, -26903.780223907987]",True,2006-06,False,PeriodIndex,True,PeriodIndex,True
2006-08,2006-08-01,2006Q3,2,50,571,1,-26957.73902918916,48,2e-06,100,1.9240846536455874e-06,"[-26994.05131507382, -26972.147380257826, -26969.619864443623, -26968.008064425307, -26966.81050710444, -26965.85931039496, -26965.07506731125, -26964.412562329784, -26963.843000919314, -26963.34666904667, -26962.909382631537, -26962.520564009617, -26962.1721085917, -26961.85767332556, -26961.57220755163, -26961.311631531877, -26961.072609258506, -26960.85238378722, -26960.648655352587, -26960.459489530338, -26960.283246972285, -26960.11852892463, -26959.96413448417, -26959.819026709833, -26959.68230550021, -26959.553185699493, -26959.430979285462, -26959.315080773864, -26959.20495517904, -26959.10012802179, -26959.00017698878, -26958.90472493325, -26958.813433971787, -26958.726000481925, -26958.642150844484, -26958.56163780426, -26958.484237347126, -26958.409746010053, -26958.337978555806, -26958.2687659559, -26958.201953635435, -26958.137399941013, -26958.074974799332, -26958.01455853959, -26957.95604085669, -26957.899319896183, -26957.844301444544, -26957.790898211024, -26957.73902918916]",True,2006-07,False,PeriodIndex,True,PeriodIndex,True
2006-09,2006-09-01,2006Q3,3,50,572,1,-27005.744110422907,48,2e-06,100,1.890806945865253e-06,"[-27042.00644422059, -27020.052014418667, -27017.53494094319, -27015.929089391295, -27014.73609184893, -27013.78876348016, -27013.007979303125, -27012.348664171943, -27011.782100569835, -27011.28861969562, -27010.85406556198, -27010.467878791656, -27010.12196717497, -27009.80999631985, -27009.5269217987, -27009.268668474513, -27009.031903821342, -27008.813873596722, -27008.612280187688, -27008.425190933023, -27008.250967970835, -27008.088213837007, -27007.935728778884, -27007.792476908264, -27007.657559108793, -27007.530191163536, -27007.40968595841, -27007.295438897636, -27007.186915872124, -27007.08364327265, -27006.9851996529, -27006.89120873237, -27006.80133349437, -27006.715271184305, -27006.63274905194, -27006.553520711856, -27006.477363019956, -27006.40407338274, -27006.3334674311, -27006.26537700247, -27006.1996483846, -27006.136140782604, -27006.074724976603, -27006.015282143202, -27005.957702817926, -27005.90188597926, -27005.847738238277, -27005.795173119724, -27005.744110422907]",True,2006-08,False,PeriodIndex,True,PeriodIndex,True
