haminh109/Nowcasting-GDP-Growth/outputs/layer1_dfm/dfm_news_blocks.csv
impact_date,block,block_label,factor_name,signed_block_news,abs_block_news,vintage_period,target_quarter
2000-03,demand_orders_inventories,Demand / orders / inventories,demand,0.0028882046477814102,0.0028882046477814102,2000-02,2000Q1
2000-03,financial_conditions,Financial conditions,financial,0.06534327803448281,0.06534327803448281,2000-02,2000Q1
2000-03,housing_construction,Housing & construction,housing,0.06290817542611922,0.06290817542611922,2000-02,2000Q1
2000-03,labor_market,Labor market,labor,0.17287913004840635,0.17287913004840635,2000-02,2000Q1
2000-03,prices_inflation,Prices & inflation,prices,0.0035761589847975806,0.0035761589847975806,2000-02,2000Q1
2000-03,quarterly_target_history,Quarterly target history,quarterly_target,-0.14696305656864286,0.14696305656864286,2000-02,2000Q1
2000-03,real_activity_income,Real activity & income,real_activity,0.09943123824170981,0.09943123824170981,2000-02,2000Q1
2000-03,demand_orders_inventories,Demand / orders / inventories,demand,-0.11998473151174867,0.11998473151174867,2000-03,2000Q1
2000-03,financial_conditions,Financial conditions,financial,-0.05008338860737605,0.05008338860737605,2000-03,2000Q1
2000-03,housing_construction,Housing & construction,housing,0.042478142883760804,0.042478142883760804,2000-03,2000Q1
2000-03,labor_market,Labor market,labor,-0.29066540920216927,0.29066540920216927,2000-03,2000Q1
2000-03,prices_inflation,Prices & inflation,prices,0.0014795436153291035,0.0014795436153291035,2000-03,2000Q1
2000-03,real_activity_income,Real activity & income,real_activity,-0.19972732911979685,0.19972732911979685,2000-03,2000Q1
2000-06,demand_orders_inventories,Demand / orders / inventories,demand,0.005296276228639167,0.005296276228639167,2000-04,2000Q2
2000-06,financial_conditions,Financial conditions,financial,-0.175374095220752,0.175374095220752,2000-04,2000Q2
2000-06,housing_construction,Housing & construction,housing,-0.3103291438461522,0.3103291438461522,2000-04,2000Q2
2000-06,labor_market,Labor market,labor,0.19719935413475437,0.19719935413475437,2000-04,2000Q2
2000-06,prices_inflation,Prices & inflation,prices,0.03313603416458655,0.03313603416458655,2000-04,2000Q2
2000-06,real_activity_income,Real activity & income,real_activity,0.09129324974874209,0.09129324974874209,2000-04,2000Q2
2000-06,demand_orders_inventories,Demand / orders / inventories,demand,-0.2706418191896963,0.2706418191896963,2000-05,2000Q2
2000-06,financial_conditions,Financial conditions,financial,-0.13758699345585818,0.13758699345585818,2000-05,2000Q2
2000-06,housing_construction,Housing & construction,housing,0.0763306323190401,0.0763306323190401,2000-05,2000Q2
2000-06,labor_market,Labor market,labor,0.1784721413258395,0.1784721413258395,2000-05,2000Q2
2000-06,prices_inflation,Prices & inflation,prices,-0.017527063494903787,0.017527063494903787,2000-05,2000Q2
2000-06,quarterly_target_history,Quarterly target history,quarterly_target,-0.05570237759001238,0.05570237759001238,2000-05,2000Q2
2000-06,real_activity_income,Real activity & income,real_activity,0.5431699138631602,0.5431699138631602,2000-05,2000Q2
2000-06,demand_orders_inventories,Demand / orders / inventories,demand,-0.05434930740270059,0.05434930740270059,2000-06,2000Q2
2000-06,financial_conditions,Financial conditions,financial,0.09247750969674452,0.09247750969674452,2000-06,2000Q2
2000-06,housing_construction,Housing & construction,housing,-0.006727853437264757,0.006727853437264757,2000-06,2000Q2
2000-06,labor_market,Labor market,labor,-0.3543557280617231,0.3543557280617231,2000-06,2000Q2
2000-06,prices_inflation,Prices & inflation,prices,-0.020322146362059826,0.020322146362059826,2000-06,2000Q2
2000-06,real_activity_income,Real activity & income,real_activity,-0.04649685954382318,0.04649685954382318,2000-06,2000Q2
2000-09,demand_orders_inventories,Demand / orders / inventories,demand,0.8026538251231439,0.8026538251231439,2000-07,2000Q3
2000-09,financial_conditions,Financial conditions,financial,-0.5088698828612563,0.5088698828612563,2000-07,2000Q3
2000-09,housing_construction,Housing & construction,housing,-0.11766200239555535,0.11766200239555535,2000-07,2000Q3
2000-09,labor_market,Labor market,labor,-0.2874966358199334,0.2874966358199334,2000-07,2000Q3
2000-09,prices_inflation,Prices & inflation,prices,0.04986325864067266,0.04986325864067266,2000-07,2000Q3
2000-09,real_activity_income,Real activity & income,real_activity,0.07542765539115258,0.07542765539115258,2000-07,2000Q3
2000-09,demand_orders_inventories,Demand / orders / inventories,demand,-0.3664627558223351,0.3664627558223351,2000-08,2000Q3
2000-09,financial_conditions,Financial conditions,financial,-0.03400808715443902,0.03400808715443902,2000-08,2000Q3
2000-09,housing_construction,Housing & construction,housing,-0.010984615503355258,0.010984615503355258,2000-08,2000Q3
2000-09,labor_market,Labor market,labor,-0.06656303761399614,0.06656303761399614,2000-08,2000Q3
2000-09,prices_inflation,Prices & inflation,prices,0.006453050881780983,0.006453050881780983,2000-08,2000Q3
2000-09,quarterly_target_history,Quarterly target history,quarterly_target,-0.04990994123062327,0.04990994123062327,2000-08,2000Q3
2000-09,real_activity_income,Real activity & income,real_activity,0.05121423067372653,0.05121423067372653,2000-08,2000Q3
2000-09,demand_orders_inventories,Demand / orders / inventories,demand,-0.12794235495623382,0.12794235495623382,2000-09,2000Q3
2000-09,financial_conditions,Financial conditions,financial,-0.05797872180817462,0.05797872180817462,2000-09,2000Q3
2000-09,housing_construction,Housing & construction,housing,-0.0030919585307104744,0.0030919585307104744,2000-09,2000Q3
2000-09,labor_market,Labor market,labor,-0.35318924623077647,0.35318924623077647,2000-09,2000Q3
2000-09,prices_inflation,Prices & inflation,prices,-0.03282830425758267,0.03282830425758267,2000-09,2000Q3
2000-09,real_activity_income,Real activity & income,real_activity,0.02168948500032347,0.02168948500032347,2000-09,2000Q3
2000-12,demand_orders_inventories,Demand / orders / inventories,demand,0.23376059691475526,0.23376059691475526,2000-10,2000Q4
2000-12,financial_conditions,Financial conditions,financial,-0.08026162498694395,0.08026162498694395,2000-10,2000Q4
2000-12,housing_construction,Housing & construction,housing,-0.01433828674200835,0.01433828674200835,2000-10,2000Q4
2000-12,labor_market,Labor market,labor,0.16570487166284603,0.16570487166284603,2000-10,2000Q4
2000-12,prices_inflation,Prices & inflation,prices,0.03553238054429152,0.03553238054429152,2000-10,2000Q4
2000-12,real_activity_income,Real activity & income,real_activity,0.7309557003409499,0.7309557003409499,2000-10,2000Q4
2000-12,demand_orders_inventories,Demand / orders / inventories,demand,-0.2802593639770315,0.2802593639770315,2000-11,2000Q4
2000-12,financial_conditions,Financial conditions,financial,-0.13140500191336524,0.13140500191336524,2000-11,2000Q4
2000-12,housing_construction,Housing & construction,housing,0.02549486918423692,0.02549486918423692,2000-11,2000Q4
2000-12,labor_market,Labor market,labor,0.05445641267191513,0.05445641267191513,2000-11,2000Q4
2000-12,prices_inflation,Prices & inflation,prices,-0.008193862274610922,0.008193862274610922,2000-11,2000Q4
2000-12,quarterly_target_history,Quarterly target history,quarterly_target,-0.004381926225283004,0.004381926225283004,2000-11,2000Q4
2000-12,real_activity_income,Real activity & income,real_activity,-0.5038965446863859,0.5038965446863859,2000-11,2000Q4
2000-12,demand_orders_inventories,Demand / orders / inventories,demand,-0.04225560237874887,0.04225560237874887,2000-12,2000Q4
2000-12,financial_conditions,Financial conditions,financial,0.02095294971179876,0.02095294971179876,2000-12,2000Q4
2000-12,housing_construction,Housing & construction,housing,-0.004856850716080266,0.004856850716080266,2000-12,2000Q4
2000-12,labor_market,Labor market,labor,-0.2385101684258874,0.2385101684258874,2000-12,2000Q4
2000-12,prices_inflation,Prices & inflation,prices,-0.007670667473962569,0.007670667473962569,2000-12,2000Q4
2000-12,real_activity_income,Real activity & income,real_activity,-0.4503268760614552,0.4503268760614552,2000-12,2000Q4
2001-03,demand_orders_inventories,Demand / orders / inventories,demand,-0.018124730087213,0.018124730087213,2001-01,2001Q1
2001-03,financial_conditions,Financial conditions,financial,-0.41193756185467406,0.41193756185467406,2001-01,2001Q1
2001-03,housing_construction,Housing & construction,housing,-0.0994199363592955,0.0994199363592955,2001-01,2001Q1
2001-03,labor_market,Labor market,labor,-0.36753483051936453,0.36753483051936453,2001-01,2001Q1
2001-03,prices_inflation,Prices & inflation,prices,0.011451765510340672,0.011451765510340672,2001-01,2001Q1
2001-03,real_activity_income,Real activity & income,real_activity,-0.6879640696869292,0.6879640696869292,2001-01,2001Q1
2001-03,demand_orders_inventories,Demand / orders / inventories,demand,0.016225352692088454,0.016225352692088454,2001-02,2001Q1
2001-03,financial_conditions,Financial conditions,financial,-0.09833426176967965,0.09833426176967965,2001-02,2001Q1
2001-03,housing_construction,Housing & construction,housing,0.12756100990964053,0.12756100990964053,2001-02,2001Q1
2001-03,labor_market,Labor market,labor,0.7249166698599006,0.7249166698599006,2001-02,2001Q1
2001-03,prices_inflation,Prices & inflation,prices,0.0890250349222109,0.0890250349222109,2001-02,2001Q1
2001-03,quarterly_target_history,Quarterly target history,quarterly_target,0.018688620167953543,0.018688620167953543,2001-02,2001Q1
2001-03,real_activity_income,Real activity & income,real_activity,0.4227871589063068,0.4227871589063068,2001-02,2001Q1
2001-03,demand_orders_inventories,Demand / orders / inventories,demand,-0.10182075738400483,0.10182075738400483,2001-03,2001Q1
2001-03,financial_conditions,Financial conditions,financial,0.022984670209217403,0.022984670209217403,2001-03,2001Q1
2001-03,housing_construction,Housing & construction,housing,0.002717474128538322,0.002717474128538322,2001-03,2001Q1
2001-03,labor_market,Labor market,labor,-0.11084301853777817,0.11084301853777817,2001-03,2001Q1
2001-03,prices_inflation,Prices & inflation,prices,-0.03710347831880292,0.03710347831880292,2001-03,2001Q1
2001-03,real_activity_income,Real activity & income,real_activity,-0.3048698986126949,0.3048698986126949,2001-03,2001Q1
2001-06,demand_orders_inventories,Demand / orders / inventories,demand,0.12952996359018343,0.12952996359018343,2001-04,2001Q2
2001-06,financial_conditions,Financial conditions,financial,-0.10450611797292378,0.10450611797292378,2001-04,2001Q2
2001-06,housing_construction,Housing & construction,housing,-0.02670812780922524,0.02670812780922524,2001-04,2001Q2
2001-06,labor_market,Labor market,labor,-0.42793827584947863,0.42793827584947863,2001-04,2001Q2
2001-06,prices_inflation,Prices & inflation,prices,-0.027770798930111494,0.027770798930111494,2001-04,2001Q2
2001-06,real_activity_income,Real activity & income,real_activity,0.5415290479600093,0.5415290479600093,2001-04,2001Q2
2001-06,demand_orders_inventories,Demand / orders / inventories,demand,-0.09357165351845939,0.09357165351845939,2001-05,2001Q2
2001-06,financial_conditions,Financial conditions,financial,0.11600216886650434,0.11600216886650434,2001-05,2001Q2
2001-06,housing_construction,Housing & construction,housing,-0.019434264230787784,0.019434264230787784,2001-05,2001Q2
2001-06,labor_market,Labor market,labor,-0.7140695107871975,0.7140695107871975,2001-05,2001Q2
2001-06,prices_inflation,Prices & inflation,prices,0.006922931217009123,0.006922931217009123,2001-05,2001Q2
2001-06,quarterly_target_history,Quarterly target history,quarterly_target,-0.13121754952302694,0.13121754952302694,2001-05,2001Q2
2001-06,real_activity_income,Real activity & income,real_activity,-0.09593123842957277,0.09593123842957277,2001-05,2001Q2
2001-06,demand_orders_inventories,Demand / orders / inventories,demand,-0.024871117919282665,0.024871117919282665,2001-06,2001Q2
2001-06,financial_conditions,Financial conditions,financial,0.12236067364084723,0.12236067364084723,2001-06,2001Q2
2001-06,housing_construction,Housing & construction,housing,-0.002076328877284444,0.002076328877284444,2001-06,2001Q2
2001-06,labor_market,Labor market,labor,-0.1602506382948496,0.1602506382948496,2001-06,2001Q2
2001-06,prices_inflation,Prices & inflation,prices,0.02667537314651405,0.02667537314651405,2001-06,2001Q2
2001-06,real_activity_income,Real activity & income,real_activity,-0.1405109271859313,0.1405109271859313,2001-06,2001Q2
2001-09,demand_orders_inventories,Demand / orders / inventories,demand,0.016022482920690116,0.016022482920690116,2001-07,2001Q3
2001-09,financial_conditions,Financial conditions,financial,0.056144782804264666,0.056144782804264666,2001-07,2001Q3
2001-09,housing_construction,Housing & construction,housing,0.06924358264045488,0.06924358264045488,2001-07,2001Q3
2001-09,labor_market,Labor market,labor,-0.23152621463456857,0.23152621463456857,2001-07,2001Q3
2001-09,prices_inflation,Prices & inflation,prices,0.005564034609668671,0.005564034609668671,2001-07,2001Q3
2001-09,real_activity_income,Real activity & income,real_activity,-0.49618624949880175,0.49618624949880175,2001-07,2001Q3
2001-09,demand_orders_inventories,Demand / orders / inventories,demand,-0.10219523187210135,0.10219523187210135,2001-08,2001Q3
2001-09,financial_conditions,Financial conditions,financial,0.1291004897388024,0.1291004897388024,2001-08,2001Q3
2001-09,housing_construction,Housing & construction,housing,0.04132251240993896,0.04132251240993896,2001-08,2001Q3
2001-09,labor_market,Labor market,labor,0.22537130585027082,0.22537130585027082,2001-08,2001Q3
2001-09,prices_inflation,Prices & inflation,prices,-0.07465965729114696,0.07465965729114696,2001-08,2001Q3
2001-09,quarterly_target_history,Quarterly target history,quarterly_target,-0.023455364139281135,0.023455364139281135,2001-08,2001Q3
2001-09,real_activity_income,Real activity & income,real_activity,0.3194958707694197,0.3194958707694197,2001-08,2001Q3
2001-09,demand_orders_inventories,Demand / orders / inventories,demand,-0.02846448989603751,0.02846448989603751,2001-09,2001Q3
2001-09,financial_conditions,Financial conditions,financial,-0.029634259972240097,0.029634259972240097,2001-09,2001Q3
2001-09,housing_construction,Housing & construction,housing,-0.029430834021690954,0.029430834021690954,2001-09,2001Q3
2001-09,labor_market,Labor market,labor,-0.40543128980550636,0.40543128980550636,2001-09,2001Q3
2001-09,prices_inflation,Prices & inflation,prices,0.006485516621991951,0.006485516621991951,2001-09,2001Q3
2001-09,real_activity_income,Real activity & income,real_activity,-0.30689098503005663,0.30689098503005663,2001-09,2001Q3
2001-12,demand_orders_inventories,Demand / orders / inventories,demand,-0.5548758204887521,0.5548758204887521,2001-10,2001Q4
2001-12,financial_conditions,Financial conditions,financial,0.0889946363187099,0.0889946363187099,2001-10,2001Q4
2001-12,housing_construction,Housing & construction,housing,-0.08668774247152805,0.08668774247152805,2001-10,2001Q4
2001-12,labor_market,Labor market,labor,-0.6982236371603184,0.6982236371603184,2001-10,2001Q4
2001-12,prices_inflation,Prices & inflation,prices,-0.002916939758672646,0.002916939758672646,2001-10,2001Q4
2001-12,real_activity_income,Real activity & income,real_activity,-0.45993199099813337,0.45993199099813337,2001-10,2001Q4
2001-12,demand_orders_inventories,Demand / orders / inventories,demand,0.7211592443114705,0.7211592443114705,2001-11,2001Q4
2001-12,financial_conditions,Financial conditions,financial,0.18517243792886157,0.18517243792886157,2001-11,2001Q4
2001-12,housing_construction,Housing & construction,housing,0.009016328980149084,0.009016328980149084,2001-11,2001Q4
2001-12,labor_market,Labor market,labor,-0.9486228918923687,0.9486228918923687,2001-11,2001Q4
2001-12,prices_inflation,Prices & inflation,prices,0.14676290139065423,0.14676290139065423,2001-11,2001Q4
2001-12,quarterly_target_history,Quarterly target history,quarterly_target,0.062330527000601,0.062330527000601,2001-11,2001Q4
2001-12,real_activity_income,Real activity & income,real_activity,-0.21777029388792657,0.21777029388792657,2001-11,2001Q4
2001-12,demand_orders_inventories,Demand / orders / inventories,demand,0.0412134644483403,0.0412134644483403,2001-12,2001Q4
2001-12,financial_conditions,Financial conditions,financial,0.13093286601629972,0.13093286601629972,2001-12,2001Q4
2001-12,housing_construction,Housing & construction,housing,0.038074326787911006,0.038074326787911006,2001-12,2001Q4
2001-12,labor_market,Labor market,labor,-0.13760294596248435,0.13760294596248435,2001-12,2001Q4
2001-12,prices_inflation,Prices & inflation,prices,-0.09743603981010028,0.09743603981010028,2001-12,2001Q4
2001-12,real_activity_income,Real activity & income,real_activity,-0.3842751798263658,0.3842751798263658,2001-12,2001Q4
2002-03,demand_orders_inventories,Demand / orders / inventories,demand,0.013488326535979187,0.013488326535979187,2002-01,2002Q1
2002-03,financial_conditions,Financial conditions,financial,0.4588400471728191,0.4588400471728191,2002-01,2002Q1
2002-03,housing_construction,Housing & construction,housing,-0.14773641751173905,0.14773641751173905,2002-01,2002Q1
2002-03,labor_market,Labor market,labor,0.30496299400452104,0.30496299400452104,2002-01,2002Q1
2002-03,prices_inflation,Prices & inflation,prices,0.08194201852278826,0.08194201852278826,2002-01,2002Q1
2002-03,real_activity_income,Real activity & income,real_activity,0.5519529815488742,0.5519529815488742,2002-01,2002Q1
2002-03,demand_orders_inventories,Demand / orders / inventories,demand,0.03500732513520584,0.03500732513520584,2002-02,2002Q1
2002-03,financial_conditions,Financial conditions,financial,0.06013790398887579,0.06013790398887579,2002-02,2002Q1
2002-03,housing_construction,Housing & construction,housing,0.0972140074082733,0.0972140074082733,2002-02,2002Q1
2002-03,labor_market,Labor market,labor,0.2456667947233827,0.2456667947233827,2002-02,2002Q1
2002-03,prices_inflation,Prices & inflation,prices,0.006751261553301621,0.006751261553301621,2002-02,2002Q1
2002-03,quarterly_target_history,Quarterly target history,quarterly_target,-0.02086744687350179,0.02086744687350179,2002-02,2002Q1
2002-03,real_activity_income,Real activity & income,real_activity,0.014537721052992225,0.014537721052992225,2002-02,2002Q1
2002-03,demand_orders_inventories,Demand / orders / inventories,demand,0.14391038329734016,0.14391038329734016,2002-03,2002Q1
2002-03,financial_conditions,Financial conditions,financial,0.10091727228732938,0.10091727228732938,2002-03,2002Q1
2002-03,housing_construction,Housing & construction,housing,0.008399648047410939,0.008399648047410939,2002-03,2002Q1
2002-03,labor_market,Labor market,labor,0.16015486507375898,0.16015486507375898,2002-03,2002Q1
2002-03,prices_inflation,Prices & inflation,prices,0.0005410737167315764,0.0005410737167315764,2002-03,2002Q1
2002-03,real_activity_income,Real activity & income,real_activity,0.0460929837972934,0.0460929837972934,2002-03,2002Q1
2002-06,demand_orders_inventories,Demand / orders / inventories,demand,-0.11601206200597047,0.11601206200597047,2002-04,2002Q2
2002-06,financial_conditions,Financial conditions,financial,0.3269103387727911,0.3269103387727911,2002-04,2002Q2
2002-06,housing_construction,Housing & construction,housing,-0.09200914952637737,0.09200914952637737,2002-04,2002Q2
2002-06,labor_market,Labor market,labor,-0.37141107251065725,0.37141107251065725,2002-04,2002Q2
2002-06,prices_inflation,Prices & inflation,prices,-0.012732919072067552,0.012732919072067552,2002-04,2002Q2
2002-06,real_activity_income,Real activity & income,real_activity,0.18791060441098456,0.18791060441098456,2002-04,2002Q2
2002-06,demand_orders_inventories,Demand / orders / inventories,demand,0.0580434319005191,0.0580434319005191,2002-05,2002Q2
2002-06,financial_conditions,Financial conditions,financial,0.038777454126411086,0.038777454126411086,2002-05,2002Q2
2002-06,housing_construction,Housing & construction,housing,-0.1397391452496499,0.1397391452496499,2002-05,2002Q2
2002-06,labor_market,Labor market,labor,-0.3358313956245356,0.3358313956245356,2002-05,2002Q2
2002-06,prices_inflation,Prices & inflation,prices,0.05216086585124331,0.05216086585124331,2002-05,2002Q2
2002-06,quarterly_target_history,Quarterly target history,quarterly_target,-0.25904783392355235,0.25904783392355235,2002-05,2002Q2
2002-06,real_activity_income,Real activity & income,real_activity,-0.32445255069402296,0.32445255069402296,2002-05,2002Q2
2002-06,demand_orders_inventories,Demand / orders / inventories,demand,0.029164845371235842,0.029164845371235842,2002-06,2002Q2
2002-06,financial_conditions,Financial conditions,financial,0.11875551748349854,0.11875551748349854,2002-06,2002Q2
2002-06,housing_construction,Housing & construction,housing,0.05277575568642656,0.05277575568642656,2002-06,2002Q2
2002-06,labor_market,Labor market,labor,0.29822665016916505,0.29822665016916505,2002-06,2002Q2
2002-06,prices_inflation,Prices & inflation,prices,0.006604250306121336,0.006604250306121336,2002-06,2002Q2
2002-06,real_activity_income,Real activity & income,real_activity,0.1235465897147377,0.1235465897147377,2002-06,2002Q2
2002-09,demand_orders_inventories,Demand / orders / inventories,demand,-0.30641927145187603,0.30641927145187603,2002-07,2002Q3
2002-09,financial_conditions,Financial conditions,financial,0.03710418429723693,0.03710418429723693,2002-07,2002Q3
2002-09,housing_construction,Housing & construction,housing,-0.009729096586775121,0.009729096586775121,2002-07,2002Q3
2002-09,labor_market,Labor market,labor,0.01757764730733423,0.01757764730733423,2002-07,2002Q3
2002-09,prices_inflation,Prices & inflation,prices,-0.03934801834288447,0.03934801834288447,2002-07,2002Q3
2002-09,real_activity_income,Real activity & income,real_activity,0.10533126800862985,0.10533126800862985,2002-07,2002Q3
2002-09,demand_orders_inventories,Demand / orders / inventories,demand,0.19910053816831116,0.19910053816831116,2002-08,2002Q3
2002-09,financial_conditions,Financial conditions,financial,0.0210410564262839,0.0210410564262839,2002-08,2002Q3
2002-09,housing_construction,Housing & construction,housing,-0.0056831042653681454,0.0056831042653681454,2002-08,2002Q3
2002-09,labor_market,Labor market,labor,-0.19808946028924962,0.19808946028924962,2002-08,2002Q3
2002-09,prices_inflation,Prices & inflation,prices,-0.012622281240504088,0.012622281240504088,2002-08,2002Q3
2002-09,quarterly_target_history,Quarterly target history,quarterly_target,0.17584708062240928,0.17584708062240928,2002-08,2002Q3
2002-09,real_activity_income,Real activity & income,real_activity,-0.35420878031010594,0.35420878031010594,2002-08,2002Q3
2002-09,demand_orders_inventories,Demand / orders / inventories,demand,0.1182045266029203,0.1182045266029203,2002-09,2002Q3
2002-09,financial_conditions,Financial conditions,financial,-6.606102846705908e-05,6.606102846705908e-05,2002-09,2002Q3
2002-09,housing_construction,Housing & construction,housing,-0.01782568553330613,0.01782568553330613,2002-09,2002Q3
2002-09,labor_market,Labor market,labor,-0.091777362653842,0.091777362653842,2002-09,2002Q3
2002-09,prices_inflation,Prices & inflation,prices,0.02935040198150919,0.02935040198150919,2002-09,2002Q3
2002-09,real_activity_income,Real activity & income,real_activity,-0.29500986300133514,0.29500986300133514,2002-09,2002Q3
2002-12,demand_orders_inventories,Demand / orders / inventories,demand,-0.5147118876376884,0.5147118876376884,2002-10,2002Q4
2002-12,financial_conditions,Financial conditions,financial,-0.08287756520828561,0.08287756520828561,2002-10,2002Q4
2002-12,housing_construction,Housing & construction,housing,0.35092023285529567,0.35092023285529567,2002-10,2002Q4
2002-12,labor_market,Labor market,labor,-0.17289738589818304,0.17289738589818304,2002-10,2002Q4
2002-12,prices_inflation,Prices & inflation,prices,-0.028290020201502206,0.028290020201502206,2002-10,2002Q4
2002-12,real_activity_income,Real activity & income,real_activity,-0.33424397701656805,0.33424397701656805,2002-10,2002Q4
2002-12,demand_orders_inventories,Demand / orders / inventories,demand,0.022077979518824887,0.022077979518824887,2002-11,2002Q4
2002-12,financial_conditions,Financial conditions,financial,0.12873219320351667,0.12873219320351667,2002-11,2002Q4
2002-12,housing_construction,Housing & construction,housing,-0.22183978446788524,0.22183978446788524,2002-11,2002Q4
2002-12,labor_market,Labor market,labor,0.025274024470931244,0.025274024470931244,2002-11,2002Q4
2002-12,prices_inflation,Prices & inflation,prices,-0.0034475562668721503,0.0034475562668721503,2002-11,2002Q4
2002-12,quarterly_target_history,Quarterly target history,quarterly_target,0.020359680320402876,0.020359680320402876,2002-11,2002Q4
2002-12,real_activity_income,Real activity & income,real_activity,-0.7666600310503935,0.7666600310503935,2002-11,2002Q4
2002-12,demand_orders_inventories,Demand / orders / inventories,demand,0.004698417349858716,0.004698417349858716,2002-12,2002Q4
2002-12,financial_conditions,Financial conditions,financial,0.005056168912845273,0.005056168912845273,2002-12,2002Q4
2002-12,housing_construction,Housing & construction,housing,0.010572438540424622,0.010572438540424622,2002-12,2002Q4
2002-12,labor_market,Labor market,labor,-0.0030643690815066182,0.0030643690815066182,2002-12,2002Q4
2002-12,prices_inflation,Prices & inflation,prices,0.01227691631543372,0.01227691631543372,2002-12,2002Q4
2002-12,real_activity_income,Real activity & income,real_activity,0.01237201254568275,0.01237201254568275,2002-12,2002Q4
2003-03,demand_orders_inventories,Demand / orders / inventories,demand,0.04534488579562615,0.04534488579562615,2003-01,2003Q1
2003-03,financial_conditions,Financial conditions,financial,0.07555247733343398,0.07555247733343398,2003-01,2003Q1
2003-03,housing_construction,Housing & construction,housing,0.13515565496056187,0.13515565496056187,2003-01,2003Q1
2003-03,labor_market,Labor market,labor,-0.42841744350498756,0.42841744350498756,2003-01,2003Q1
2003-03,prices_inflation,Prices & inflation,prices,-0.012212724907653131,0.012212724907653131,2003-01,2003Q1
2003-03,real_activity_income,Real activity & income,real_activity,-0.019370481473662847,0.019370481473662847,2003-01,2003Q1
2003-03,demand_orders_inventories,Demand / orders / inventories,demand,0.027807069293225836,0.027807069293225836,2003-02,2003Q1
2003-03,financial_conditions,Financial conditions,financial,0.06657391474694074,0.06657391474694074,2003-02,2003Q1
2003-03,housing_construction,Housing & construction,housing,-0.023929225002726845,0.023929225002726845,2003-02,2003Q1
2003-03,labor_market,Labor market,labor,0.5887842126307017,0.5887842126307017,2003-02,2003Q1
2003-03,prices_inflation,Prices & inflation,prices,-0.006551714740546551,0.006551714740546551,2003-02,2003Q1
2003-03,quarterly_target_history,Quarterly target history,quarterly_target,0.022743610010281,0.022743610010281,2003-02,2003Q1
2003-03,real_activity_income,Real activity & income,real_activity,0.28942905586954304,0.28942905586954304,2003-02,2003Q1
2003-03,demand_orders_inventories,Demand / orders / inventories,demand,-0.03538241293256051,0.03538241293256051,2003-03,2003Q1
2003-03,financial_conditions,Financial conditions,financial,0.027942776386090492,0.027942776386090492,2003-03,2003Q1
2003-03,housing_construction,Housing & construction,housing,-0.06232920773029568,0.06232920773029568,2003-03,2003Q1
2003-03,labor_market,Labor market,labor,-0.3377559863705457,0.3377559863705457,2003-03,2003Q1
2003-03,prices_inflation,Prices & inflation,prices,-0.002464172723248145,0.002464172723248145,2003-03,2003Q1
2003-03,real_activity_income,Real activity & income,real_activity,-0.4015588032979698,0.4015588032979698,2003-03,2003Q1
2003-06,demand_orders_inventories,Demand / orders / inventories,demand,0.09639610052900784,0.09639610052900784,2003-04,2003Q2
2003-06,financial_conditions,Financial conditions,financial,-0.0045296783931369575,0.0045296783931369575,2003-04,2003Q2
2003-06,housing_construction,Housing & construction,housing,0.23203596180645858,0.23203596180645858,2003-04,2003Q2
2003-06,labor_market,Labor market,labor,-0.20091729953794152,0.20091729953794152,2003-04,2003Q2
2003-06,prices_inflation,Prices & inflation,prices,0.005542155656800158,0.005542155656800158,2003-04,2003Q2
2003-06,real_activity_income,Real activity & income,real_activity,-0.02703957451774204,0.02703957451774204,2003-04,2003Q2
2003-06,demand_orders_inventories,Demand / orders / inventories,demand,-0.028698270801237463,0.028698270801237463,2003-05,2003Q2
2003-06,financial_conditions,Financial conditions,financial,0.0827733512172796,0.0827733512172796,2003-05,2003Q2
2003-06,housing_construction,Housing & construction,housing,-0.10548051850409217,0.10548051850409217,2003-05,2003Q2
2003-06,labor_market,Labor market,labor,-0.41001865995516096,0.41001865995516096,2003-05,2003Q2
2003-06,prices_inflation,Prices & inflation,prices,0.013765892852031177,0.013765892852031177,2003-05,2003Q2
2003-06,quarterly_target_history,Quarterly target history,quarterly_target,0.03275531572418175,0.03275531572418175,2003-05,2003Q2
2003-06,real_activity_income,Real activity & income,real_activity,-0.45954958025965115,0.45954958025965115,2003-05,2003Q2
2003-06,demand_orders_inventories,Demand / orders / inventories,demand,-0.06522666944483618,0.06522666944483618,2003-06,2003Q2
2003-06,financial_conditions,Financial conditions,financial,-0.014527592503640241,0.014527592503640241,2003-06,2003Q2
2003-06,housing_construction,Housing & construction,housing,0.013783961518669213,0.013783961518669213,2003-06,2003Q2
2003-06,labor_market,Labor market,labor,0.08299886910823152,0.08299886910823152,2003-06,2003Q2
2003-06,prices_inflation,Prices & inflation,prices,0.023516350989847317,0.023516350989847317,2003-06,2003Q2
2003-06,real_activity_income,Real activity & income,real_activity,0.4216647387509747,0.4216647387509747,2003-06,2003Q2
2003-09,demand_orders_inventories,Demand / orders / inventories,demand,0.06886889415992223,0.06886889415992223,2003-07,2003Q3
2003-09,financial_conditions,Financial conditions,financial,-0.0740826312690862,0.0740826312690862,2003-07,2003Q3
2003-09,housing_construction,Housing & construction,housing,0.1082589454485389,0.1082589454485389,2003-07,2003Q3
2003-09,labor_market,Labor market,labor,-0.2807202166833103,0.2807202166833103,2003-07,2003Q3
2003-09,prices_inflation,Prices & inflation,prices,-0.04290813020466371,0.04290813020466371,2003-07,2003Q3
2003-09,real_activity_income,Real activity & income,real_activity,0.2923607658189694,0.2923607658189694,2003-07,2003Q3
2003-09,demand_orders_inventories,Demand / orders / inventories,demand,0.11552158691650992,0.11552158691650992,2003-08,2003Q3
2003-09,financial_conditions,Financial conditions,financial,0.33906295886864113,0.33906295886864113,2003-08,2003Q3
2003-09,housing_construction,Housing & construction,housing,0.10069665546394974,0.10069665546394974,2003-08,2003Q3
2003-09,labor_market,Labor market,labor,-0.06290238900330444,0.06290238900330444,2003-08,2003Q3
2003-09,prices_inflation,Prices & inflation,prices,-0.006109747792545709,0.006109747792545709,2003-08,2003Q3
2003-09,quarterly_target_history,Quarterly target history,quarterly_target,-0.07923784803783367,0.07923784803783367,2003-08,2003Q3
2003-09,real_activity_income,Real activity & income,real_activity,-0.11929793336153019,0.11929793336153019,2003-08,2003Q3
2003-09,demand_orders_inventories,Demand / orders / inventories,demand,0.07298896918666942,0.07298896918666942,2003-09,2003Q3
2003-09,financial_conditions,Financial conditions,financial,0.06245904879500921,0.06245904879500921,2003-09,2003Q3
2003-09,housing_construction,Housing & construction,housing,-0.016465205158540212,0.016465205158540212,2003-09,2003Q3
2003-09,labor_market,Labor market,labor,-0.09382890654000013,0.09382890654000013,2003-09,2003Q3
2003-09,prices_inflation,Prices & inflation,prices,0.005988099212616915,0.005988099212616915,2003-09,2003Q3
2003-09,real_activity_income,Real activity & income,real_activity,-0.43745621287369246,0.43745621287369246,2003-09,2003Q3
2003-12,demand_orders_inventories,Demand / orders / inventories,demand,-0.0919446050188816,0.0919446050188816,2003-10,2003Q4
2003-12,financial_conditions,Financial conditions,financial,-0.15816962385030997,0.15816962385030997,2003-10,2003Q4
2003-12,housing_construction,Housing & construction,housing,0.15604772819425708,0.15604772819425708,2003-10,2003Q4
2003-12,labor_market,Labor market,labor,0.042838305497735915,0.042838305497735915,2003-10,2003Q4
2003-12,prices_inflation,Prices & inflation,prices,0.005208592586807704,0.005208592586807704,2003-10,2003Q4
2003-12,real_activity_income,Real activity & income,real_activity,0.17533301744991703,0.17533301744991703,2003-10,2003Q4
2003-12,demand_orders_inventories,Demand / orders / inventories,demand,-0.04181817778052532,0.04181817778052532,2003-11,2003Q4
2003-12,financial_conditions,Financial conditions,financial,-0.06490578607852734,0.06490578607852734,2003-11,2003Q4
2003-12,housing_construction,Housing & construction,housing,0.02335364358538895,0.02335364358538895,2003-11,2003Q4
2003-12,labor_market,Labor market,labor,0.08183408510514396,0.08183408510514396,2003-11,2003Q4
2003-12,prices_inflation,Prices & inflation,prices,-0.0101104769721111,0.0101104769721111,2003-11,2003Q4
2003-12,quarterly_target_history,Quarterly target history,quarterly_target,-0.2967102348918941,0.2967102348918941,2003-11,2003Q4
2003-12,real_activity_income,Real activity & income,real_activity,-0.11099831183957082,0.11099831183957082,2003-11,2003Q4
2003-12,demand_orders_inventories,Demand / orders / inventories,demand,0.06155317734847493,0.06155317734847493,2003-12,2003Q4
2003-12,financial_conditions,Financial conditions,financial,-0.0035277139818359997,0.0035277139818359997,2003-12,2003Q4
2003-12,housing_construction,Housing & construction,housing,0.08118982756803148,0.08118982756803148,2003-12,2003Q4
2003-12,labor_market,Labor market,labor,0.1537944859007648,0.1537944859007648,2003-12,2003Q4
2003-12,prices_inflation,Prices & inflation,prices,-0.03220294424257359,0.03220294424257359,2003-12,2003Q4
2003-12,real_activity_income,Real activity & income,real_activity,0.2567441732012721,0.2567441732012721,2003-12,2003Q4
2004-03,demand_orders_inventories,Demand / orders / inventories,demand,-0.20543248724140192,0.20543248724140192,2004-01,2004Q1
2004-03,financial_conditions,Financial conditions,financial,0.09941673768198489,0.09941673768198489,2004-01,2004Q1
2004-03,housing_construction,Housing & construction,housing,0.11403470621647784,0.11403470621647784,2004-01,2004Q1
2004-03,labor_market,Labor market,labor,-0.21510522007858357,0.21510522007858357,2004-01,2004Q1
2004-03,prices_inflation,Prices & inflation,prices,0.034349438078138055,0.034349438078138055,2004-01,2004Q1
2004-03,quarterly_target_history,Quarterly target history,quarterly_target,0.6603255726714731,0.6603255726714731,2004-01,2004Q1
2004-03,real_activity_income,Real activity & income,real_activity,-0.24127932955702341,0.24127932955702341,2004-01,2004Q1
2004-03,demand_orders_inventories,Demand / orders / inventories,demand,-0.10011611637905156,0.10011611637905156,2004-02,2004Q1
2004-03,financial_conditions,Financial conditions,financial,0.04631127103632497,0.04631127103632497,2004-02,2004Q1
2004-03,housing_construction,Housing & construction,housing,-0.1800348717819765,0.1800348717819765,2004-02,2004Q1
2004-03,labor_market,Labor market,labor,0.14267427357105378,0.14267427357105378,2004-02,2004Q1
2004-03,prices_inflation,Prices & inflation,prices,0.030441146346475028,0.030441146346475028,2004-02,2004Q1
2004-03,quarterly_target_history,Quarterly target history,quarterly_target,0.0071314172905832,0.0071314172905832,2004-02,2004Q1
2004-03,real_activity_income,Real activity & income,real_activity,-0.42599288386442546,0.42599288386442546,2004-02,2004Q1
2004-03,demand_orders_inventories,Demand / orders / inventories,demand,0.005126478186826523,0.005126478186826523,2004-03,2004Q1
2004-03,financial_conditions,Financial conditions,financial,0.03177675902010789,0.03177675902010789,2004-03,2004Q1
2004-03,housing_construction,Housing & construction,housing,-0.0012727667040514992,0.0012727667040514992,2004-03,2004Q1
2004-03,labor_market,Labor market,labor,-0.05007239983795796,0.05007239983795796,2004-03,2004Q1
2004-03,prices_inflation,Prices & inflation,prices,0.00016258807248594538,0.00016258807248594538,2004-03,2004Q1
2004-03,real_activity_income,Real activity & income,real_activity,0.08468542651403985,0.08468542651403985,2004-03,2004Q1
2004-06,demand_orders_inventories,Demand / orders / inventories,demand,0.12309856428532256,0.12309856428532256,2004-04,2004Q2
2004-06,financial_conditions,Financial conditions,financial,-0.06533395565951786,0.06533395565951786,2004-04,2004Q2
2004-06,housing_construction,Housing & construction,housing,0.16388260876240976,0.16388260876240976,2004-04,2004Q2
2004-06,labor_market,Labor market,labor,0.07750337004378904,0.07750337004378904,2004-04,2004Q2
2004-06,prices_inflation,Prices & inflation,prices,0.016621909979481375,0.016621909979481375,2004-04,2004Q2
2004-06,real_activity_income,Real activity & income,real_activity,-0.42980544506434953,0.42980544506434953,2004-04,2004Q2
2004-06,demand_orders_inventories,Demand / orders / inventories,demand,0.0233145694165662,0.0233145694165662,2004-05,2004Q2
2004-06,financial_conditions,Financial conditions,financial,0.228026025889239,0.228026025889239,2004-05,2004Q2
2004-06,housing_construction,Housing & construction,housing,0.02471541412463919,0.02471541412463919,2004-05,2004Q2
2004-06,labor_market,Labor market,labor,0.044473400245368604,0.044473400245368604,2004-05,2004Q2
2004-06,prices_inflation,Prices & inflation,prices,-0.0031356983519171063,0.0031356983519171063,2004-05,2004Q2
2004-06,quarterly_target_history,Quarterly target history,quarterly_target,0.06254449721478574,0.06254449721478574,2004-05,2004Q2
2004-06,real_activity_income,Real activity & income,real_activity,0.15211773297728218,0.15211773297728218,2004-05,2004Q2
2004-06,demand_orders_inventories,Demand / orders / inventories,demand,-0.13219170088905843,0.13219170088905843,2004-06,2004Q2
2004-06,financial_conditions,Financial conditions,financial,0.018319319103376232,0.018319319103376232,2004-06,2004Q2
2004-06,housing_construction,Housing & construction,housing,-0.01765497929583561,0.01765497929583561,2004-06,2004Q2
2004-06,labor_market,Labor market,labor,-0.03301766911808507,0.03301766911808507,2004-06,2004Q2
2004-06,prices_inflation,Prices & inflation,prices,-0.012879871294063353,0.012879871294063353,2004-06,2004Q2
2004-06,real_activity_income,Real activity & income,real_activity,0.029588197592326816,0.029588197592326816,2004-06,2004Q2
2004-09,demand_orders_inventories,Demand / orders / inventories,demand,-0.12787067470349664,0.12787067470349664,2004-07,2004Q3
2004-09,financial_conditions,Financial conditions,financial,0.0007142492695934768,0.0007142492695934768,2004-07,2004Q3
2004-09,housing_construction,Housing & construction,housing,-0.20794364837716653,0.20794364837716653,2004-07,2004Q3
2004-09,labor_market,Labor market,labor,-0.4080711331014455,0.4080711331014455,2004-07,2004Q3
2004-09,prices_inflation,Prices & inflation,prices,0.011952563802019698,0.011952563802019698,2004-07,2004Q3
2004-09,real_activity_income,Real activity & income,real_activity,-0.30280027291828104,0.30280027291828104,2004-07,2004Q3
2004-09,demand_orders_inventories,Demand / orders / inventories,demand,0.14680853012741177,0.14680853012741177,2004-08,2004Q3
2004-09,financial_conditions,Financial conditions,financial,-0.08025338732962695,0.08025338732962695,2004-08,2004Q3
2004-09,housing_construction,Housing & construction,housing,0.12265426791136,0.12265426791136,2004-08,2004Q3
2004-09,labor_market,Labor market,labor,-0.034760727997764695,0.034760727997764695,2004-08,2004Q3
2004-09,prices_inflation,Prices & inflation,prices,-0.019893056583718767,0.019893056583718767,2004-08,2004Q3
2004-09,quarterly_target_history,Quarterly target history,quarterly_target,0.11330445649372374,0.11330445649372374,2004-08,2004Q3
2004-09,real_activity_income,Real activity & income,real_activity,0.12920832066444654,0.12920832066444654,2004-08,2004Q3
2004-09,demand_orders_inventories,Demand / orders / inventories,demand,-0.13777571594703214,0.13777571594703214,2004-09,2004Q3
2004-09,financial_conditions,Financial conditions,financial,-0.0015177517139406517,0.0015177517139406517,2004-09,2004Q3
2004-09,housing_construction,Housing & construction,housing,0.023596898731685502,0.023596898731685502,2004-09,2004Q3
2004-09,labor_market,Labor market,labor,-0.03466303902204395,0.03466303902204395,2004-09,2004Q3
2004-09,prices_inflation,Prices & inflation,prices,-0.015139748027338801,0.015139748027338801,2004-09,2004Q3
2004-09,real_activity_income,Real activity & income,real_activity,-0.0660050539466514,0.0660050539466514,2004-09,2004Q3
2004-12,demand_orders_inventories,Demand / orders / inventories,demand,0.06952885698240088,0.06952885698240088,2004-10,2004Q4
2004-12,financial_conditions,Financial conditions,financial,-0.057464059934981666,0.057464059934981666,2004-10,2004Q4
2004-12,housing_construction,Housing & construction,housing,-0.18114815241709625,0.18114815241709625,2004-10,2004Q4
2004-12,labor_market,Labor market,labor,-0.2141327324313563,0.2141327324313563,2004-10,2004Q4
2004-12,prices_inflation,Prices & inflation,prices,0.015581288044385003,0.015581288044385003,2004-10,2004Q4
2004-12,real_activity_income,Real activity & income,real_activity,-0.4994443833280098,0.4994443833280098,2004-10,2004Q4
2004-12,demand_orders_inventories,Demand / orders / inventories,demand,-0.03673487588965553,0.03673487588965553,2004-11,2004Q4
2004-12,financial_conditions,Financial conditions,financial,-0.01195726081136073,0.01195726081136073,2004-11,2004Q4
2004-12,housing_construction,Housing & construction,housing,0.18095661086948084,0.18095661086948084,2004-11,2004Q4
2004-12,labor_market,Labor market,labor,0.1856933638120371,0.1856933638120371,2004-11,2004Q4
2004-12,prices_inflation,Prices & inflation,prices,-0.011713759708944149,0.011713759708944149,2004-11,2004Q4
2004-12,quarterly_target_history,Quarterly target history,quarterly_target,0.012725176842970561,0.012725176842970561,2004-11,2004Q4
2004-12,real_activity_income,Real activity & income,real_activity,0.25175058908954817,0.25175058908954817,2004-11,2004Q4
2004-12,demand_orders_inventories,Demand / orders / inventories,demand,-0.02486088436237833,0.02486088436237833,2004-12,2004Q4
2004-12,financial_conditions,Financial conditions,financial,0.013108296981742443,0.013108296981742443,2004-12,2004Q4
2004-12,housing_construction,Housing & construction,housing,-0.0790824728887883,0.0790824728887883,2004-12,2004Q4
2004-12,labor_market,Labor market,labor,0.02187741049821275,0.02187741049821275,2004-12,2004Q4
2004-12,prices_inflation,Prices & inflation,prices,0.009552235888018162,0.009552235888018162,2004-12,2004Q4
2004-12,real_activity_income,Real activity & income,real_activity,0.005753263262822515,0.005753263262822515,2004-12,2004Q4
2005-03,demand_orders_inventories,Demand / orders / inventories,demand,0.09070690951916174,0.09070690951916174,2005-01,2005Q1
2005-03,financial_conditions,Financial conditions,financial,-0.03927953091996759,0.03927953091996759,2005-01,2005Q1
2005-03,housing_construction,Housing & construction,housing,0.24959514972593172,0.24959514972593172,2005-01,2005Q1
2005-03,labor_market,Labor market,labor,0.06038025702279506,0.06038025702279506,2005-01,2005Q1
2005-03,prices_inflation,Prices & inflation,prices,0.016096307276796416,0.016096307276796416,2005-01,2005Q1
2005-03,real_activity_income,Real activity & income,real_activity,2.5908654059305105,2.5908654059305105,2005-01,2005Q1
2005-03,demand_orders_inventories,Demand / orders / inventories,demand,-0.25808386093018953,0.25808386093018953,2005-02,2005Q1
2005-03,financial_conditions,Financial conditions,financial,-0.02608413187894573,0.02608413187894573,2005-02,2005Q1
2005-03,housing_construction,Housing & construction,housing,0.05321481179125581,0.05321481179125581,2005-02,2005Q1
2005-03,labor_market,Labor market,labor,-0.32194668393446985,0.32194668393446985,2005-02,2005Q1
2005-03,prices_inflation,Prices & inflation,prices,-0.023757253293586543,0.023757253293586543,2005-02,2005Q1
2005-03,quarterly_target_history,Quarterly target history,quarterly_target,0.08815506660996607,0.08815506660996607,2005-02,2005Q1
2005-03,real_activity_income,Real activity & income,real_activity,-1.743089993746455,1.743089993746455,2005-02,2005Q1
2005-03,demand_orders_inventories,Demand / orders / inventories,demand,0.04118182321752005,0.04118182321752005,2005-03,2005Q1
2005-03,financial_conditions,Financial conditions,financial,-0.024925981933817606,0.024925981933817606,2005-03,2005Q1
2005-03,housing_construction,Housing & construction,housing,0.048396570981021715,0.048396570981021715,2005-03,2005Q1
2005-03,labor_market,Labor market,labor,0.140635657362788,0.140635657362788,2005-03,2005Q1
2005-03,prices_inflation,Prices & inflation,prices,0.010435904104522,0.010435904104522,2005-03,2005Q1
2005-03,real_activity_income,Real activity & income,real_activity,-0.5265343765463663,0.5265343765463663,2005-03,2005Q1
2005-06,demand_orders_inventories,Demand / orders / inventories,demand,-0.22224817591892218,0.22224817591892218,2005-04,2005Q2
2005-06,financial_conditions,Financial conditions,financial,0.10985894694926525,0.10985894694926525,2005-04,2005Q2
2005-06,housing_construction,Housing & construction,housing,-0.4073567708157456,0.4073567708157456,2005-04,2005Q2
2005-06,labor_market,Labor market,labor,-0.15358364919375378,0.15358364919375378,2005-04,2005Q2
2005-06,prices_inflation,Prices & inflation,prices,0.0251162062199617,0.0251162062199617,2005-04,2005Q2
2005-06,real_activity_income,Real activity & income,real_activity,-0.3843312522482408,0.3843312522482408,2005-04,2005Q2
2005-06,demand_orders_inventories,Demand / orders / inventories,demand,0.10435978110048,0.10435978110048,2005-05,2005Q2
2005-06,financial_conditions,Financial conditions,financial,-0.12956875039043844,0.12956875039043844,2005-05,2005Q2
2005-06,housing_construction,Housing & construction,housing,0.08242090674803147,0.08242090674803147,2005-05,2005Q2
2005-06,labor_market,Labor market,labor,0.36225353292669304,0.36225353292669304,2005-05,2005Q2
2005-06,prices_inflation,Prices & inflation,prices,-0.006118589122940662,0.006118589122940662,2005-05,2005Q2
2005-06,quarterly_target_history,Quarterly target history,quarterly_target,0.05418127401423833,0.05418127401423833,2005-05,2005Q2
2005-06,real_activity_income,Real activity & income,real_activity,0.24706814790417866,0.24706814790417866,2005-05,2005Q2
2005-06,demand_orders_inventories,Demand / orders / inventories,demand,0.1882154727430056,0.1882154727430056,2005-06,2005Q2
2005-06,financial_conditions,Financial conditions,financial,-0.07836013689298356,0.07836013689298356,2005-06,2005Q2
2005-06,housing_construction,Housing & construction,housing,0.02019483140033181,0.02019483140033181,2005-06,2005Q2
2005-06,labor_market,Labor market,labor,-0.0784406614198172,0.0784406614198172,2005-06,2005Q2
2005-06,prices_inflation,Prices & inflation,prices,-0.016622840001212752,0.016622840001212752,2005-06,2005Q2
2005-06,real_activity_income,Real activity & income,real_activity,0.13952047570509063,0.13952047570509063,2005-06,2005Q2
2005-09,demand_orders_inventories,Demand / orders / inventories,demand,0.26773060361988466,0.26773060361988466,2005-07,2005Q3
2005-09,financial_conditions,Financial conditions,financial,-0.10943875545995685,0.10943875545995685,2005-07,2005Q3
2005-09,housing_construction,Housing & construction,housing,-0.028402712913885533,0.028402712913885533,2005-07,2005Q3
2005-09,labor_market,Labor market,labor,-0.10839214872907481,0.10839214872907481,2005-07,2005Q3
2005-09,prices_inflation,Prices & inflation,prices,-0.022938815562907132,0.022938815562907132,2005-07,2005Q3
2005-09,real_activity_income,Real activity & income,real_activity,-0.09724716136972944,0.09724716136972944,2005-07,2005Q3
2005-09,demand_orders_inventories,Demand / orders / inventories,demand,-0.11346313668530855,0.11346313668530855,2005-08,2005Q3
2005-09,financial_conditions,Financial conditions,financial,0.08323088958443707,0.08323088958443707,2005-08,2005Q3
2005-09,housing_construction,Housing & construction,housing,0.05328577945524489,0.05328577945524489,2005-08,2005Q3
2005-09,labor_market,Labor market,labor,0.04252801956496787,0.04252801956496787,2005-08,2005Q3
2005-09,prices_inflation,Prices & inflation,prices,0.03751029109447854,0.03751029109447854,2005-08,2005Q3
2005-09,quarterly_target_history,Quarterly target history,quarterly_target,-0.06937998003373705,0.06937998003373705,2005-08,2005Q3
2005-09,real_activity_income,Real activity & income,real_activity,0.2095105384166908,0.2095105384166908,2005-08,2005Q3
2005-09,demand_orders_inventories,Demand / orders / inventories,demand,-0.1053679592753714,0.1053679592753714,2005-09,2005Q3
2005-09,financial_conditions,Financial conditions,financial,-0.039913734872571494,0.039913734872571494,2005-09,2005Q3
2005-09,housing_construction,Housing & construction,housing,-0.011632430355661246,0.011632430355661246,2005-09,2005Q3
2005-09,labor_market,Labor market,labor,0.051858420511153774,0.051858420511153774,2005-09,2005Q3
2005-09,prices_inflation,Prices & inflation,prices,-0.004841648343624689,0.004841648343624689,2005-09,2005Q3
2005-09,real_activity_income,Real activity & income,real_activity,-0.6923485815243247,0.6923485815243247,2005-09,2005Q3
2005-12,demand_orders_inventories,Demand / orders / inventories,demand,-0.010013119602722338,0.010013119602722338,2005-10,2005Q4
2005-12,financial_conditions,Financial conditions,financial,-0.18685364861986,0.18685364861986,2005-10,2005Q4
2005-12,housing_construction,Housing & construction,housing,0.06651958175334485,0.06651958175334485,2005-10,2005Q4
2005-12,labor_market,Labor market,labor,-0.8004710070872068,0.8004710070872068,2005-10,2005Q4
2005-12,prices_inflation,Prices & inflation,prices,0.029448711192132222,0.029448711192132222,2005-10,2005Q4
2005-12,real_activity_income,Real activity & income,real_activity,-0.2314804966004569,0.2314804966004569,2005-10,2005Q4
2005-12,demand_orders_inventories,Demand / orders / inventories,demand,0.28916503819847944,0.28916503819847944,2005-11,2005Q4
2005-12,financial_conditions,Financial conditions,financial,0.05318026865244286,0.05318026865244286,2005-11,2005Q4
2005-12,housing_construction,Housing & construction,housing,-0.12936488561930656,0.12936488561930656,2005-11,2005Q4
2005-12,labor_market,Labor market,labor,0.6599921009633728,0.6599921009633728,2005-11,2005Q4
2005-12,prices_inflation,Prices & inflation,prices,0.02401990980867387,0.02401990980867387,2005-11,2005Q4
2005-12,quarterly_target_history,Quarterly target history,quarterly_target,-0.1483397948375054,0.1483397948375054,2005-11,2005Q4
2005-12,real_activity_income,Real activity & income,real_activity,1.8808704928099282,1.8808704928099282,2005-11,2005Q4
2005-12,demand_orders_inventories,Demand / orders / inventories,demand,0.0980231427576063,0.0980231427576063,2005-12,2005Q4
2005-12,financial_conditions,Financial conditions,financial,-0.05207421571472901,0.05207421571472901,2005-12,2005Q4
2005-12,housing_construction,Housing & construction,housing,0.030655896754462418,0.030655896754462418,2005-12,2005Q4
2005-12,labor_market,Labor market,labor,0.06630166442282469,0.06630166442282469,2005-12,2005Q4
2005-12,prices_inflation,Prices & inflation,prices,-0.007198243727072125,0.007198243727072125,2005-12,2005Q4
2005-12,real_activity_income,Real activity & income,real_activity,0.645630799462114,0.645630799462114,2005-12,2005Q4
2006-03,demand_orders_inventories,Demand / orders / inventories,demand,0.041945314350878136,0.041945314350878136,2006-01,2006Q1
2006-03,financial_conditions,Financial conditions,financial,-0.12338129374766513,0.12338129374766513,2006-01,2006Q1
2006-03,housing_construction,Housing & construction,housing,-0.21164261094654682,0.21164261094654682,2006-01,2006Q1
2006-03,labor_market,Labor market,labor,-0.18556738559908342,0.18556738559908342,2006-01,2006Q1
2006-03,prices_inflation,Prices & inflation,prices,-0.043953958565238385,0.043953958565238385,2006-01,2006Q1
2006-03,real_activity_income,Real activity & income,real_activity,-0.6230659226013125,0.6230659226013125,2006-01,2006Q1
2006-03,demand_orders_inventories,Demand / orders / inventories,demand,-0.48610784424373943,0.48610784424373943,2006-02,2006Q1
2006-03,financial_conditions,Financial conditions,financial,-0.01952700672151523,0.01952700672151523,2006-02,2006Q1
2006-03,housing_construction,Housing & construction,housing,0.35280123240914757,0.35280123240914757,2006-02,2006Q1
2006-03,labor_market,Labor market,labor,0.3967328902287335,0.3967328902287335,2006-02,2006Q1
2006-03,prices_inflation,Prices & inflation,prices,0.04483432551191557,0.04483432551191557,2006-02,2006Q1
2006-03,quarterly_target_history,Quarterly target history,quarterly_target,0.3036045321657378,0.3036045321657378,2006-02,2006Q1
2006-03,real_activity_income,Real activity & income,real_activity,0.2919202107708321,0.2919202107708321,2006-02,2006Q1
2006-03,demand_orders_inventories,Demand / orders / inventories,demand,-0.1694552609424661,0.1694552609424661,2006-03,2006Q1
2006-03,financial_conditions,Financial conditions,financial,-0.042624243692627635,0.042624243692627635,2006-03,2006Q1
2006-03,housing_construction,Housing & construction,housing,-0.026803568391708936,0.026803568391708936,2006-03,2006Q1
2006-03,labor_market,Labor market,labor,-0.18968335312688658,0.18968335312688658,2006-03,2006Q1
2006-03,prices_inflation,Prices & inflation,prices,0.0007819272303066331,0.0007819272303066331,2006-03,2006Q1
2006-03,real_activity_income,Real activity & income,real_activity,-0.6682530200321656,0.6682530200321656,2006-03,2006Q1
2006-06,demand_orders_inventories,Demand / orders / inventories,demand,0.390478979074924,0.390478979074924,2006-04,2006Q2
2006-06,financial_conditions,Financial conditions,financial,-0.06671566405027889,0.06671566405027889,2006-04,2006Q2
2006-06,housing_construction,Housing & construction,housing,-0.17898262853182756,0.17898262853182756,2006-04,2006Q2
2006-06,labor_market,Labor market,labor,0.07308002188094974,0.07308002188094974,2006-04,2006Q2
2006-06,prices_inflation,Prices & inflation,prices,-0.020726523097010265,0.020726523097010265,2006-04,2006Q2
2006-06,real_activity_income,Real activity & income,real_activity,0.2615993341703513,0.2615993341703513,2006-04,2006Q2
2006-06,demand_orders_inventories,Demand / orders / inventories,demand,-0.07191582767162795,0.07191582767162795,2006-05,2006Q2
2006-06,financial_conditions,Financial conditions,financial,0.030452863478059398,0.030452863478059398,2006-05,2006Q2
2006-06,housing_construction,Housing & construction,housing,-0.029630313448768274,0.029630313448768274,2006-05,2006Q2
2006-06,labor_market,Labor market,labor,-0.08129646584653076,0.08129646584653076,2006-05,2006Q2
2006-06,prices_inflation,Prices & inflation,prices,-0.011410937900948177,0.011410937900948177,2006-05,2006Q2
2006-06,quarterly_target_history,Quarterly target history,quarterly_target,-0.0041975662934579765,0.0041975662934579765,2006-05,2006Q2
2006-06,real_activity_income,Real activity & income,real_activity,0.27096936317315745,0.27096936317315745,2006-05,2006Q2
2006-06,demand_orders_inventories,Demand / orders / inventories,demand,-0.11108868099911345,0.11108868099911345,2006-06,2006Q2
2006-06,financial_conditions,Financial conditions,financial,-0.0063978279594924985,0.0063978279594924985,2006-06,2006Q2
2006-06,housing_construction,Housing & construction,housing,0.006684555406690178,0.006684555406690178,2006-06,2006Q2
2006-06,labor_market,Labor market,labor,-0.17448112671571303,0.17448112671571303,2006-06,2006Q2
2006-06,prices_inflation,Prices & inflation,prices,0.013264309436321325,0.013264309436321325,2006-06,2006Q2
2006-06,real_activity_income,Real activity & income,real_activity,-0.37695320544504085,0.37695320544504085,2006-06,2006Q2
2006-09,demand_orders_inventories,Demand / orders / inventories,demand,0.20293940840576633,0.20293940840576633,2006-07,2006Q3
2006-09,financial_conditions,Financial conditions,financial,-0.11227971923117396,0.11227971923117396,2006-07,2006Q3
2006-09,housing_construction,Housing & construction,housing,-0.09065919135663852,0.09065919135663852,2006-07,2006Q3
2006-09,labor_market,Labor market,labor,0.2541050471986196,0.2541050471986196,2006-07,2006Q3
2006-09,prices_inflation,Prices & inflation,prices,-0.005554616296327545,0.005554616296327545,2006-07,2006Q3
2006-09,real_activity_income,Real activity & income,real_activity,0.3065412392836935,0.3065412392836935,2006-07,2006Q3
2006-09,demand_orders_inventories,Demand / orders / inventories,demand,-0.07554412516606605,0.07554412516606605,2006-08,2006Q3
2006-09,financial_conditions,Financial conditions,financial,-0.06406765645476654,0.06406765645476654,2006-08,2006Q3
2006-09,housing_construction,Housing & construction,housing,-0.011426425183373234,0.011426425183373234,2006-08,2006Q3
2006-09,labor_market,Labor market,labor,-0.1665573919968575,0.1665573919968575,2006-08,2006Q3
2006-09,prices_inflation,Prices & inflation,prices,0.007355505010772086,0.007355505010772086,2006-08,2006Q3
2006-09,quarterly_target_history,Quarterly target history,quarterly_target,0.04747815630232493,0.04747815630232493,2006-08,2006Q3
2006-09,real_activity_income,Real activity & income,real_activity,0.05343411257893117,0.05343411257893117,2006-08,2006Q3
2006-09,demand_orders_inventories,Demand / orders / inventories,demand,-0.09256373455843203,0.09256373455843203,2006-09,2006Q3
2006-09,financial_conditions,Financial conditions,financial,-0.0681109534626439,0.0681109534626439,2006-09,2006Q3
2006-09,housing_construction,Housing & construction,housing,-0.029509243111270875,0.029509243111270875,2006-09,2006Q3
2006-09,labor_market,Labor market,labor,-0.03831412549868535,0.03831412549868535,2006-09,2006Q3
2006-09,prices_inflation,Prices & inflation,prices,-0.0022150303812183913,0.0022150303812183913,2006-09,2006Q3
2006-09,real_activity_income,Real activity & income,real_activity,-0.30486291913700475,0.30486291913700475,2006-09,2006Q3
2006-12,demand_orders_inventories,Demand / orders / inventories,demand,0.46783405439519243,0.46783405439519243,2006-10,2006Q4
2006-12,financial_conditions,Financial conditions,financial,-0.17768752194963755,0.17768752194963755,2006-10,2006Q4
2006-12,housing_construction,Housing & construction,housing,0.09367814333679794,0.09367814333679794,2006-10,2006Q4
2006-12,labor_market,Labor market,labor,0.025075269012271736,0.025075269012271736,2006-10,2006Q4
2006-12,prices_inflation,Prices & inflation,prices,-0.0006580087566031602,0.0006580087566031602,2006-10,2006Q4
2006-12,real_activity_income,Real activity & income,real_activity,0.14977556734630423,0.14977556734630423,2006-10,2006Q4
2006-12,demand_orders_inventories,Demand / orders / inventories,demand,-0.3830678771168807,0.3830678771168807,2006-11,2006Q4
2006-12,financial_conditions,Financial conditions,financial,0.1360416927474032,0.1360416927474032,2006-11,2006Q4
2006-12,housing_construction,Housing & construction,housing,-0.18189929158809792,0.18189929158809792,2006-11,2006Q4
2006-12,labor_market,Labor market,labor,-0.0856921311078018,0.0856921311078018,2006-11,2006Q4
2006-12,prices_inflation,Prices & inflation,prices,-0.012729472899245477,0.012729472899245477,2006-11,2006Q4
2006-12,quarterly_target_history,Quarterly target history,quarterly_target,0.19874844705582112,0.19874844705582112,2006-11,2006Q4
2006-12,real_activity_income,Real activity & income,real_activity,-0.12921345897878694,0.12921345897878694,2006-11,2006Q4
2006-12,demand_orders_inventories,Demand / orders / inventories,demand,0.006661053459801612,0.006661053459801612,2006-12,2006Q4
2006-12,financial_conditions,Financial conditions,financial,-0.1512090888441257,0.1512090888441257,2006-12,2006Q4
2006-12,housing_construction,Housing & construction,housing,0.01645248520209231,0.01645248520209231,2006-12,2006Q4
2006-12,labor_market,Labor market,labor,-0.10909796495987452,0.10909796495987452,2006-12,2006Q4
2006-12,prices_inflation,Prices & inflation,prices,-0.014100254930049707,0.014100254930049707,2006-12,2006Q4
2006-12,real_activity_income,Real activity & income,real_activity,0.17697053227279266,0.17697053227279266,2006-12,2006Q4
2007-03,demand_orders_inventories,Demand / orders / inventories,demand,0.2772708617498626,0.2772708617498626,2007-01,2007Q1
2007-03,financial_conditions,Financial conditions,financial,-0.12443930576039018,0.12443930576039018,2007-01,2007Q1
2007-03,housing_construction,Housing & construction,housing,0.11575113901613512,0.11575113901613512,2007-01,2007Q1
2007-03,labor_market,Labor market,labor,0.1420794356993434,0.1420794356993434,2007-01,2007Q1
2007-03,prices_inflation,Prices & inflation,prices,0.025371758644593814,0.025371758644593814,2007-01,2007Q1
2007-03,real_activity_income,Real activity & income,real_activity,0.5666184000185327,0.5666184000185327,2007-01,2007Q1
2007-03,demand_orders_inventories,Demand / orders / inventories,demand,-0.3352779280491997,0.3352779280491997,2007-02,2007Q1
2007-03,financial_conditions,Financial conditions,financial,0.024704744157840634,0.024704744157840634,2007-02,2007Q1
2007-03,housing_construction,Housing & construction,housing,-0.29329895078321017,0.29329895078321017,2007-02,2007Q1
2007-03,labor_market,Labor market,labor,-0.17306921979772338,0.17306921979772338,2007-02,2007Q1
2007-03,prices_inflation,Prices & inflation,prices,0.020890195488796774,0.020890195488796774,2007-02,2007Q1
2007-03,quarterly_target_history,Quarterly target history,quarterly_target,-0.08783541697757499,0.08783541697757499,2007-02,2007Q1
2007-03,real_activity_income,Real activity & income,real_activity,-0.8747514866181547,0.8747514866181547,2007-02,2007Q1
2007-03,demand_orders_inventories,Demand / orders / inventories,demand,-0.026978466122227245,0.026978466122227245,2007-03,2007Q1
2007-03,financial_conditions,Financial conditions,financial,-0.013654923385519657,0.013654923385519657,2007-03,2007Q1
2007-03,housing_construction,Housing & construction,housing,-0.025172931711636804,0.025172931711636804,2007-03,2007Q1
2007-03,labor_market,Labor market,labor,-0.055764486655226486,0.055764486655226486,2007-03,2007Q1
2007-03,prices_inflation,Prices & inflation,prices,-0.013292539267037872,0.013292539267037872,2007-03,2007Q1
2007-03,real_activity_income,Real activity & income,real_activity,0.3581249039697967,0.3581249039697967,2007-03,2007Q1
2007-06,demand_orders_inventories,Demand / orders / inventories,demand,0.2052902567286777,0.2052902567286777,2007-04,2007Q2
2007-06,financial_conditions,Financial conditions,financial,-0.21806158858266664,0.21806158858266664,2007-04,2007Q2
2007-06,housing_construction,Housing & construction,housing,0.036875755480713465,0.036875755480713465,2007-04,2007Q2
2007-06,labor_market,Labor market,labor,0.3722580810798575,0.3722580810798575,2007-04,2007Q2
2007-06,prices_inflation,Prices & inflation,prices,-0.006140138250473672,0.006140138250473672,2007-04,2007Q2
2007-06,real_activity_income,Real activity & income,real_activity,0.837737998530115,0.837737998530115,2007-04,2007Q2
2007-06,demand_orders_inventories,Demand / orders / inventories,demand,0.14835486323503747,0.14835486323503747,2007-05,2007Q2
2007-06,financial_conditions,Financial conditions,financial,0.05655914903250909,0.05655914903250909,2007-05,2007Q2
2007-06,housing_construction,Housing & construction,housing,0.056638365583029766,0.056638365583029766,2007-05,2007Q2
2007-06,labor_market,Labor market,labor,-0.3610263591392714,0.3610263591392714,2007-05,2007Q2
2007-06,prices_inflation,Prices & inflation,prices,-0.005072229422186799,0.005072229422186799,2007-05,2007Q2
2007-06,quarterly_target_history,Quarterly target history,quarterly_target,0.11630497593807596,0.11630497593807596,2007-05,2007Q2
2007-06,real_activity_income,Real activity & income,real_activity,-0.005131439080230005,0.005131439080230005,2007-05,2007Q2
2007-06,demand_orders_inventories,Demand / orders / inventories,demand,-0.04364947020024111,0.04364947020024111,2007-06,2007Q2
2007-06,financial_conditions,Financial conditions,financial,0.006273921738285555,0.006273921738285555,2007-06,2007Q2
2007-06,housing_construction,Housing & construction,housing,0.004524226439969148,0.004524226439969148,2007-06,2007Q2
2007-06,labor_market,Labor market,labor,0.0582207112641253,0.0582207112641253,2007-06,2007Q2
2007-06,prices_inflation,Prices & inflation,prices,0.0078056191003731245,0.0078056191003731245,2007-06,2007Q2
2007-06,real_activity_income,Real activity & income,real_activity,-0.5647939363986566,0.5647939363986566,2007-06,2007Q2
2007-09,demand_orders_inventories,Demand / orders / inventories,demand,0.04173135923460381,0.04173135923460381,2007-07,2007Q3
2007-09,financial_conditions,Financial conditions,financial,0.10998206708185827,0.10998206708185827,2007-07,2007Q3
2007-09,housing_construction,Housing & construction,housing,0.015006731279111623,0.015006731279111623,2007-07,2007Q3
2007-09,labor_market,Labor market,labor,-0.030377994025304722,0.030377994025304722,2007-07,2007Q3
2007-09,prices_inflation,Prices & inflation,prices,0.001642172231527508,0.001642172231527508,2007-07,2007Q3
2007-09,real_activity_income,Real activity & income,real_activity,0.24744120045039533,0.24744120045039533,2007-07,2007Q3
2007-09,demand_orders_inventories,Demand / orders / inventories,demand,0.2620422190685631,0.2620422190685631,2007-08,2007Q3
2007-09,financial_conditions,Financial conditions,financial,-0.04392538167314876,0.04392538167314876,2007-08,2007Q3
2007-09,housing_construction,Housing & construction,housing,-0.07259494981518867,0.07259494981518867,2007-08,2007Q3
2007-09,labor_market,Labor market,labor,-0.02901849185531165,0.02901849185531165,2007-08,2007Q3
2007-09,prices_inflation,Prices & inflation,prices,-0.014196555560030943,0.014196555560030943,2007-08,2007Q3
2007-09,quarterly_target_history,Quarterly target history,quarterly_target,-0.007459866948919729,0.007459866948919729,2007-08,2007Q3
2007-09,real_activity_income,Real activity & income,real_activity,0.391895259181573,0.391895259181573,2007-08,2007Q3
2007-09,demand_orders_inventories,Demand / orders / inventories,demand,-0.06692386844787954,0.06692386844787954,2007-09,2007Q3
2007-09,financial_conditions,Financial conditions,financial,-0.05173422626031335,0.05173422626031335,2007-09,2007Q3
2007-09,housing_construction,Housing & construction,housing,-0.026970445209180707,0.026970445209180707,2007-09,2007Q3
2007-09,labor_market,Labor market,labor,-0.3096712207668667,0.3096712207668667,2007-09,2007Q3
2007-09,prices_inflation,Prices & inflation,prices,-0.0013209387642557843,0.0013209387642557843,2007-09,2007Q3
2007-09,real_activity_income,Real activity & income,real_activity,-0.33407358308488394,0.33407358308488394,2007-09,2007Q3
2007-12,demand_orders_inventories,Demand / orders / inventories,demand,-0.13010854326586122,0.13010854326586122,2007-10,2007Q4
2007-12,financial_conditions,Financial conditions,financial,0.01094990152327907,0.01094990152327907,2007-10,2007Q4
2007-12,housing_construction,Housing & construction,housing,-0.3257166502756788,0.3257166502756788,2007-10,2007Q4
2007-12,labor_market,Labor market,labor,0.12205604949295193,0.12205604949295193,2007-10,2007Q4
2007-12,prices_inflation,Prices & inflation,prices,0.0035080269969120746,0.0035080269969120746,2007-10,2007Q4
2007-12,real_activity_income,Real activity & income,real_activity,0.11242982724371509,0.11242982724371509,2007-10,2007Q4
2007-12,demand_orders_inventories,Demand / orders / inventories,demand,0.030113925567442325,0.030113925567442325,2007-11,2007Q4
2007-12,financial_conditions,Financial conditions,financial,0.038383292427611626,0.038383292427611626,2007-11,2007Q4
2007-12,housing_construction,Housing & construction,housing,0.05674300034509394,0.05674300034509394,2007-11,2007Q4
2007-12,labor_market,Labor market,labor,-0.012576241445152537,0.012576241445152537,2007-11,2007Q4
2007-12,prices_inflation,Prices & inflation,prices,0.011958699913576433,0.011958699913576433,2007-11,2007Q4
2007-12,quarterly_target_history,Quarterly target history,quarterly_target,-0.10038206351125753,0.10038206351125753,2007-11,2007Q4
2007-12,real_activity_income,Real activity & income,real_activity,-0.2791513881969191,0.2791513881969191,2007-11,2007Q4
2007-12,demand_orders_inventories,Demand / orders / inventories,demand,0.1325485718229411,0.1325485718229411,2007-12,2007Q4
2007-12,financial_conditions,Financial conditions,financial,-0.11156689866354928,0.11156689866354928,2007-12,2007Q4
2007-12,housing_construction,Housing & construction,housing,-0.02521615522805784,0.02521615522805784,2007-12,2007Q4
2007-12,labor_market,Labor market,labor,-0.0020739121019981467,0.0020739121019981467,2007-12,2007Q4
2007-12,prices_inflation,Prices & inflation,prices,-0.0032149900418770097,0.0032149900418770097,2007-12,2007Q4
2007-12,real_activity_income,Real activity & income,real_activity,0.06369077458268284,0.06369077458268284,2007-12,2007Q4
2008-03,demand_orders_inventories,Demand / orders / inventories,demand,0.2635882024371322,0.2635882024371322,2008-01,2008Q1
2008-03,financial_conditions,Financial conditions,financial,0.049965241747885844,0.049965241747885844,2008-01,2008Q1
2008-03,housing_construction,Housing & construction,housing,-0.5398704428333206,0.5398704428333206,2008-01,2008Q1
2008-03,labor_market,Labor market,labor,-0.3170318463111045,0.3170318463111045,2008-01,2008Q1
2008-03,prices_inflation,Prices & inflation,prices,0.014340673926469372,0.014340673926469372,2008-01,2008Q1
2008-03,real_activity_income,Real activity & income,real_activity,0.028690450576352423,0.028690450576352423,2008-01,2008Q1
2008-03,demand_orders_inventories,Demand / orders / inventories,demand,-0.17370566510326857,0.17370566510326857,2008-02,2008Q1
2008-03,financial_conditions,Financial conditions,financial,-0.0859676483246149,0.0859676483246149,2008-02,2008Q1
2008-03,housing_construction,Housing & construction,housing,-0.046729064282018506,0.046729064282018506,2008-02,2008Q1
2008-03,labor_market,Labor market,labor,0.09985063988478497,0.09985063988478497,2008-02,2008Q1
2008-03,prices_inflation,Prices & inflation,prices,0.0018310902252160707,0.0018310902252160707,2008-02,2008Q1
2008-03,quarterly_target_history,Quarterly target history,quarterly_target,0.11302399875874684,0.11302399875874684,2008-02,2008Q1
2008-03,real_activity_income,Real activity & income,real_activity,-0.01433005203329344,0.01433005203329344,2008-02,2008Q1
2008-03,demand_orders_inventories,Demand / orders / inventories,demand,0.004030328277297955,0.004030328277297955,2008-03,2008Q1
2008-03,financial_conditions,Financial conditions,financial,0.0004966230038294355,0.0004966230038294355,2008-03,2008Q1
2008-03,housing_construction,Housing & construction,housing,-0.018919752557684008,0.018919752557684008,2008-03,2008Q1
2008-03,labor_market,Labor market,labor,-0.10192634460576791,0.10192634460576791,2008-03,2008Q1
2008-03,prices_inflation,Prices & inflation,prices,-0.018736080214264365,0.018736080214264365,2008-03,2008Q1
2008-03,real_activity_income,Real activity & income,real_activity,-0.012132846188192128,0.012132846188192128,2008-03,2008Q1
2008-06,demand_orders_inventories,Demand / orders / inventories,demand,-0.019461620516393743,0.019461620516393743,2008-04,2008Q2
2008-06,financial_conditions,Financial conditions,financial,0.055237052432995475,0.055237052432995475,2008-04,2008Q2
2008-06,housing_construction,Housing & construction,housing,-0.4616004603795883,0.4616004603795883,2008-04,2008Q2
2008-06,labor_market,Labor market,labor,-0.5962701033345836,0.5962701033345836,2008-04,2008Q2
2008-06,prices_inflation,Prices & inflation,prices,0.015439835158720876,0.015439835158720876,2008-04,2008Q2
2008-06,real_activity_income,Real activity & income,real_activity,0.12350666482839723,0.12350666482839723,2008-04,2008Q2
2008-06,demand_orders_inventories,Demand / orders / inventories,demand,0.025183113600286862,0.025183113600286862,2008-05,2008Q2
2008-06,financial_conditions,Financial conditions,financial,0.17157561034639052,0.17157561034639052,2008-05,2008Q2
2008-06,housing_construction,Housing & construction,housing,0.023505562446412304,0.023505562446412304,2008-05,2008Q2
2008-06,labor_market,Labor market,labor,0.028201843555773144,0.028201843555773144,2008-05,2008Q2
2008-06,prices_inflation,Prices & inflation,prices,0.004115939338905943,0.004115939338905943,2008-05,2008Q2
2008-06,quarterly_target_history,Quarterly target history,quarterly_target,0.08275508617196274,0.08275508617196274,2008-05,2008Q2
2008-06,real_activity_income,Real activity & income,real_activity,-0.45657354017444185,0.45657354017444185,2008-05,2008Q2
2008-06,demand_orders_inventories,Demand / orders / inventories,demand,0.19183256741486138,0.19183256741486138,2008-06,2008Q2
2008-06,financial_conditions,Financial conditions,financial,0.0737983986655075,0.0737983986655075,2008-06,2008Q2
2008-06,housing_construction,Housing & construction,housing,-0.03061767803296916,0.03061767803296916,2008-06,2008Q2
2008-06,labor_market,Labor market,labor,-0.11706751002707741,0.11706751002707741,2008-06,2008Q2
2008-06,prices_inflation,Prices & inflation,prices,0.020122213148980675,0.020122213148980675,2008-06,2008Q2
2008-06,real_activity_income,Real activity & income,real_activity,0.2696085976699626,0.2696085976699626,2008-06,2008Q2
2008-09,demand_orders_inventories,Demand / orders / inventories,demand,0.045548389189858825,0.045548389189858825,2008-07,2008Q3
2008-09,financial_conditions,Financial conditions,financial,0.23796027468112982,0.23796027468112982,2008-07,2008Q3
2008-09,housing_construction,Housing & construction,housing,0.18469682985613625,0.18469682985613625,2008-07,2008Q3
2008-09,labor_market,Labor market,labor,-0.31819993885257036,0.31819993885257036,2008-07,2008Q3
2008-09,prices_inflation,Prices & inflation,prices,0.02361129588774425,0.02361129588774425,2008-07,2008Q3
2008-09,real_activity_income,Real activity & income,real_activity,-0.011754484685434552,0.011754484685434552,2008-07,2008Q3
2008-09,demand_orders_inventories,Demand / orders / inventories,demand,0.02672730092394527,0.02672730092394527,2008-08,2008Q3
2008-09,financial_conditions,Financial conditions,financial,0.01838316062381551,0.01838316062381551,2008-08,2008Q3
2008-09,housing_construction,Housing & construction,housing,-0.20730924560952213,0.20730924560952213,2008-08,2008Q3
2008-09,labor_market,Labor market,labor,-0.38853941282356286,0.38853941282356286,2008-08,2008Q3
2008-09,prices_inflation,Prices & inflation,prices,0.008768620143461508,0.008768620143461508,2008-08,2008Q3
2008-09,quarterly_target_history,Quarterly target history,quarterly_target,-0.08825368897692394,0.08825368897692394,2008-08,2008Q3
2008-09,real_activity_income,Real activity & income,real_activity,-0.691749987483134,0.691749987483134,2008-08,2008Q3
2008-09,demand_orders_inventories,Demand / orders / inventories,demand,-0.01646984549669779,0.01646984549669779,2008-09,2008Q3
2008-09,financial_conditions,Financial conditions,financial,0.05736618723105854,0.05736618723105854,2008-09,2008Q3
2008-09,housing_construction,Housing & construction,housing,-0.04630386633704657,0.04630386633704657,2008-09,2008Q3
2008-09,labor_market,Labor market,labor,-0.3389621759464334,0.3389621759464334,2008-09,2008Q3
2008-09,prices_inflation,Prices & inflation,prices,-0.021590282279401248,0.021590282279401248,2008-09,2008Q3
2008-09,real_activity_income,Real activity & income,real_activity,-0.16197246632466528,0.16197246632466528,2008-09,2008Q3
2008-12,demand_orders_inventories,Demand / orders / inventories,demand,-0.13392062620879075,0.13392062620879075,2008-10,2008Q4
2008-12,financial_conditions,Financial conditions,financial,0.043951038361215916,0.043951038361215916,2008-10,2008Q4
2008-12,housing_construction,Housing & construction,housing,-0.2828603580259611,0.2828603580259611,2008-10,2008Q4
2008-12,labor_market,Labor market,labor,-0.24115158247314328,0.24115158247314328,2008-10,2008Q4
2008-12,prices_inflation,Prices & inflation,prices,-0.02249320202503834,0.02249320202503834,2008-10,2008Q4
2008-12,real_activity_income,Real activity & income,real_activity,-2.1930721872185117,2.1930721872185117,2008-10,2008Q4
2008-12,demand_orders_inventories,Demand / orders / inventories,demand,-0.20523330802248174,0.20523330802248174,2008-11,2008Q4
2008-12,financial_conditions,Financial conditions,financial,0.4285774947577394,0.4285774947577394,2008-11,2008Q4
2008-12,housing_construction,Housing & construction,housing,-0.27529379741598237,0.27529379741598237,2008-11,2008Q4
2008-12,labor_market,Labor market,labor,0.24687705690449843,0.24687705690449843,2008-11,2008Q4
2008-12,prices_inflation,Prices & inflation,prices,0.012485221644303341,0.012485221644303341,2008-11,2008Q4
2008-12,quarterly_target_history,Quarterly target history,quarterly_target,-0.06053044546372618,0.06053044546372618,2008-11,2008Q4
2008-12,real_activity_income,Real activity & income,real_activity,1.8853250124197967,1.8853250124197967,2008-11,2008Q4
2008-12,demand_orders_inventories,Demand / orders / inventories,demand,-0.04434679895890277,0.04434679895890277,2008-12,2008Q4
2008-12,financial_conditions,Financial conditions,financial,-0.10472048394856488,0.10472048394856488,2008-12,2008Q4
2008-12,housing_construction,Housing & construction,housing,-0.12598918258328523,0.12598918258328523,2008-12,2008Q4
2008-12,labor_market,Labor market,labor,-0.4074454191455646,0.4074454191455646,2008-12,2008Q4
2008-12,prices_inflation,Prices & inflation,prices,-0.004354777264746847,0.004354777264746847,2008-12,2008Q4
2008-12,real_activity_income,Real activity & income,real_activity,0.39797418735117773,0.39797418735117773,2008-12,2008Q4
2009-03,demand_orders_inventories,Demand / orders / inventories,demand,-0.41499564094013064,0.41499564094013064,2009-01,2009Q1
2009-03,financial_conditions,Financial conditions,financial,-0.3557818882420094,0.3557818882420094,2009-01,2009Q1
2009-03,housing_construction,Housing & construction,housing,-0.6918515284820662,0.6918515284820662,2009-01,2009Q1
2009-03,labor_market,Labor market,labor,-0.7772734237480674,0.7772734237480674,2009-01,2009Q1
2009-03,prices_inflation,Prices & inflation,prices,0.052617078489337395,0.052617078489337395,2009-01,2009Q1
2009-03,real_activity_income,Real activity & income,real_activity,-0.910432770672015,0.910432770672015,2009-01,2009Q1
2009-03,demand_orders_inventories,Demand / orders / inventories,demand,-0.02063993008339192,0.02063993008339192,2009-02,2009Q1
2009-03,financial_conditions,Financial conditions,financial,0.3075247611172684,0.3075247611172684,2009-02,2009Q1
2009-03,housing_construction,Housing & construction,housing,-0.842249305252401,0.842249305252401,2009-02,2009Q1
2009-03,labor_market,Labor market,labor,-0.40378866720503775,0.40378866720503775,2009-02,2009Q1
2009-03,prices_inflation,Prices & inflation,prices,-0.0013669414056283538,0.0013669414056283538,2009-02,2009Q1
2009-03,quarterly_target_history,Quarterly target history,quarterly_target,0.018556372627723666,0.018556372627723666,2009-02,2009Q1
2009-03,real_activity_income,Real activity & income,real_activity,-0.5458030737534356,0.5458030737534356,2009-02,2009Q1
2009-03,demand_orders_inventories,Demand / orders / inventories,demand,0.3650646067784479,0.3650646067784479,2009-03,2009Q1
2009-03,financial_conditions,Financial conditions,financial,0.15163613139561438,0.15163613139561438,2009-03,2009Q1
2009-03,housing_construction,Housing & construction,housing,0.051397880046592584,0.051397880046592584,2009-03,2009Q1
2009-03,labor_market,Labor market,labor,-0.14111876500257498,0.14111876500257498,2009-03,2009Q1
2009-03,prices_inflation,Prices & inflation,prices,0.009625863563066193,0.009625863563066193,2009-03,2009Q1
2009-03,real_activity_income,Real activity & income,real_activity,1.014152418760654,1.014152418760654,2009-03,2009Q1
2009-06,demand_orders_inventories,Demand / orders / inventories,demand,0.06746779431577764,0.06746779431577764,2009-04,2009Q2
2009-06,financial_conditions,Financial conditions,financial,0.05444187491110605,0.05444187491110605,2009-04,2009Q2
2009-06,housing_construction,Housing & construction,housing,-0.3682479197572074,0.3682479197572074,2009-04,2009Q2
2009-06,labor_market,Labor market,labor,-0.6638713195004556,0.6638713195004556,2009-04,2009Q2
2009-06,prices_inflation,Prices & inflation,prices,-0.014931558395201078,0.014931558395201078,2009-04,2009Q2
2009-06,real_activity_income,Real activity & income,real_activity,-0.7711874163202057,0.7711874163202057,2009-04,2009Q2
2009-06,demand_orders_inventories,Demand / orders / inventories,demand,0.23534853933163247,0.23534853933163247,2009-05,2009Q2
2009-06,financial_conditions,Financial conditions,financial,0.11034402489098656,0.11034402489098656,2009-05,2009Q2
2009-06,housing_construction,Housing & construction,housing,-0.651379962069685,0.651379962069685,2009-05,2009Q2
2009-06,labor_market,Labor market,labor,0.19698912525049062,0.19698912525049062,2009-05,2009Q2
2009-06,prices_inflation,Prices & inflation,prices,0.0028227493777179327,0.0028227493777179327,2009-05,2009Q2
2009-06,quarterly_target_history,Quarterly target history,quarterly_target,0.044638133103387795,0.044638133103387795,2009-05,2009Q2
2009-06,real_activity_income,Real activity & income,real_activity,0.7687831989993432,0.7687831989993432,2009-05,2009Q2
2009-06,demand_orders_inventories,Demand / orders / inventories,demand,0.256599567969206,0.256599567969206,2009-06,2009Q2
2009-06,financial_conditions,Financial conditions,financial,0.07820993637867027,0.07820993637867027,2009-06,2009Q2
2009-06,housing_construction,Housing & construction,housing,-0.00883112706003086,0.00883112706003086,2009-06,2009Q2
2009-06,labor_market,Labor market,labor,-0.0023818194630159384,0.0023818194630159384,2009-06,2009Q2
2009-06,prices_inflation,Prices & inflation,prices,0.00342155364537823,0.00342155364537823,2009-06,2009Q2
2009-06,real_activity_income,Real activity & income,real_activity,0.8845929006118977,0.8845929006118977,2009-06,2009Q2
2009-09,demand_orders_inventories,Demand / orders / inventories,demand,-0.016290623049372552,0.016290623049372552,2009-07,2009Q3
2009-09,financial_conditions,Financial conditions,financial,0.04307770147373825,0.04307770147373825,2009-07,2009Q3
2009-09,housing_construction,Housing & construction,housing,0.02638511679972156,0.02638511679972156,2009-07,2009Q3
2009-09,labor_market,Labor market,labor,-0.1162979166954217,0.1162979166954217,2009-07,2009Q3
2009-09,prices_inflation,Prices & inflation,prices,0.009222002581693409,0.009222002581693409,2009-07,2009Q3
2009-09,real_activity_income,Real activity & income,real_activity,-0.08456460857727749,0.08456460857727749,2009-07,2009Q3
2009-09,demand_orders_inventories,Demand / orders / inventories,demand,0.1610671454502356,0.1610671454502356,2009-08,2009Q3
2009-09,financial_conditions,Financial conditions,financial,-0.019141242302933646,0.019141242302933646,2009-08,2009Q3
2009-09,housing_construction,Housing & construction,housing,-0.13626016775066857,0.13626016775066857,2009-08,2009Q3
2009-09,labor_market,Labor market,labor,0.6145635535571212,0.6145635535571212,2009-08,2009Q3
2009-09,prices_inflation,Prices & inflation,prices,0.01857490064015853,0.01857490064015853,2009-08,2009Q3
2009-09,quarterly_target_history,Quarterly target history,quarterly_target,-0.10321516644414501,0.10321516644414501,2009-08,2009Q3
2009-09,real_activity_income,Real activity & income,real_activity,0.5678802861250752,0.5678802861250752,2009-08,2009Q3
2009-09,demand_orders_inventories,Demand / orders / inventories,demand,0.014172666335558921,0.014172666335558921,2009-09,2009Q3
2009-09,financial_conditions,Financial conditions,financial,-0.030690919311317365,0.030690919311317365,2009-09,2009Q3
2009-09,housing_construction,Housing & construction,housing,-0.014509253344143234,0.014509253344143234,2009-09,2009Q3
2009-09,labor_market,Labor market,labor,-0.31826863975667186,0.31826863975667186,2009-09,2009Q3
2009-09,prices_inflation,Prices & inflation,prices,0.005107851913174161,0.005107851913174161,2009-09,2009Q3
2009-09,real_activity_income,Real activity & income,real_activity,0.09592151524812453,0.09592151524812453,2009-09,2009Q3
2009-12,demand_orders_inventories,Demand / orders / inventories,demand,-0.14076549838820357,0.14076549838820357,2009-10,2009Q4
2009-12,financial_conditions,Financial conditions,financial,-0.03628365532329087,0.03628365532329087,2009-10,2009Q4
2009-12,housing_construction,Housing & construction,housing,-0.15416704303984508,0.15416704303984508,2009-10,2009Q4
2009-12,labor_market,Labor market,labor,-0.17537551447615485,0.17537551447615485,2009-10,2009Q4
2009-12,prices_inflation,Prices & inflation,prices,0.015505009652251558,0.015505009652251558,2009-10,2009Q4
2009-12,real_activity_income,Real activity & income,real_activity,0.004290416054244295,0.004290416054244295,2009-10,2009Q4
2009-12,demand_orders_inventories,Demand / orders / inventories,demand,0.029960026026852382,0.029960026026852382,2009-11,2009Q4
2009-12,financial_conditions,Financial conditions,financial,0.05096322408788037,0.05096322408788037,2009-11,2009Q4
2009-12,housing_construction,Housing & construction,housing,-0.3350505220105941,0.3350505220105941,2009-11,2009Q4
2009-12,labor_market,Labor market,labor,-0.15695252121115813,0.15695252121115813,2009-11,2009Q4
2009-12,prices_inflation,Prices & inflation,prices,-0.001694726246648117,0.001694726246648117,2009-11,2009Q4
2009-12,quarterly_target_history,Quarterly target history,quarterly_target,-0.08900280715948872,0.08900280715948872,2009-11,2009Q4
2009-12,real_activity_income,Real activity & income,real_activity,-0.46334510770407844,0.46334510770407844,2009-11,2009Q4
2009-12,demand_orders_inventories,Demand / orders / inventories,demand,0.11971575420141127,0.11971575420141127,2009-12,2009Q4
2009-12,financial_conditions,Financial conditions,financial,0.10755759037751489,0.10755759037751489,2009-12,2009Q4
2009-12,housing_construction,Housing & construction,housing,-0.015897020940980975,0.015897020940980975,2009-12,2009Q4
2009-12,labor_market,Labor market,labor,0.436770506149189,0.436770506149189,2009-12,2009Q4
2009-12,prices_inflation,Prices & inflation,prices,-0.019143159258673857,0.019143159258673857,2009-12,2009Q4
2009-12,real_activity_income,Real activity & income,real_activity,0.635102035905012,0.635102035905012,2009-12,2009Q4
2010-03,demand_orders_inventories,Demand / orders / inventories,demand,-0.13443369676174666,0.13443369676174666,2010-01,2010Q1
2010-03,financial_conditions,Financial conditions,financial,-0.011520727677931419,0.011520727677931419,2010-01,2010Q1
2010-03,housing_construction,Housing & construction,housing,-0.48357305946229556,0.48357305946229556,2010-01,2010Q1
2010-03,labor_market,Labor market,labor,0.06848686777323322,0.06848686777323322,2010-01,2010Q1
2010-03,prices_inflation,Prices & inflation,prices,0.0060969788156163395,0.0060969788156163395,2010-01,2010Q1
2010-03,real_activity_income,Real activity & income,real_activity,-0.5143537639312168,0.5143537639312168,2010-01,2010Q1
2010-03,demand_orders_inventories,Demand / orders / inventories,demand,0.1512069726549423,0.1512069726549423,2010-02,2010Q1
2010-03,financial_conditions,Financial conditions,financial,-0.01295201136093821,0.01295201136093821,2010-02,2010Q1
2010-03,housing_construction,Housing & construction,housing,-0.09935719988555242,0.09935719988555242,2010-02,2010Q1
2010-03,labor_market,Labor market,labor,0.4009332541072294,0.4009332541072294,2010-02,2010Q1
2010-03,prices_inflation,Prices & inflation,prices,-0.04943436256995144,0.04943436256995144,2010-02,2010Q1
2010-03,quarterly_target_history,Quarterly target history,quarterly_target,-0.17330604408877323,0.17330604408877323,2010-02,2010Q1
2010-03,real_activity_income,Real activity & income,real_activity,0.36467646036762325,0.36467646036762325,2010-02,2010Q1
2010-03,demand_orders_inventories,Demand / orders / inventories,demand,-0.01097880082261448,0.01097880082261448,2010-03,2010Q1
2010-03,financial_conditions,Financial conditions,financial,0.0007079418503898325,0.0007079418503898325,2010-03,2010Q1
2010-03,housing_construction,Housing & construction,housing,-0.05543367329030597,0.05543367329030597,2010-03,2010Q1
2010-03,labor_market,Labor market,labor,-0.03247298416007026,0.03247298416007026,2010-03,2010Q1
2010-03,prices_inflation,Prices & inflation,prices,0.029957095748561716,0.029957095748561716,2010-03,2010Q1
2010-03,real_activity_income,Real activity & income,real_activity,-0.6613764767561809,0.6613764767561809,2010-03,2010Q1
2010-06,demand_orders_inventories,Demand / orders / inventories,demand,-0.06056273798646,0.06056273798646,2010-04,2010Q2
2010-06,financial_conditions,Financial conditions,financial,0.05685103569794708,0.05685103569794708,2010-04,2010Q2
2010-06,housing_construction,Housing & construction,housing,-0.3158976329567093,0.3158976329567093,2010-04,2010Q2
2010-06,labor_market,Labor market,labor,0.5912417833283194,0.5912417833283194,2010-04,2010Q2
2010-06,prices_inflation,Prices & inflation,prices,0.024525115090092524,0.024525115090092524,2010-04,2010Q2
2010-06,real_activity_income,Real activity & income,real_activity,0.571904559911782,0.571904559911782,2010-04,2010Q2
2010-06,demand_orders_inventories,Demand / orders / inventories,demand,0.1343736487707265,0.1343736487707265,2010-05,2010Q2
2010-06,financial_conditions,Financial conditions,financial,0.08446747200949027,0.08446747200949027,2010-05,2010Q2
2010-06,housing_construction,Housing & construction,housing,0.17988762846532622,0.17988762846532622,2010-05,2010Q2
2010-06,labor_market,Labor market,labor,0.15389918165816568,0.15389918165816568,2010-05,2010Q2
2010-06,prices_inflation,Prices & inflation,prices,-0.011441865657545097,0.011441865657545097,2010-05,2010Q2
2010-06,quarterly_target_history,Quarterly target history,quarterly_target,0.05590979046607018,0.05590979046607018,2010-05,2010Q2
2010-06,real_activity_income,Real activity & income,real_activity,0.3679245441839614,0.3679245441839614,2010-05,2010Q2
2010-06,demand_orders_inventories,Demand / orders / inventories,demand,-0.1407763403855143,0.1407763403855143,2010-06,2010Q2
2010-06,financial_conditions,Financial conditions,financial,-0.0445428142384747,0.0445428142384747,2010-06,2010Q2
2010-06,housing_construction,Housing & construction,housing,-0.012369473989202087,0.012369473989202087,2010-06,2010Q2
2010-06,labor_market,Labor market,labor,0.14893023942944036,0.14893023942944036,2010-06,2010Q2
2010-06,prices_inflation,Prices & inflation,prices,0.005993324379156022,0.005993324379156022,2010-06,2010Q2
2010-06,real_activity_income,Real activity & income,real_activity,0.12365755158328863,0.12365755158328863,2010-06,2010Q2
2010-09,demand_orders_inventories,Demand / orders / inventories,demand,-0.271905284069172,0.271905284069172,2010-07,2010Q3
2010-09,financial_conditions,Financial conditions,financial,-0.014257606770347351,0.014257606770347351,2010-07,2010Q3
2010-09,housing_construction,Housing & construction,housing,-0.275818104236863,0.275818104236863,2010-07,2010Q3
2010-09,labor_market,Labor market,labor,-0.446306364178871,0.446306364178871,2010-07,2010Q3
2010-09,prices_inflation,Prices & inflation,prices,-0.012641897140754078,0.012641897140754078,2010-07,2010Q3
2010-09,real_activity_income,Real activity & income,real_activity,-0.5920733808346395,0.5920733808346395,2010-07,2010Q3
2010-09,demand_orders_inventories,Demand / orders / inventories,demand,-0.025306250942613892,0.025306250942613892,2010-08,2010Q3
2010-09,financial_conditions,Financial conditions,financial,0.015630990628649897,0.015630990628649897,2010-08,2010Q3
2010-09,housing_construction,Housing & construction,housing,0.006365837862117186,0.006365837862117186,2010-08,2010Q3
2010-09,labor_market,Labor market,labor,0.07225157156450168,0.07225157156450168,2010-08,2010Q3
2010-09,prices_inflation,Prices & inflation,prices,0.015065247961935792,0.015065247961935792,2010-08,2010Q3
2010-09,quarterly_target_history,Quarterly target history,quarterly_target,0.2493351301222827,0.2493351301222827,2010-08,2010Q3
2010-09,real_activity_income,Real activity & income,real_activity,0.6111221872566356,0.6111221872566356,2010-08,2010Q3
2010-09,demand_orders_inventories,Demand / orders / inventories,demand,-0.010343403031793007,0.010343403031793007,2010-09,2010Q3
2010-09,financial_conditions,Financial conditions,financial,0.009728712820355801,0.009728712820355801,2010-09,2010Q3
2010-09,housing_construction,Housing & construction,housing,0.026836487544957852,0.026836487544957852,2010-09,2010Q3
2010-09,labor_market,Labor market,labor,-0.3449918119131062,0.3449918119131062,2010-09,2010Q3
2010-09,prices_inflation,Prices & inflation,prices,-0.011500224433376843,0.011500224433376843,2010-09,2010Q3
2010-09,real_activity_income,Real activity & income,real_activity,0.15267088511092577,0.15267088511092577,2010-09,2010Q3
2010-12,demand_orders_inventories,Demand / orders / inventories,demand,0.1587933505426424,0.1587933505426424,2010-10,2010Q4
2010-12,financial_conditions,Financial conditions,financial,0.03605626424155426,0.03605626424155426,2010-10,2010Q4
2010-12,housing_construction,Housing & construction,housing,-0.05805216944076358,0.05805216944076358,2010-10,2010Q4
2010-12,labor_market,Labor market,labor,-0.06661197823002572,0.06661197823002572,2010-10,2010Q4
2010-12,prices_inflation,Prices & inflation,prices,-0.01927663332997331,0.01927663332997331,2010-10,2010Q4
2010-12,real_activity_income,Real activity & income,real_activity,-0.19362918173591692,0.19362918173591692,2010-10,2010Q4
2010-12,demand_orders_inventories,Demand / orders / inventories,demand,-0.05769969904703008,0.05769969904703008,2010-11,2010Q4
2010-12,financial_conditions,Financial conditions,financial,0.034200003144763055,0.034200003144763055,2010-11,2010Q4
2010-12,housing_construction,Housing & construction,housing,-0.1977798976234995,0.1977798976234995,2010-11,2010Q4
2010-12,labor_market,Labor market,labor,0.09934107635773634,0.09934107635773634,2010-11,2010Q4
2010-12,prices_inflation,Prices & inflation,prices,0.0015298414630693948,0.0015298414630693948,2010-11,2010Q4
2010-12,quarterly_target_history,Quarterly target history,quarterly_target,0.08540079005221658,0.08540079005221658,2010-11,2010Q4
2010-12,real_activity_income,Real activity & income,real_activity,0.20853430682045337,0.20853430682045337,2010-11,2010Q4
2010-12,demand_orders_inventories,Demand / orders / inventories,demand,-0.0758854314413462,0.0758854314413462,2010-12,2010Q4
2010-12,financial_conditions,Financial conditions,financial,0.03339837566625074,0.03339837566625074,2010-12,2010Q4
2010-12,housing_construction,Housing & construction,housing,0.008585096294927418,0.008585096294927418,2010-12,2010Q4
2010-12,labor_market,Labor market,labor,0.027300736685284453,0.027300736685284453,2010-12,2010Q4
2010-12,prices_inflation,Prices & inflation,prices,-0.0005139168099755924,0.0005139168099755924,2010-12,2010Q4
2010-12,real_activity_income,Real activity & income,real_activity,0.16171658813079157,0.16171658813079157,2010-12,2010Q4
2011-03,demand_orders_inventories,Demand / orders / inventories,demand,-0.16761943855055333,0.16761943855055333,2011-01,2011Q1
2011-03,financial_conditions,Financial conditions,financial,0.10909667407837316,0.10909667407837316,2011-01,2011Q1
2011-03,housing_construction,Housing & construction,housing,-0.5641214985706112,0.5641214985706112,2011-01,2011Q1
2011-03,labor_market,Labor market,labor,0.3735139093341955,0.3735139093341955,2011-01,2011Q1
2011-03,prices_inflation,Prices & inflation,prices,0.015455651861252948,0.015455651861252948,2011-01,2011Q1
2011-03,real_activity_income,Real activity & income,real_activity,-0.15291020272612227,0.15291020272612227,2011-01,2011Q1
2011-03,demand_orders_inventories,Demand / orders / inventories,demand,0.06819444056418641,0.06819444056418641,2011-02,2011Q1
2011-03,financial_conditions,Financial conditions,financial,-0.016812463488341353,0.016812463488341353,2011-02,2011Q1
2011-03,housing_construction,Housing & construction,housing,0.25743459605352315,0.25743459605352315,2011-02,2011Q1
2011-03,labor_market,Labor market,labor,0.35773101428683207,0.35773101428683207,2011-02,2011Q1
2011-03,prices_inflation,Prices & inflation,prices,-0.002966593172586407,0.002966593172586407,2011-02,2011Q1
2011-03,quarterly_target_history,Quarterly target history,quarterly_target,-0.005830358926097517,0.005830358926097517,2011-02,2011Q1
2011-03,real_activity_income,Real activity & income,real_activity,0.45488985707931884,0.45488985707931884,2011-02,2011Q1
2011-03,demand_orders_inventories,Demand / orders / inventories,demand,0.032575580024976666,0.032575580024976666,2011-03,2011Q1
2011-03,financial_conditions,Financial conditions,financial,-0.020322457259922978,0.020322457259922978,2011-03,2011Q1
2011-03,housing_construction,Housing & construction,housing,-0.15467142852864926,0.15467142852864926,2011-03,2011Q1
2011-03,labor_market,Labor market,labor,0.15164506015384616,0.15164506015384616,2011-03,2011Q1
2011-03,prices_inflation,Prices & inflation,prices,0.003436943895205319,0.003436943895205319,2011-03,2011Q1
2011-03,real_activity_income,Real activity & income,real_activity,-0.24722089041311562,0.24722089041311562,2011-03,2011Q1
2011-06,demand_orders_inventories,Demand / orders / inventories,demand,-0.05469670249963867,0.05469670249963867,2011-04,2011Q2
2011-06,financial_conditions,Financial conditions,financial,-0.02258391987883605,0.02258391987883605,2011-04,2011Q2
2011-06,housing_construction,Housing & construction,housing,0.07647821393834654,0.07647821393834654,2011-04,2011Q2
2011-06,labor_market,Labor market,labor,0.2550289089620393,0.2550289089620393,2011-04,2011Q2
2011-06,prices_inflation,Prices & inflation,prices,-0.007820365718756866,0.007820365718756866,2011-04,2011Q2
2011-06,real_activity_income,Real activity & income,real_activity,-0.19318635890402752,0.19318635890402752,2011-04,2011Q2
2011-06,demand_orders_inventories,Demand / orders / inventories,demand,-0.0749770728733019,0.0749770728733019,2011-05,2011Q2
2011-06,financial_conditions,Financial conditions,financial,0.008359117863491947,0.008359117863491947,2011-05,2011Q2
2011-06,housing_construction,Housing & construction,housing,-0.18387339352040266,0.18387339352040266,2011-05,2011Q2
2011-06,labor_market,Labor market,labor,-0.34338884566423966,0.34338884566423966,2011-05,2011Q2
2011-06,prices_inflation,Prices & inflation,prices,-0.003844385080122935,0.003844385080122935,2011-05,2011Q2
2011-06,quarterly_target_history,Quarterly target history,quarterly_target,0.2664905074418484,0.2664905074418484,2011-05,2011Q2
2011-06,real_activity_income,Real activity & income,real_activity,-0.8245558731259424,0.8245558731259424,2011-05,2011Q2
2011-06,demand_orders_inventories,Demand / orders / inventories,demand,-0.02564085117303854,0.02564085117303854,2011-06,2011Q2
2011-06,financial_conditions,Financial conditions,financial,-0.0012424270444145436,0.0012424270444145436,2011-06,2011Q2
2011-06,housing_construction,Housing & construction,housing,-0.04243039235154368,0.04243039235154368,2011-06,2011Q2
2011-06,labor_market,Labor market,labor,0.010394188771990817,0.010394188771990817,2011-06,2011Q2
2011-06,prices_inflation,Prices & inflation,prices,0.015136246718094507,0.015136246718094507,2011-06,2011Q2
2011-06,real_activity_income,Real activity & income,real_activity,0.20906193255022779,0.20906193255022779,2011-06,2011Q2
2011-09,demand_orders_inventories,Demand / orders / inventories,demand,-0.09156726142767688,0.09156726142767688,2011-07,2011Q3
2011-09,financial_conditions,Financial conditions,financial,0.005494464058221807,0.005494464058221807,2011-07,2011Q3
