haminh109/Nowcasting-GDP-Growth/outputs/layer1_dfm/dfm_news_blocks.csv
vintage_period,target_quarter,impact_date,block,block_label,factor_name,signed_block_news,abs_block_news
2000-01,2000Q1,,,,,,
2000-02,2000Q1,2000-03,demand_orders_inventories,Demand / orders / inventories,demand,0.00284622799017859,0.00284622799017859
2000-02,2000Q1,2000-03,financial_conditions,Financial conditions,financial,0.06535305371701776,0.06535305371701776
2000-02,2000Q1,2000-03,housing_construction,Housing & construction,housing,0.06303049989469697,0.06303049989469697
2000-02,2000Q1,2000-03,labor_market,Labor market,labor,0.1727718636609133,0.1727718636609133
2000-02,2000Q1,2000-03,prices_inflation,Prices & inflation,prices,0.003578052965736664,0.003578052965736664
2000-02,2000Q1,2000-03,real_activity_income,Real activity & income,real_activity,0.0992894346399677,0.0992894346399677
2000-02,2000Q1,2000-03,,,,-0.14686008473568993,0.14686008473568993
2000-03,2000Q1,2000-03,demand_orders_inventories,Demand / orders / inventories,demand,-0.12135006939645893,0.12135006939645893
2000-03,2000Q1,2000-03,financial_conditions,Financial conditions,financial,-0.045723447125252135,0.045723447125252135
2000-03,2000Q1,2000-03,housing_construction,Housing & construction,housing,0.04166353727971362,0.04166353727971362
2000-03,2000Q1,2000-03,labor_market,Labor market,labor,-0.29199527638959627,0.29199527638959627
2000-03,2000Q1,2000-03,prices_inflation,Prices & inflation,prices,0.0018983559499112426,0.0018983559499112426
2000-03,2000Q1,2000-03,real_activity_income,Real activity & income,real_activity,-0.2023503791442938,0.2023503791442938
2000-04,2000Q2,2000-06,demand_orders_inventories,Demand / orders / inventories,demand,0.004355200345028341,0.004355200345028341
2000-04,2000Q2,2000-06,financial_conditions,Financial conditions,financial,-0.17383752004423267,0.17383752004423267
2000-04,2000Q2,2000-06,housing_construction,Housing & construction,housing,-0.30704998006363443,0.30704998006363443
2000-04,2000Q2,2000-06,labor_market,Labor market,labor,0.1952367918304656,0.1952367918304656
2000-04,2000Q2,2000-06,prices_inflation,Prices & inflation,prices,0.03361443957035835,0.03361443957035835
2000-04,2000Q2,2000-06,real_activity_income,Real activity & income,real_activity,0.0898463119502102,0.0898463119502102
2000-05,2000Q2,2000-06,demand_orders_inventories,Demand / orders / inventories,demand,-0.2723722425482833,0.2723722425482833
2000-05,2000Q2,2000-06,financial_conditions,Financial conditions,financial,-0.1407509338322335,0.1407509338322335
2000-05,2000Q2,2000-06,housing_construction,Housing & construction,housing,0.07533932808072624,0.07533932808072624
2000-05,2000Q2,2000-06,labor_market,Labor market,labor,0.17900038210436392,0.17900038210436392
2000-05,2000Q2,2000-06,prices_inflation,Prices & inflation,prices,-0.018232002641939884,0.018232002641939884
2000-05,2000Q2,2000-06,real_activity_income,Real activity & income,real_activity,0.5433232939709952,0.5433232939709952
2000-05,2000Q2,2000-06,,,,-0.055144158518656915,0.055144158518656915
2000-06,2000Q2,2000-06,demand_orders_inventories,Demand / orders / inventories,demand,-0.05666503132247029,0.05666503132247029
2000-06,2000Q2,2000-06,financial_conditions,Financial conditions,financial,0.09340051839246877,0.09340051839246877
2000-06,2000Q2,2000-06,housing_construction,Housing & construction,housing,-0.006895802874683693,0.006895802874683693
2000-06,2000Q2,2000-06,labor_market,Labor market,labor,-0.35553005017717076,0.35553005017717076
2000-06,2000Q2,2000-06,prices_inflation,Prices & inflation,prices,-0.02124676124964547,0.02124676124964547
2000-06,2000Q2,2000-06,real_activity_income,Real activity & income,real_activity,-0.04798591936324369,0.04798591936324369
2000-07,2000Q3,2000-09,demand_orders_inventories,Demand / orders / inventories,demand,0.8029870232858372,0.8029870232858372
2000-07,2000Q3,2000-09,financial_conditions,Financial conditions,financial,-0.5101559296413465,0.5101559296413465
2000-07,2000Q3,2000-09,housing_construction,Housing & construction,housing,-0.11577860233153939,0.11577860233153939
2000-07,2000Q3,2000-09,labor_market,Labor market,labor,-0.2874395193569516,0.2874395193569516
2000-07,2000Q3,2000-09,prices_inflation,Prices & inflation,prices,0.04971778513964159,0.04971778513964159
2000-07,2000Q3,2000-09,real_activity_income,Real activity & income,real_activity,0.07722781826961594,0.07722781826961594
2000-08,2000Q3,2000-09,demand_orders_inventories,Demand / orders / inventories,demand,-0.3591011035572787,0.3591011035572787
2000-08,2000Q3,2000-09,financial_conditions,Financial conditions,financial,-0.03295857011050047,0.03295857011050047
2000-08,2000Q3,2000-09,housing_construction,Housing & construction,housing,-0.011883550465641816,0.011883550465641816
2000-08,2000Q3,2000-09,labor_market,Labor market,labor,-0.06476077458952016,0.06476077458952016
2000-08,2000Q3,2000-09,prices_inflation,Prices & inflation,prices,0.00702708942776116,0.00702708942776116
2000-08,2000Q3,2000-09,real_activity_income,Real activity & income,real_activity,0.053940884072820244,0.053940884072820244
2000-08,2000Q3,2000-09,,,,-0.049383016236920284,0.049383016236920284
2000-09,2000Q3,2000-09,demand_orders_inventories,Demand / orders / inventories,demand,-0.12794631012503607,0.12794631012503607
2000-09,2000Q3,2000-09,financial_conditions,Financial conditions,financial,-0.057967197952237585,0.057967197952237585
2000-09,2000Q3,2000-09,housing_construction,Housing & construction,housing,-0.003080804749524787,0.003080804749524787
2000-09,2000Q3,2000-09,labor_market,Labor market,labor,-0.3531671945033791,0.3531671945033791
2000-09,2000Q3,2000-09,prices_inflation,Prices & inflation,prices,-0.032827382707280334,0.032827382707280334
2000-09,2000Q3,2000-09,real_activity_income,Real activity & income,real_activity,0.02161179340852764,0.02161179340852764
2000-10,2000Q4,2000-12,demand_orders_inventories,Demand / orders / inventories,demand,0.2343444447291987,0.2343444447291987
2000-10,2000Q4,2000-12,financial_conditions,Financial conditions,financial,-0.08018998433788686,0.08018998433788686
2000-10,2000Q4,2000-12,housing_construction,Housing & construction,housing,-0.01459358897953312,0.01459358897953312
2000-10,2000Q4,2000-12,labor_market,Labor market,labor,0.1666834551630866,0.1666834551630866
2000-10,2000Q4,2000-12,prices_inflation,Prices & inflation,prices,0.03749911867143606,0.03749911867143606
2000-10,2000Q4,2000-12,real_activity_income,Real activity & income,real_activity,0.7303380304106953,0.7303380304106953
2000-11,2000Q4,2000-12,demand_orders_inventories,Demand / orders / inventories,demand,-0.28324920706007967,0.28324920706007967
2000-11,2000Q4,2000-12,financial_conditions,Financial conditions,financial,-0.13140513907176013,0.13140513907176013
2000-11,2000Q4,2000-12,housing_construction,Housing & construction,housing,0.025479882628722465,0.025479882628722465
2000-11,2000Q4,2000-12,labor_market,Labor market,labor,0.055355924700824295,0.055355924700824295
2000-11,2000Q4,2000-12,prices_inflation,Prices & inflation,prices,-0.00973520612463171,0.00973520612463171
2000-11,2000Q4,2000-12,real_activity_income,Real activity & income,real_activity,-0.5103693607951626,0.5103693607951626
2000-11,2000Q4,2000-12,,,,-0.0037507412528411765,0.0037507412528411765
2000-12,2000Q4,2000-12,demand_orders_inventories,Demand / orders / inventories,demand,-0.04404427922843199,0.04404427922843199
2000-12,2000Q4,2000-12,financial_conditions,Financial conditions,financial,0.022360979261710757,0.022360979261710757
2000-12,2000Q4,2000-12,housing_construction,Housing & construction,housing,-0.0048438112687198545,0.0048438112687198545
2000-12,2000Q4,2000-12,labor_market,Labor market,labor,-0.23923915996543024,0.23923915996543024
2000-12,2000Q4,2000-12,prices_inflation,Prices & inflation,prices,-0.009035595927669456,0.009035595927669456
2000-12,2000Q4,2000-12,real_activity_income,Real activity & income,real_activity,-0.45180935752764184,0.45180935752764184
2001-01,2001Q1,2001-03,demand_orders_inventories,Demand / orders / inventories,demand,-0.018027791259867552,0.018027791259867552
2001-01,2001Q1,2001-03,financial_conditions,Financial conditions,financial,-0.4149690014856419,0.4149690014856419
2001-01,2001Q1,2001-03,housing_construction,Housing & construction,housing,-0.10008139292098488,0.10008139292098488
2001-01,2001Q1,2001-03,labor_market,Labor market,labor,-0.3681566905391753,0.3681566905391753
2001-01,2001Q1,2001-03,prices_inflation,Prices & inflation,prices,0.00997348728850403,0.00997348728850403
2001-01,2001Q1,2001-03,real_activity_income,Real activity & income,real_activity,-0.6874292352354496,0.6874292352354496
2001-02,2001Q1,2001-03,demand_orders_inventories,Demand / orders / inventories,demand,0.022725102041841305,0.022725102041841305
2001-02,2001Q1,2001-03,financial_conditions,Financial conditions,financial,-0.10230872047139665,0.10230872047139665
2001-02,2001Q1,2001-03,housing_construction,Housing & construction,housing,0.12609935411260767,0.12609935411260767
2001-02,2001Q1,2001-03,labor_market,Labor market,labor,0.7151267067943894,0.7151267067943894
2001-02,2001Q1,2001-03,prices_inflation,Prices & inflation,prices,0.09270961012302861,0.09270961012302861
2001-02,2001Q1,2001-03,real_activity_income,Real activity & income,real_activity,0.4228166661012947,0.4228166661012947
2001-02,2001Q1,2001-03,,,,0.01823714541266991,0.01823714541266991
2001-03,2001Q1,2001-03,demand_orders_inventories,Demand / orders / inventories,demand,-0.10512261413377862,0.10512261413377862
2001-03,2001Q1,2001-03,financial_conditions,Financial conditions,financial,0.025889911205478896,0.025889911205478896
2001-03,2001Q1,2001-03,housing_construction,Housing & construction,housing,0.0021372359489093815,0.0021372359489093815
2001-03,2001Q1,2001-03,labor_market,Labor market,labor,-0.10725725330449198,0.10725725330449198
2001-03,2001Q1,2001-03,prices_inflation,Prices & inflation,prices,-0.03568715235988836,0.03568715235988836
2001-03,2001Q1,2001-03,real_activity_income,Real activity & income,real_activity,-0.3018566114684166,0.3018566114684166
2001-04,2001Q2,2001-06,demand_orders_inventories,Demand / orders / inventories,demand,0.13375617061226677,0.13375617061226677
2001-04,2001Q2,2001-06,financial_conditions,Financial conditions,financial,-0.10062353509377404,0.10062353509377404
2001-04,2001Q2,2001-06,housing_construction,Housing & construction,housing,-0.02881986400254949,0.02881986400254949
2001-04,2001Q2,2001-06,labor_market,Labor market,labor,-0.4242732605846339,0.4242732605846339
2001-04,2001Q2,2001-06,prices_inflation,Prices & inflation,prices,-0.028357664418563314,0.028357664418563314
2001-04,2001Q2,2001-06,real_activity_income,Real activity & income,real_activity,0.5508024106163301,0.5508024106163301
2001-05,2001Q2,2001-06,demand_orders_inventories,Demand / orders / inventories,demand,-0.09533982322971471,0.09533982322971471
2001-05,2001Q2,2001-06,financial_conditions,Financial conditions,financial,0.12024187709651214,0.12024187709651214
2001-05,2001Q2,2001-06,housing_construction,Housing & construction,housing,-0.01761828752081025,0.01761828752081025
2001-05,2001Q2,2001-06,labor_market,Labor market,labor,-0.7015600958574413,0.7015600958574413
2001-05,2001Q2,2001-06,prices_inflation,Prices & inflation,prices,0.009999818324554346,0.009999818324554346
2001-05,2001Q2,2001-06,real_activity_income,Real activity & income,real_activity,-0.10053482423308932,0.10053482423308932
2001-05,2001Q2,2001-06,,,,-0.13238643563129168,0.13238643563129168
2001-06,2001Q2,2001-06,demand_orders_inventories,Demand / orders / inventories,demand,-0.024910408044546743,0.024910408044546743
2001-06,2001Q2,2001-06,financial_conditions,Financial conditions,financial,0.12231044139899287,0.12231044139899287
2001-06,2001Q2,2001-06,housing_construction,Housing & construction,housing,-0.0018315838109058047,0.0018315838109058047
2001-06,2001Q2,2001-06,labor_market,Labor market,labor,-0.16034246371668623,0.16034246371668623
2001-06,2001Q2,2001-06,prices_inflation,Prices & inflation,prices,0.026671610118675908,0.026671610118675908
2001-06,2001Q2,2001-06,real_activity_income,Real activity & income,real_activity,-0.1407903558392486,0.1407903558392486
2001-07,2001Q3,2001-09,demand_orders_inventories,Demand / orders / inventories,demand,0.017274768489724132,0.017274768489724132
2001-07,2001Q3,2001-09,financial_conditions,Financial conditions,financial,0.05689963377833629,0.05689963377833629
2001-07,2001Q3,2001-09,housing_construction,Housing & construction,housing,0.06956855490439345,0.06956855490439345
2001-07,2001Q3,2001-09,labor_market,Labor market,labor,-0.23561835402544296,0.23561835402544296
2001-07,2001Q3,2001-09,prices_inflation,Prices & inflation,prices,0.004471063218355876,0.004471063218355876
2001-07,2001Q3,2001-09,real_activity_income,Real activity & income,real_activity,-0.48072731032523425,0.48072731032523425
2001-08,2001Q3,2001-09,demand_orders_inventories,Demand / orders / inventories,demand,-0.08355769213608867,0.08355769213608867
2001-08,2001Q3,2001-09,financial_conditions,Financial conditions,financial,0.1287589823910631,0.1287589823910631
2001-08,2001Q3,2001-09,housing_construction,Housing & construction,housing,0.04224544726228105,0.04224544726228105
2001-08,2001Q3,2001-09,labor_market,Labor market,labor,0.2308683792024056,0.2308683792024056
2001-08,2001Q3,2001-09,prices_inflation,Prices & inflation,prices,-0.074078102482452,0.074078102482452
2001-08,2001Q3,2001-09,real_activity_income,Real activity & income,real_activity,0.31647144589951953,0.31647144589951953
2001-08,2001Q3,2001-09,,,,-0.025720360478676686,0.025720360478676686
2001-09,2001Q3,2001-09,demand_orders_inventories,Demand / orders / inventories,demand,-0.04310176556686345,0.04310176556686345
2001-09,2001Q3,2001-09,financial_conditions,Financial conditions,financial,-0.02849230188398031,0.02849230188398031
2001-09,2001Q3,2001-09,housing_construction,Housing & construction,housing,-0.029955598557032333,0.029955598557032333
2001-09,2001Q3,2001-09,labor_market,Labor market,labor,-0.4129947482977277,0.4129947482977277
2001-09,2001Q3,2001-09,prices_inflation,Prices & inflation,prices,0.007344116214108668,0.007344116214108668
2001-09,2001Q3,2001-09,real_activity_income,Real activity & income,real_activity,-0.30296573534457255,0.30296573534457255
2001-10,2001Q4,2001-12,demand_orders_inventories,Demand / orders / inventories,demand,-0.5382774275179628,0.5382774275179628
2001-10,2001Q4,2001-12,financial_conditions,Financial conditions,financial,0.081951649565175,0.081951649565175
2001-10,2001Q4,2001-12,housing_construction,Housing & construction,housing,-0.09043771319928692,0.09043771319928692
2001-10,2001Q4,2001-12,labor_market,Labor market,labor,-0.697076674734741,0.697076674734741
2001-10,2001Q4,2001-12,prices_inflation,Prices & inflation,prices,-0.001122046725329423,0.001122046725329423
2001-10,2001Q4,2001-12,real_activity_income,Real activity & income,real_activity,-0.44734542229819446,0.44734542229819446
2001-11,2001Q4,2001-12,demand_orders_inventories,Demand / orders / inventories,demand,0.7066086519343816,0.7066086519343816
2001-11,2001Q4,2001-12,financial_conditions,Financial conditions,financial,0.17341258967994902,0.17341258967994902
2001-11,2001Q4,2001-12,housing_construction,Housing & construction,housing,0.006692898649168142,0.006692898649168142
2001-11,2001Q4,2001-12,labor_market,Labor market,labor,-0.9452781672889473,0.9452781672889473
2001-11,2001Q4,2001-12,prices_inflation,Prices & inflation,prices,0.143354348606623,0.143354348606623
2001-11,2001Q4,2001-12,real_activity_income,Real activity & income,real_activity,-0.19759991302186408,0.19759991302186408
2001-11,2001Q4,2001-12,,,,0.06139998645691669,0.06139998645691669
2001-12,2001Q4,2001-12,demand_orders_inventories,Demand / orders / inventories,demand,-0.00810312076624689,0.00810312076624689
2001-12,2001Q4,2001-12,financial_conditions,Financial conditions,financial,0.1267106621882898,0.1267106621882898
2001-12,2001Q4,2001-12,housing_construction,Housing & construction,housing,0.04047236374910036,0.04047236374910036
2001-12,2001Q4,2001-12,labor_market,Labor market,labor,-0.12975702141462336,0.12975702141462336
2001-12,2001Q4,2001-12,prices_inflation,Prices & inflation,prices,0.01681443319259333,0.01681443319259333
2001-12,2001Q4,2001-12,real_activity_income,Real activity & income,real_activity,-0.3276703936566893,0.3276703936566893
2002-01,2002Q1,2002-03,demand_orders_inventories,Demand / orders / inventories,demand,0.020075040772141867,0.020075040772141867
2002-01,2002Q1,2002-03,financial_conditions,Financial conditions,financial,0.45291294645478364,0.45291294645478364
2002-01,2002Q1,2002-03,housing_construction,Housing & construction,housing,-0.1613088736185197,0.1613088736185197
2002-01,2002Q1,2002-03,labor_market,Labor market,labor,0.3208585842393081,0.3208585842393081
2002-01,2002Q1,2002-03,prices_inflation,Prices & inflation,prices,0.04308469720255487,0.04308469720255487
2002-01,2002Q1,2002-03,real_activity_income,Real activity & income,real_activity,0.5510304150063391,0.5510304150063391
2002-02,2002Q1,2002-03,demand_orders_inventories,Demand / orders / inventories,demand,0.06266851495113143,0.06266851495113143
2002-02,2002Q1,2002-03,financial_conditions,Financial conditions,financial,0.08170689972813099,0.08170689972813099
2002-02,2002Q1,2002-03,housing_construction,Housing & construction,housing,0.09114716348640231,0.09114716348640231
2002-02,2002Q1,2002-03,labor_market,Labor market,labor,0.25902407206285505,0.25902407206285505
2002-02,2002Q1,2002-03,prices_inflation,Prices & inflation,prices,0.00031767412517168594,0.00031767412517168594
2002-02,2002Q1,2002-03,real_activity_income,Real activity & income,real_activity,0.043275903232994004,0.043275903232994004
2002-02,2002Q1,2002-03,,,,-0.03077703985856576,0.03077703985856576
2002-03,2002Q1,2002-03,demand_orders_inventories,Demand / orders / inventories,demand,0.16903275030604872,0.16903275030604872
2002-03,2002Q1,2002-03,financial_conditions,Financial conditions,financial,0.11927893608936134,0.11927893608936134
2002-03,2002Q1,2002-03,housing_construction,Housing & construction,housing,0.006478239007234141,0.006478239007234141
2002-03,2002Q1,2002-03,labor_market,Labor market,labor,0.1582290916948413,0.1582290916948413
2002-03,2002Q1,2002-03,prices_inflation,Prices & inflation,prices,-0.01338371185063709,0.01338371185063709
2002-03,2002Q1,2002-03,real_activity_income,Real activity & income,real_activity,0.06266051697704195,0.06266051697704195
2002-04,2002Q2,2002-06,demand_orders_inventories,Demand / orders / inventories,demand,-0.15300081055033998,0.15300081055033998
2002-04,2002Q2,2002-06,financial_conditions,Financial conditions,financial,0.316105729619019,0.316105729619019
2002-04,2002Q2,2002-06,housing_construction,Housing & construction,housing,-0.09391319596007841,0.09391319596007841
2002-04,2002Q2,2002-06,labor_market,Labor market,labor,-0.39913047986406985,0.39913047986406985
2002-04,2002Q2,2002-06,prices_inflation,Prices & inflation,prices,-0.028215602898692634,0.028215602898692634
2002-04,2002Q2,2002-06,real_activity_income,Real activity & income,real_activity,0.18965379082031864,0.18965379082031864
2002-05,2002Q2,2002-06,demand_orders_inventories,Demand / orders / inventories,demand,0.06865464026243899,0.06865464026243899
2002-05,2002Q2,2002-06,financial_conditions,Financial conditions,financial,0.01904416960666796,0.01904416960666796
2002-05,2002Q2,2002-06,housing_construction,Housing & construction,housing,-0.1548964178645425,0.1548964178645425
2002-05,2002Q2,2002-06,labor_market,Labor market,labor,-0.3488524569373831,0.3488524569373831
2002-05,2002Q2,2002-06,prices_inflation,Prices & inflation,prices,0.048829611474446456,0.048829611474446456
2002-05,2002Q2,2002-06,real_activity_income,Real activity & income,real_activity,-0.28864550506765063,0.28864550506765063
2002-05,2002Q2,2002-06,,,,-0.27079626924986044,0.27079626924986044
2002-06,2002Q2,2002-06,demand_orders_inventories,Demand / orders / inventories,demand,0.013779460887033662,0.013779460887033662
2002-06,2002Q2,2002-06,financial_conditions,Financial conditions,financial,0.1211135337031959,0.1211135337031959
2002-06,2002Q2,2002-06,housing_construction,Housing & construction,housing,0.05520495571845915,0.05520495571845915
2002-06,2002Q2,2002-06,labor_market,Labor market,labor,0.31225923954898016,0.31225923954898016
2002-06,2002Q2,2002-06,prices_inflation,Prices & inflation,prices,0.01864174964506473,0.01864174964506473
2002-06,2002Q2,2002-06,real_activity_income,Real activity & income,real_activity,0.1387365753620711,0.1387365753620711
2002-07,2002Q3,2002-09,demand_orders_inventories,Demand / orders / inventories,demand,-0.3003790990977328,0.3003790990977328
2002-07,2002Q3,2002-09,financial_conditions,Financial conditions,financial,0.0374051877613499,0.0374051877613499
2002-07,2002Q3,2002-09,housing_construction,Housing & construction,housing,-0.013935509981098203,0.013935509981098203
2002-07,2002Q3,2002-09,labor_market,Labor market,labor,0.004756906252125111,0.004756906252125111
2002-07,2002Q3,2002-09,prices_inflation,Prices & inflation,prices,-0.04152325445906733,0.04152325445906733
2002-07,2002Q3,2002-09,real_activity_income,Real activity & income,real_activity,0.09986134956021914,0.09986134956021914
2002-08,2002Q3,2002-09,demand_orders_inventories,Demand / orders / inventories,demand,0.18268333972735004,0.18268333972735004
2002-08,2002Q3,2002-09,financial_conditions,Financial conditions,financial,0.004208735547271086,0.004208735547271086
2002-08,2002Q3,2002-09,housing_construction,Housing & construction,housing,-0.018261776745090004,0.018261776745090004
2002-08,2002Q3,2002-09,labor_market,Labor market,labor,-0.2134262231184047,0.2134262231184047
2002-08,2002Q3,2002-09,prices_inflation,Prices & inflation,prices,-0.01121366763087599,0.01121366763087599
2002-08,2002Q3,2002-09,real_activity_income,Real activity & income,real_activity,-0.3419098803496305,0.3419098803496305
2002-08,2002Q3,2002-09,,,,0.17184960544787276,0.17184960544787276
2002-09,2002Q3,2002-09,demand_orders_inventories,Demand / orders / inventories,demand,0.11940407821897685,0.11940407821897685
2002-09,2002Q3,2002-09,financial_conditions,Financial conditions,financial,0.01367887973038245,0.01367887973038245
2002-09,2002Q3,2002-09,housing_construction,Housing & construction,housing,-0.020998579849805556,0.020998579849805556
2002-09,2002Q3,2002-09,labor_market,Labor market,labor,-0.09941205396047251,0.09941205396047251
2002-09,2002Q3,2002-09,prices_inflation,Prices & inflation,prices,0.02844496673346486,0.02844496673346486
2002-09,2002Q3,2002-09,real_activity_income,Real activity & income,real_activity,-0.270875401965449,0.270875401965449
2002-10,2002Q4,2002-12,demand_orders_inventories,Demand / orders / inventories,demand,-0.5172297859613593,0.5172297859613593
2002-10,2002Q4,2002-12,financial_conditions,Financial conditions,financial,-0.0876816222287302,0.0876816222287302
2002-10,2002Q4,2002-12,housing_construction,Housing & construction,housing,0.36710607507822335,0.36710607507822335
2002-10,2002Q4,2002-12,labor_market,Labor market,labor,-0.20423268376696568,0.20423268376696568
2002-10,2002Q4,2002-12,prices_inflation,Prices & inflation,prices,-0.031185796130403547,0.031185796130403547
2002-10,2002Q4,2002-12,real_activity_income,Real activity & income,real_activity,-0.32788050758426646,0.32788050758426646
2002-11,2002Q4,2002-12,demand_orders_inventories,Demand / orders / inventories,demand,0.053762332251425904,0.053762332251425904
2002-11,2002Q4,2002-12,financial_conditions,Financial conditions,financial,0.11771924155164064,0.11771924155164064
2002-11,2002Q4,2002-12,housing_construction,Housing & construction,housing,-0.24282398807196146,0.24282398807196146
2002-11,2002Q4,2002-12,labor_market,Labor market,labor,0.028441399500328562,0.028441399500328562
2002-11,2002Q4,2002-12,prices_inflation,Prices & inflation,prices,-0.008137739938693298,0.008137739938693298
2002-11,2002Q4,2002-12,real_activity_income,Real activity & income,real_activity,-0.7296489765778618,0.7296489765778618
2002-11,2002Q4,2002-12,,,,0.017395357693515932,0.017395357693515932
2002-12,2002Q4,2002-12,demand_orders_inventories,Demand / orders / inventories,demand,0.02964995419970418,0.02964995419970418
2002-12,2002Q4,2002-12,financial_conditions,Financial conditions,financial,0.011724702508289764,0.011724702508289764
2002-12,2002Q4,2002-12,housing_construction,Housing & construction,housing,0.005744607865288154,0.005744607865288154
2002-12,2002Q4,2002-12,labor_market,Labor market,labor,0.004788163104865101,0.004788163104865101
2002-12,2002Q4,2002-12,prices_inflation,Prices & inflation,prices,0.015203991829896303,0.015203991829896303
2002-12,2002Q4,2002-12,real_activity_income,Real activity & income,real_activity,0.009667468266174595,0.009667468266174595
2003-01,2003Q1,2003-03,demand_orders_inventories,Demand / orders / inventories,demand,0.0453007011129134,0.0453007011129134
2003-01,2003Q1,2003-03,financial_conditions,Financial conditions,financial,0.07551441033984796,0.07551441033984796
2003-01,2003Q1,2003-03,housing_construction,Housing & construction,housing,0.13539742843307426,0.13539742843307426
2003-01,2003Q1,2003-03,labor_market,Labor market,labor,-0.42834697426681095,0.42834697426681095
2003-01,2003Q1,2003-03,prices_inflation,Prices & inflation,prices,-0.012211599951277907,0.012211599951277907
2003-01,2003Q1,2003-03,real_activity_income,Real activity & income,real_activity,-0.019523309552487184,0.019523309552487184
2003-02,2003Q1,2003-03,demand_orders_inventories,Demand / orders / inventories,demand,0.02913926097914943,0.02913926097914943
2003-02,2003Q1,2003-03,financial_conditions,Financial conditions,financial,0.06644910786659053,0.06644910786659053
2003-02,2003Q1,2003-03,housing_construction,Housing & construction,housing,-0.025553182697734638,0.025553182697734638
2003-02,2003Q1,2003-03,labor_market,Labor market,labor,0.5873946409143691,0.5873946409143691
2003-02,2003Q1,2003-03,prices_inflation,Prices & inflation,prices,-0.006828945774343648,0.006828945774343648
2003-02,2003Q1,2003-03,real_activity_income,Real activity & income,real_activity,0.28750824427563326,0.28750824427563326
2003-02,2003Q1,2003-03,,,,0.02311176926903904,0.02311176926903904
2003-03,2003Q1,2003-03,demand_orders_inventories,Demand / orders / inventories,demand,-0.03509324070721745,0.03509324070721745
2003-03,2003Q1,2003-03,financial_conditions,Financial conditions,financial,0.027738901871390796,0.027738901871390796
2003-03,2003Q1,2003-03,housing_construction,Housing & construction,housing,-0.06153093191549388,0.06153093191549388
2003-03,2003Q1,2003-03,labor_market,Labor market,labor,-0.33618755005394857,0.33618755005394857
2003-03,2003Q1,2003-03,prices_inflation,Prices & inflation,prices,-0.001761003343667445,0.001761003343667445
2003-03,2003Q1,2003-03,real_activity_income,Real activity & income,real_activity,-0.40376836200458277,0.40376836200458277
2003-04,2003Q2,2003-06,demand_orders_inventories,Demand / orders / inventories,demand,0.09686662427929352,0.09686662427929352
2003-04,2003Q2,2003-06,financial_conditions,Financial conditions,financial,-0.003786600269817215,0.003786600269817215
2003-04,2003Q2,2003-06,housing_construction,Housing & construction,housing,0.23274193482387837,0.23274193482387837
2003-04,2003Q2,2003-06,labor_market,Labor market,labor,-0.19951111396440335,0.19951111396440335
2003-04,2003Q2,2003-06,prices_inflation,Prices & inflation,prices,0.006925303083588562,0.006925303083588562
2003-04,2003Q2,2003-06,real_activity_income,Real activity & income,real_activity,-0.02902859168047399,0.02902859168047399
2003-05,2003Q2,2003-06,demand_orders_inventories,Demand / orders / inventories,demand,-0.03415049045490992,0.03415049045490992
2003-05,2003Q2,2003-06,financial_conditions,Financial conditions,financial,0.08265083626657352,0.08265083626657352
2003-05,2003Q2,2003-06,housing_construction,Housing & construction,housing,-0.10719882489307152,0.10719882489307152
2003-05,2003Q2,2003-06,labor_market,Labor market,labor,-0.4061116073669319,0.4061116073669319
2003-05,2003Q2,2003-06,prices_inflation,Prices & inflation,prices,0.010467736541021466,0.010467736541021466
2003-05,2003Q2,2003-06,real_activity_income,Real activity & income,real_activity,-0.4629028841796816,0.4629028841796816
2003-05,2003Q2,2003-06,,,,0.03144434539248821,0.03144434539248821
2003-06,2003Q2,2003-06,demand_orders_inventories,Demand / orders / inventories,demand,-0.04682338941285071,0.04682338941285071
2003-06,2003Q2,2003-06,financial_conditions,Financial conditions,financial,-0.012958414132512435,0.012958414132512435
2003-06,2003Q2,2003-06,housing_construction,Housing & construction,housing,0.012462142812319162,0.012462142812319162
2003-06,2003Q2,2003-06,labor_market,Labor market,labor,0.08324397179231897,0.08324397179231897
2003-06,2003Q2,2003-06,prices_inflation,Prices & inflation,prices,0.02309578037904484,0.02309578037904484
2003-06,2003Q2,2003-06,real_activity_income,Real activity & income,real_activity,0.43002380496140646,0.43002380496140646
2003-07,2003Q3,2003-09,demand_orders_inventories,Demand / orders / inventories,demand,0.06873010313085688,0.06873010313085688
2003-07,2003Q3,2003-09,financial_conditions,Financial conditions,financial,-0.07035790114889913,0.07035790114889913
2003-07,2003Q3,2003-09,housing_construction,Housing & construction,housing,0.10848013634983183,0.10848013634983183
2003-07,2003Q3,2003-09,labor_market,Labor market,labor,-0.2730700314001323,0.2730700314001323
2003-07,2003Q3,2003-09,prices_inflation,Prices & inflation,prices,-0.0357597931691453,0.0357597931691453
2003-07,2003Q3,2003-09,real_activity_income,Real activity & income,real_activity,0.29312534682521385,0.29312534682521385
2003-08,2003Q3,2003-09,demand_orders_inventories,Demand / orders / inventories,demand,0.11407115808566363,0.11407115808566363
2003-08,2003Q3,2003-09,financial_conditions,Financial conditions,financial,0.32037295374854735,0.32037295374854735
2003-08,2003Q3,2003-09,housing_construction,Housing & construction,housing,0.10536401709299469,0.10536401709299469
2003-08,2003Q3,2003-09,labor_market,Labor market,labor,-0.06822233103240918,0.06822233103240918
2003-08,2003Q3,2003-09,prices_inflation,Prices & inflation,prices,-0.005348542957035446,0.005348542957035446
2003-08,2003Q3,2003-09,real_activity_income,Real activity & income,real_activity,-0.1303137140649047,0.1303137140649047
2003-08,2003Q3,2003-09,,,,-0.0782656043771417,0.0782656043771417
2003-09,2003Q3,2003-09,demand_orders_inventories,Demand / orders / inventories,demand,0.09775068336220585,0.09775068336220585
2003-09,2003Q3,2003-09,financial_conditions,Financial conditions,financial,0.06093743820204644,0.06093743820204644
2003-09,2003Q3,2003-09,housing_construction,Housing & construction,housing,-0.02016939193346873,0.02016939193346873
2003-09,2003Q3,2003-09,labor_market,Labor market,labor,-0.08086660261531976,0.08086660261531976
2003-09,2003Q3,2003-09,prices_inflation,Prices & inflation,prices,0.0077647259067490735,0.0077647259067490735
2003-09,2003Q3,2003-09,real_activity_income,Real activity & income,real_activity,-0.4420168718698182,0.4420168718698182
2003-10,2003Q4,2003-12,demand_orders_inventories,Demand / orders / inventories,demand,-0.10412601531705448,0.10412601531705448
2003-10,2003Q4,2003-12,financial_conditions,Financial conditions,financial,-0.15568612610140461,0.15568612610140461
2003-10,2003Q4,2003-12,housing_construction,Housing & construction,housing,0.1589813438225795,0.1589813438225795
2003-10,2003Q4,2003-12,labor_market,Labor market,labor,0.061473369506203704,0.061473369506203704
2003-10,2003Q4,2003-12,prices_inflation,Prices & inflation,prices,0.007759840007649753,0.007759840007649753
2003-10,2003Q4,2003-12,real_activity_income,Real activity & income,real_activity,0.16844872131412295,0.16844872131412295
2003-11,2003Q4,2003-12,demand_orders_inventories,Demand / orders / inventories,demand,-0.04491371590186049,0.04491371590186049
2003-11,2003Q4,2003-12,financial_conditions,Financial conditions,financial,-0.06532845508655646,0.06532845508655646
2003-11,2003Q4,2003-12,housing_construction,Housing & construction,housing,0.014674227327065338,0.014674227327065338
2003-11,2003Q4,2003-12,labor_market,Labor market,labor,0.09423215506124513,0.09423215506124513
2003-11,2003Q4,2003-12,prices_inflation,Prices & inflation,prices,-0.014788477403185559,0.014788477403185559
2003-11,2003Q4,2003-12,real_activity_income,Real activity & income,real_activity,-0.1249373226047428,0.1249373226047428
2003-11,2003Q4,2003-12,,,,-0.29341415271597693,0.29341415271597693
2003-12,2003Q4,2003-12,demand_orders_inventories,Demand / orders / inventories,demand,0.06840363724658144,0.06840363724658144
2003-12,2003Q4,2003-12,financial_conditions,Financial conditions,financial,-0.0019980113147791225,0.0019980113147791225
2003-12,2003Q4,2003-12,housing_construction,Housing & construction,housing,0.0866687986096609,0.0866687986096609
2003-12,2003Q4,2003-12,labor_market,Labor market,labor,0.157974397262502,0.157974397262502
2003-12,2003Q4,2003-12,prices_inflation,Prices & inflation,prices,-0.034284210772236076,0.034284210772236076
2003-12,2003Q4,2003-12,real_activity_income,Real activity & income,real_activity,0.26140679676133527,0.26140679676133527
2004-01,2004Q1,2004-03,demand_orders_inventories,Demand / orders / inventories,demand,-0.20547855658310685,0.20547855658310685
2004-01,2004Q1,2004-03,financial_conditions,Financial conditions,financial,0.09940711528768875,0.09940711528768875
2004-01,2004Q1,2004-03,housing_construction,Housing & construction,housing,0.11489776290429306,0.11489776290429306
2004-01,2004Q1,2004-03,labor_market,Labor market,labor,-0.21529031562835896,0.21529031562835896
2004-01,2004Q1,2004-03,prices_inflation,Prices & inflation,prices,0.034343300308816285,0.034343300308816285
2004-01,2004Q1,2004-03,real_activity_income,Real activity & income,real_activity,-0.24153851831592743,0.24153851831592743
2004-01,2004Q1,2004-03,,,,0.6600894438189957,0.6600894438189957
2004-02,2004Q1,2004-03,demand_orders_inventories,Demand / orders / inventories,demand,-0.10023418769981751,0.10023418769981751
2004-02,2004Q1,2004-03,financial_conditions,Financial conditions,financial,0.0463403096840029,0.0463403096840029
2004-02,2004Q1,2004-03,housing_construction,Housing & construction,housing,-0.1792150398543918,0.1792150398543918
2004-02,2004Q1,2004-03,labor_market,Labor market,labor,0.1424352141819938,0.1424352141819938
2004-02,2004Q1,2004-03,prices_inflation,Prices & inflation,prices,0.030430150179623826,0.030430150179623826
2004-02,2004Q1,2004-03,real_activity_income,Real activity & income,real_activity,-0.4265926239339319,0.4265926239339319
2004-02,2004Q1,2004-03,,,,0.007300602088987778,0.007300602088987778
2004-03,2004Q1,2004-03,demand_orders_inventories,Demand / orders / inventories,demand,0.0040344326539270906,0.0040344326539270906
2004-03,2004Q1,2004-03,financial_conditions,Financial conditions,financial,0.03246382764482067,0.03246382764482067
2004-03,2004Q1,2004-03,housing_construction,Housing & construction,housing,-0.0015276403415970582,0.0015276403415970582
2004-03,2004Q1,2004-03,labor_market,Labor market,labor,-0.050938963755368535,0.050938963755368535
2004-03,2004Q1,2004-03,prices_inflation,Prices & inflation,prices,0.0006375231467191146,0.0006375231467191146
2004-03,2004Q1,2004-03,real_activity_income,Real activity & income,real_activity,0.08621997697511811,0.08621997697511811
2004-04,2004Q2,2004-06,demand_orders_inventories,Demand / orders / inventories,demand,0.12349884525092689,0.12349884525092689
2004-04,2004Q2,2004-06,financial_conditions,Financial conditions,financial,-0.06398882488646015,0.06398882488646015
2004-04,2004Q2,2004-06,housing_construction,Housing & construction,housing,0.16181710796904406,0.16181710796904406
2004-04,2004Q2,2004-06,labor_market,Labor market,labor,0.07789645530500683,0.07789645530500683
2004-04,2004Q2,2004-06,prices_inflation,Prices & inflation,prices,0.016661760949224374,0.016661760949224374
2004-04,2004Q2,2004-06,real_activity_income,Real activity & income,real_activity,-0.4346429612871656,0.4346429612871656
2004-05,2004Q2,2004-06,demand_orders_inventories,Demand / orders / inventories,demand,0.025239767601151125,0.025239767601151125
2004-05,2004Q2,2004-06,financial_conditions,Financial conditions,financial,0.23061973246708958,0.23061973246708958
2004-05,2004Q2,2004-06,housing_construction,Housing & construction,housing,0.022706305913367225,0.022706305913367225
2004-05,2004Q2,2004-06,labor_market,Labor market,labor,0.043191152351187215,0.043191152351187215
2004-05,2004Q2,2004-06,prices_inflation,Prices & inflation,prices,-0.006161216819826368,0.006161216819826368
2004-05,2004Q2,2004-06,real_activity_income,Real activity & income,real_activity,0.150799659865568,0.150799659865568
2004-05,2004Q2,2004-06,,,,0.06306422837789631,0.06306422837789631
2004-06,2004Q2,2004-06,demand_orders_inventories,Demand / orders / inventories,demand,-0.13416648862796007,0.13416648862796007
2004-06,2004Q2,2004-06,financial_conditions,Financial conditions,financial,0.019827954959942173,0.019827954959942173
2004-06,2004Q2,2004-06,housing_construction,Housing & construction,housing,-0.01810322017539443,0.01810322017539443
2004-06,2004Q2,2004-06,labor_market,Labor market,labor,-0.03315615811378953,0.03315615811378953
2004-06,2004Q2,2004-06,prices_inflation,Prices & inflation,prices,-0.012292252059343705,0.012292252059343705
2004-06,2004Q2,2004-06,real_activity_income,Real activity & income,real_activity,0.027006501827370286,0.027006501827370286
2004-07,2004Q3,2004-09,demand_orders_inventories,Demand / orders / inventories,demand,-0.1275772058769178,0.1275772058769178
2004-07,2004Q3,2004-09,financial_conditions,Financial conditions,financial,0.0013559246959682228,0.0013559246959682228
2004-07,2004Q3,2004-09,housing_construction,Housing & construction,housing,-0.2120696171480819,0.2120696171480819
2004-07,2004Q3,2004-09,labor_market,Labor market,labor,-0.4111801757657308,0.4111801757657308
2004-07,2004Q3,2004-09,prices_inflation,Prices & inflation,prices,0.012461128953104774,0.012461128953104774
2004-07,2004Q3,2004-09,real_activity_income,Real activity & income,real_activity,-0.2996417773393709,0.2996417773393709
2004-08,2004Q3,2004-09,demand_orders_inventories,Demand / orders / inventories,demand,0.14745459856490806,0.14745459856490806
2004-08,2004Q3,2004-09,financial_conditions,Financial conditions,financial,-0.08375951156315718,0.08375951156315718
2004-08,2004Q3,2004-09,housing_construction,Housing & construction,housing,0.12400885900985113,0.12400885900985113
2004-08,2004Q3,2004-09,labor_market,Labor market,labor,-0.0434219657648112,0.0434219657648112
2004-08,2004Q3,2004-09,prices_inflation,Prices & inflation,prices,-0.026121551392853402,0.026121551392853402
2004-08,2004Q3,2004-09,real_activity_income,Real activity & income,real_activity,0.12165794892003379,0.12165794892003379
2004-08,2004Q3,2004-09,,,,0.11404892794158719,0.11404892794158719
2004-09,2004Q3,2004-09,demand_orders_inventories,Demand / orders / inventories,demand,-0.14286287600828215,0.14286287600828215
2004-09,2004Q3,2004-09,financial_conditions,Financial conditions,financial,-0.002774487854632922,0.002774487854632922
2004-09,2004Q3,2004-09,housing_construction,Housing & construction,housing,0.023614289418618775,0.023614289418618775
2004-09,2004Q3,2004-09,labor_market,Labor market,labor,-0.03413563828339769,0.03413563828339769
2004-09,2004Q3,2004-09,prices_inflation,Prices & inflation,prices,-0.014891905458047767,0.014891905458047767
2004-09,2004Q3,2004-09,real_activity_income,Real activity & income,real_activity,-0.06422790003925652,0.06422790003925652
2004-10,2004Q4,2004-12,demand_orders_inventories,Demand / orders / inventories,demand,0.0704626505090345,0.0704626505090345
2004-10,2004Q4,2004-12,financial_conditions,Financial conditions,financial,-0.0641211068957942,0.0641211068957942
2004-10,2004Q4,2004-12,housing_construction,Housing & construction,housing,-0.1868104874605515,0.1868104874605515
2004-10,2004Q4,2004-12,labor_market,Labor market,labor,-0.21311090004914587,0.21311090004914587
2004-10,2004Q4,2004-12,prices_inflation,Prices & inflation,prices,0.015813952548663378,0.015813952548663378
2004-10,2004Q4,2004-12,real_activity_income,Real activity & income,real_activity,-0.5042074966464645,0.5042074966464645
2004-11,2004Q4,2004-12,demand_orders_inventories,Demand / orders / inventories,demand,-0.04016739763617754,0.04016739763617754
2004-11,2004Q4,2004-12,financial_conditions,Financial conditions,financial,-0.016212969372178594,0.016212969372178594
2004-11,2004Q4,2004-12,housing_construction,Housing & construction,housing,0.18295937613807156,0.18295937613807156
2004-11,2004Q4,2004-12,labor_market,Labor market,labor,0.18689089823767946,0.18689089823767946
2004-11,2004Q4,2004-12,prices_inflation,Prices & inflation,prices,-0.006568396510793051,0.006568396510793051
2004-11,2004Q4,2004-12,real_activity_income,Real activity & income,real_activity,0.24703607603211986,0.24703607603211986
2004-11,2004Q4,2004-12,,,,0.013275510745319572,0.013275510745319572
2004-12,2004Q4,2004-12,demand_orders_inventories,Demand / orders / inventories,demand,-0.02127905719191233,0.02127905719191233
2004-12,2004Q4,2004-12,financial_conditions,Financial conditions,financial,0.012477049005616851,0.012477049005616851
2004-12,2004Q4,2004-12,housing_construction,Housing & construction,housing,-0.08141242517229415,0.08141242517229415
2004-12,2004Q4,2004-12,labor_market,Labor market,labor,0.023612018404484833,0.023612018404484833
2004-12,2004Q4,2004-12,prices_inflation,Prices & inflation,prices,0.005633453798781145,0.005633453798781145
2004-12,2004Q4,2004-12,real_activity_income,Real activity & income,real_activity,0.0073598267787256845,0.0073598267787256845
2005-01,2005Q1,2005-03,demand_orders_inventories,Demand / orders / inventories,demand,0.09560712067475777,0.09560712067475777
2005-01,2005Q1,2005-03,financial_conditions,Financial conditions,financial,-0.04419442109650504,0.04419442109650504
2005-01,2005Q1,2005-03,housing_construction,Housing & construction,housing,0.26083820624880993,0.26083820624880993
2005-01,2005Q1,2005-03,labor_market,Labor market,labor,0.0597835061199531,0.0597835061199531
2005-01,2005Q1,2005-03,prices_inflation,Prices & inflation,prices,0.00917694328456034,0.00917694328456034
2005-01,2005Q1,2005-03,real_activity_income,Real activity & income,real_activity,2.5362429455289197,2.5362429455289197
2005-02,2005Q1,2005-03,demand_orders_inventories,Demand / orders / inventories,demand,-0.269029161020108,0.269029161020108
2005-02,2005Q1,2005-03,financial_conditions,Financial conditions,financial,-0.033290221656306226,0.033290221656306226
2005-02,2005Q1,2005-03,housing_construction,Housing & construction,housing,0.052766780397701385,0.052766780397701385
2005-02,2005Q1,2005-03,labor_market,Labor market,labor,-0.30539307839993934,0.30539307839993934
2005-02,2005Q1,2005-03,prices_inflation,Prices & inflation,prices,-0.016981901748426995,0.016981901748426995
2005-02,2005Q1,2005-03,real_activity_income,Real activity & income,real_activity,-1.6845220786027146,1.6845220786027146
2005-02,2005Q1,2005-03,,,,0.08915663079127145,0.08915663079127145
2005-03,2005Q1,2005-03,demand_orders_inventories,Demand / orders / inventories,demand,0.035210375244817384,0.035210375244817384
2005-03,2005Q1,2005-03,financial_conditions,Financial conditions,financial,-0.028806048270483522,0.028806048270483522
2005-03,2005Q1,2005-03,housing_construction,Housing & construction,housing,0.05230425018885517,0.05230425018885517
2005-03,2005Q1,2005-03,labor_market,Labor market,labor,0.13787214836462314,0.13787214836462314
2005-03,2005Q1,2005-03,prices_inflation,Prices & inflation,prices,0.010790559172169725,0.010790559172169725
2005-03,2005Q1,2005-03,real_activity_income,Real activity & income,real_activity,-0.5269462689610106,0.5269462689610106
2005-04,2005Q2,2005-06,demand_orders_inventories,Demand / orders / inventories,demand,-0.23804411228613867,0.23804411228613867
2005-04,2005Q2,2005-06,financial_conditions,Financial conditions,financial,0.11649349712181659,0.11649349712181659
2005-04,2005Q2,2005-06,housing_construction,Housing & construction,housing,-0.4471903503266661,0.4471903503266661
2005-04,2005Q2,2005-06,labor_market,Labor market,labor,-0.17298564696088242,0.17298564696088242
2005-04,2005Q2,2005-06,prices_inflation,Prices & inflation,prices,0.02953523350369401,0.02953523350369401
2005-04,2005Q2,2005-06,real_activity_income,Real activity & income,real_activity,-0.3886840625337,0.3886840625337
2005-05,2005Q2,2005-06,demand_orders_inventories,Demand / orders / inventories,demand,0.11562932010951078,0.11562932010951078
2005-05,2005Q2,2005-06,financial_conditions,Financial conditions,financial,-0.1395972097672715,0.1395972097672715
2005-05,2005Q2,2005-06,housing_construction,Housing & construction,housing,0.08361825360697105,0.08361825360697105
2005-05,2005Q2,2005-06,labor_market,Labor market,labor,0.3707190478779484,0.3707190478779484
2005-05,2005Q2,2005-06,prices_inflation,Prices & inflation,prices,-0.005008653883025926,0.005008653883025926
2005-05,2005Q2,2005-06,real_activity_income,Real activity & income,real_activity,0.25981580563577705,0.25981580563577705
2005-05,2005Q2,2005-06,,,,0.05508991001602086,0.05508991001602086
2005-06,2005Q2,2005-06,demand_orders_inventories,Demand / orders / inventories,demand,0.20175061462934418,0.20175061462934418
2005-06,2005Q2,2005-06,financial_conditions,Financial conditions,financial,-0.0845736896624162,0.0845736896624162
2005-06,2005Q2,2005-06,housing_construction,Housing & construction,housing,0.02271918115364739,0.02271918115364739
2005-06,2005Q2,2005-06,labor_market,Labor market,labor,-0.08341307946974319,0.08341307946974319
2005-06,2005Q2,2005-06,prices_inflation,Prices & inflation,prices,-0.021936557208100338,0.021936557208100338
2005-06,2005Q2,2005-06,real_activity_income,Real activity & income,real_activity,0.13027909060182793,0.13027909060182793
2005-07,2005Q3,2005-09,demand_orders_inventories,Demand / orders / inventories,demand,0.2693992681356953,0.2693992681356953
2005-07,2005Q3,2005-09,financial_conditions,Financial conditions,financial,-0.12473873335814722,0.12473873335814722
2005-07,2005Q3,2005-09,housing_construction,Housing & construction,housing,-0.03969575357883718,0.03969575357883718
2005-07,2005Q3,2005-09,labor_market,Labor market,labor,-0.087617705929497,0.087617705929497
2005-07,2005Q3,2005-09,prices_inflation,Prices & inflation,prices,-0.02289337471230579,0.02289337471230579
2005-07,2005Q3,2005-09,real_activity_income,Real activity & income,real_activity,-0.11159553586117782,0.11159553586117782
2005-08,2005Q3,2005-09,demand_orders_inventories,Demand / orders / inventories,demand,-0.11671485379928909,0.11671485379928909
2005-08,2005Q3,2005-09,financial_conditions,Financial conditions,financial,0.08169516770214191,0.08169516770214191
2005-08,2005Q3,2005-09,housing_construction,Housing & construction,housing,0.053258687013549855,0.053258687013549855
2005-08,2005Q3,2005-09,labor_market,Labor market,labor,0.058412015113211514,0.058412015113211514
2005-08,2005Q3,2005-09,prices_inflation,Prices & inflation,prices,0.03684250893868889,0.03684250893868889
2005-08,2005Q3,2005-09,real_activity_income,Real activity & income,real_activity,0.21748416067900297,0.21748416067900297
2005-08,2005Q3,2005-09,,,,-0.06412235359226143,0.06412235359226143
2005-09,2005Q3,2005-09,demand_orders_inventories,Demand / orders / inventories,demand,-0.11573911956621248,0.11573911956621248
2005-09,2005Q3,2005-09,financial_conditions,Financial conditions,financial,-0.04437864963161351,0.04437864963161351
2005-09,2005Q3,2005-09,housing_construction,Housing & construction,housing,-0.012945460969702574,0.012945460969702574
2005-09,2005Q3,2005-09,labor_market,Labor market,labor,0.03796187979607969,0.03796187979607969
2005-09,2005Q3,2005-09,prices_inflation,Prices & inflation,prices,0.0003395710757264249,0.0003395710757264249
2005-09,2005Q3,2005-09,real_activity_income,Real activity & income,real_activity,-0.6897308502228559,0.6897308502228559
2005-10,2005Q4,2005-12,demand_orders_inventories,Demand / orders / inventories,demand,0.0009473067956641268,0.0009473067956641268
2005-10,2005Q4,2005-12,financial_conditions,Financial conditions,financial,-0.20100812136431,0.20100812136431
2005-10,2005Q4,2005-12,housing_construction,Housing & construction,housing,0.07055529024257307,0.07055529024257307
2005-10,2005Q4,2005-12,labor_market,Labor market,labor,-0.8546520499080413,0.8546520499080413
2005-10,2005Q4,2005-12,prices_inflation,Prices & inflation,prices,0.03805553537250925,0.03805553537250925
2005-10,2005Q4,2005-12,real_activity_income,Real activity & income,real_activity,-0.27917258522037847,0.27917258522037847
2005-11,2005Q4,2005-12,demand_orders_inventories,Demand / orders / inventories,demand,0.3151080213061121,0.3151080213061121
2005-11,2005Q4,2005-12,financial_conditions,Financial conditions,financial,0.058018741336972074,0.058018741336972074
2005-11,2005Q4,2005-12,housing_construction,Housing & construction,housing,-0.14341591343587168,0.14341591343587168
2005-11,2005Q4,2005-12,labor_market,Labor market,labor,0.6571468782160544,0.6571468782160544
2005-11,2005Q4,2005-12,prices_inflation,Prices & inflation,prices,0.01530140398249159,0.01530140398249159
2005-11,2005Q4,2005-12,real_activity_income,Real activity & income,real_activity,1.8807818919989527,1.8807818919989527
2005-11,2005Q4,2005-12,,,,-0.1467783927842355,0.1467783927842355
2005-12,2005Q4,2005-12,demand_orders_inventories,Demand / orders / inventories,demand,0.11149982514652634,0.11149982514652634
2005-12,2005Q4,2005-12,financial_conditions,Financial conditions,financial,-0.05890258058606137,0.05890258058606137
2005-12,2005Q4,2005-12,housing_construction,Housing & construction,housing,0.03350792526707201,0.03350792526707201
2005-12,2005Q4,2005-12,labor_market,Labor market,labor,0.08931005145830774,0.08931005145830774
2005-12,2005Q4,2005-12,prices_inflation,Prices & inflation,prices,0.019926539239667064,0.019926539239667064
2005-12,2005Q4,2005-12,real_activity_income,Real activity & income,real_activity,0.6256442634111408,0.6256442634111408
2006-01,2006Q1,2006-03,demand_orders_inventories,Demand / orders / inventories,demand,0.03166654394694343,0.03166654394694343
2006-01,2006Q1,2006-03,financial_conditions,Financial conditions,financial,-0.14713387363810973,0.14713387363810973
2006-01,2006Q1,2006-03,housing_construction,Housing & construction,housing,-0.246422351362359,0.246422351362359
2006-01,2006Q1,2006-03,labor_market,Labor market,labor,-0.19034359762488176,0.19034359762488176
2006-01,2006Q1,2006-03,prices_inflation,Prices & inflation,prices,-0.06681498848714412,0.06681498848714412
2006-01,2006Q1,2006-03,real_activity_income,Real activity & income,real_activity,-0.6205988111860036,0.6205988111860036
2006-02,2006Q1,2006-03,demand_orders_inventories,Demand / orders / inventories,demand,-0.5129963834507252,0.5129963834507252
2006-02,2006Q1,2006-03,financial_conditions,Financial conditions,financial,-0.02852662775148204,0.02852662775148204
2006-02,2006Q1,2006-03,housing_construction,Housing & construction,housing,0.3733794436662262,0.3733794436662262
2006-02,2006Q1,2006-03,labor_market,Labor market,labor,0.42913898826535796,0.42913898826535796
2006-02,2006Q1,2006-03,prices_inflation,Prices & inflation,prices,0.016601285748354552,0.016601285748354552
2006-02,2006Q1,2006-03,real_activity_income,Real activity & income,real_activity,0.2888797247043964,0.2888797247043964
2006-02,2006Q1,2006-03,,,,0.30629097175912534,0.30629097175912534
2006-03,2006Q1,2006-03,demand_orders_inventories,Demand / orders / inventories,demand,-0.18898669421367822,0.18898669421367822
2006-03,2006Q1,2006-03,financial_conditions,Financial conditions,financial,-0.048898686253488075,0.048898686253488075
2006-03,2006Q1,2006-03,housing_construction,Housing & construction,housing,-0.031062377617894633,0.031062377617894633
2006-03,2006Q1,2006-03,labor_market,Labor market,labor,-0.20896996752650443,0.20896996752650443
2006-03,2006Q1,2006-03,prices_inflation,Prices & inflation,prices,0.002078502340608905,0.002078502340608905
2006-03,2006Q1,2006-03,real_activity_income,Real activity & income,real_activity,-0.6614516394326166,0.6614516394326166
2006-04,2006Q2,2006-06,demand_orders_inventories,Demand / orders / inventories,demand,0.40072976501373053,0.40072976501373053
2006-04,2006Q2,2006-06,financial_conditions,Financial conditions,financial,-0.07234427504530389,0.07234427504530389
2006-04,2006Q2,2006-06,housing_construction,Housing & construction,housing,-0.19926678919992455,0.19926678919992455
2006-04,2006Q2,2006-06,labor_market,Labor market,labor,0.07134436583809249,0.07134436583809249
2006-04,2006Q2,2006-06,prices_inflation,Prices & inflation,prices,-0.02433319148279604,0.02433319148279604
2006-04,2006Q2,2006-06,real_activity_income,Real activity & income,real_activity,0.24263013126062227,0.24263013126062227
2006-05,2006Q2,2006-06,demand_orders_inventories,Demand / orders / inventories,demand,-0.07538011641729378,0.07538011641729378
2006-05,2006Q2,2006-06,financial_conditions,Financial conditions,financial,0.031058242299904285,0.031058242299904285
2006-05,2006Q2,2006-06,housing_construction,Housing & construction,housing,-0.03425496859959467,0.03425496859959467
2006-05,2006Q2,2006-06,labor_market,Labor market,labor,-0.0756782564808822,0.0756782564808822
2006-05,2006Q2,2006-06,prices_inflation,Prices & inflation,prices,-0.01288299240431324,0.01288299240431324
2006-05,2006Q2,2006-06,real_activity_income,Real activity & income,real_activity,0.2829589090121054,0.2829589090121054
2006-05,2006Q2,2006-06,,,,-0.0007528447687190843,0.0007528447687190843
2006-06,2006Q2,2006-06,demand_orders_inventories,Demand / orders / inventories,demand,-0.12736273945815393,0.12736273945815393
2006-06,2006Q2,2006-06,financial_conditions,Financial conditions,financial,-0.009775908391275295,0.009775908391275295
2006-06,2006Q2,2006-06,housing_construction,Housing & construction,housing,0.006117307667108336,0.006117307667108336
2006-06,2006Q2,2006-06,labor_market,Labor market,labor,-0.18271021204387955,0.18271021204387955
2006-06,2006Q2,2006-06,prices_inflation,Prices & inflation,prices,0.013109594248772952,0.013109594248772952
2006-06,2006Q2,2006-06,real_activity_income,Real activity & income,real_activity,-0.3577128825475594,0.3577128825475594
2006-07,2006Q3,2006-09,demand_orders_inventories,Demand / orders / inventories,demand,0.20626327353208138,0.20626327353208138
2006-07,2006Q3,2006-09,financial_conditions,Financial conditions,financial,-0.11667754597931293,0.11667754597931293
2006-07,2006Q3,2006-09,housing_construction,Housing & construction,housing,-0.10348677239083556,0.10348677239083556
2006-07,2006Q3,2006-09,labor_market,Labor market,labor,0.27781071157910175,0.27781071157910175
2006-07,2006Q3,2006-09,prices_inflation,Prices & inflation,prices,0.0001753557765200563,0.0001753557765200563
2006-07,2006Q3,2006-09,real_activity_income,Real activity & income,real_activity,0.2961000888652052,0.2961000888652052
2006-08,2006Q3,2006-09,demand_orders_inventories,Demand / orders / inventories,demand,-0.06936962767453923,0.06936962767453923
2006-08,2006Q3,2006-09,financial_conditions,Financial conditions,financial,-0.07278306579427675,0.07278306579427675
2006-08,2006Q3,2006-09,housing_construction,Housing & construction,housing,-0.01640421547491727,0.01640421547491727
2006-08,2006Q3,2006-09,labor_market,Labor market,labor,-0.17938992742088317,0.17938992742088317
2006-08,2006Q3,2006-09,prices_inflation,Prices & inflation,prices,0.0035209652971579216,0.0035209652971579216
2006-08,2006Q3,2006-09,real_activity_income,Real activity & income,real_activity,0.06058607974609814,0.06058607974609814
2006-08,2006Q3,2006-09,,,,0.0473870368747029,0.0473870368747029
2006-09,2006Q3,2006-09,demand_orders_inventories,Demand / orders / inventories,demand,-0.10468455141294139,0.10468455141294139
2006-09,2006Q3,2006-09,financial_conditions,Financial conditions,financial,-0.08188592118191693,0.08188592118191693
2006-09,2006Q3,2006-09,housing_construction,Housing & construction,housing,-0.033422989195945094,0.033422989195945094
2006-09,2006Q3,2006-09,labor_market,Labor market,labor,-0.04063974495199131,0.04063974495199131
2006-09,2006Q3,2006-09,prices_inflation,Prices & inflation,prices,-0.0011948152787112734,0.0011948152787112734
2006-09,2006Q3,2006-09,real_activity_income,Real activity & income,real_activity,-0.2926757580946927,0.2926757580946927
2006-10,2006Q4,2006-12,demand_orders_inventories,Demand / orders / inventories,demand,0.4957511893592602,0.4957511893592602
2006-10,2006Q4,2006-12,financial_conditions,Financial conditions,financial,-0.18678398149158548,0.18678398149158548
2006-10,2006Q4,2006-12,housing_construction,Housing & construction,housing,0.09460579433227596,0.09460579433227596
2006-10,2006Q4,2006-12,labor_market,Labor market,labor,0.03479699801611234,0.03479699801611234
2006-10,2006Q4,2006-12,prices_inflation,Prices & inflation,prices,0.009667097340156847,0.009667097340156847
2006-10,2006Q4,2006-12,real_activity_income,Real activity & income,real_activity,0.1720166821372697,0.1720166821372697
2006-11,2006Q4,2006-12,demand_orders_inventories,Demand / orders / inventories,demand,-0.38591344792734866,0.38591344792734866
2006-11,2006Q4,2006-12,financial_conditions,Financial conditions,financial,0.14432986611854817,0.14432986611854817
2006-11,2006Q4,2006-12,housing_construction,Housing & construction,housing,-0.19459954529552978,0.19459954529552978
2006-11,2006Q4,2006-12,labor_market,Labor market,labor,-0.058993549080887664,0.058993549080887664
2006-11,2006Q4,2006-12,prices_inflation,Prices & inflation,prices,-0.01128134727431187,0.01128134727431187
2006-11,2006Q4,2006-12,real_activity_income,Real activity & income,real_activity,-0.13708676161747652,0.13708676161747652
2006-11,2006Q4,2006-12,,,,0.19768199035325096,0.19768199035325096
2006-12,2006Q4,2006-12,demand_orders_inventories,Demand / orders / inventories,demand,0.008214784486360736,0.008214784486360736
2006-12,2006Q4,2006-12,financial_conditions,Financial conditions,financial,-0.15107746671557032,0.15107746671557032
2006-12,2006Q4,2006-12,housing_construction,Housing & construction,housing,0.014973808700901084,0.014973808700901084
2006-12,2006Q4,2006-12,labor_market,Labor market,labor,-0.1053649178151747,0.1053649178151747
2006-12,2006Q4,2006-12,prices_inflation,Prices & inflation,prices,-0.013436937538678535,0.013436937538678535
2006-12,2006Q4,2006-12,real_activity_income,Real activity & income,real_activity,0.1726009282979985,0.1726009282979985
2007-01,2007Q1,2007-03,demand_orders_inventories,Demand / orders / inventories,demand,0.2826634988200723,0.2826634988200723
2007-01,2007Q1,2007-03,financial_conditions,Financial conditions,financial,-0.11750888877563931,0.11750888877563931
2007-01,2007Q1,2007-03,housing_construction,Housing & construction,housing,0.12408132563426429,0.12408132563426429
2007-01,2007Q1,2007-03,labor_market,Labor market,labor,0.1608397936058438,0.1608397936058438
2007-01,2007Q1,2007-03,prices_inflation,Prices & inflation,prices,0.013844099137611149,0.013844099137611149
2007-01,2007Q1,2007-03,real_activity_income,Real activity & income,real_activity,0.5712600626629954,0.5712600626629954
2007-02,2007Q1,2007-03,demand_orders_inventories,Demand / orders / inventories,demand,-0.35495788764759434,0.35495788764759434
2007-02,2007Q1,2007-03,financial_conditions,Financial conditions,financial,0.027142930734874858,0.027142930734874858
2007-02,2007Q1,2007-03,housing_construction,Housing & construction,housing,-0.31739242185981853,0.31739242185981853
2007-02,2007Q1,2007-03,labor_market,Labor market,labor,-0.15956952908216537,0.15956952908216537
2007-02,2007Q1,2007-03,prices_inflation,Prices & inflation,prices,0.020908136268609545,0.020908136268609545
2007-02,2007Q1,2007-03,real_activity_income,Real activity & income,real_activity,-0.8526057852791473,0.8526057852791473
2007-02,2007Q1,2007-03,,,,-0.08768612037047595,0.08768612037047595
2007-03,2007Q1,2007-03,demand_orders_inventories,Demand / orders / inventories,demand,-0.027895873359942952,0.027895873359942952
2007-03,2007Q1,2007-03,financial_conditions,Financial conditions,financial,-0.01721775657890809,0.01721775657890809
2007-03,2007Q1,2007-03,housing_construction,Housing & construction,housing,-0.029381026708806095,0.029381026708806095
2007-03,2007Q1,2007-03,labor_market,Labor market,labor,-0.0648049638684407,0.0648049638684407
2007-03,2007Q1,2007-03,prices_inflation,Prices & inflation,prices,-0.00787463181462471,0.00787463181462471
2007-03,2007Q1,2007-03,real_activity_income,Real activity & income,real_activity,0.3180672266882879,0.3180672266882879
2007-04,2007Q2,2007-06,demand_orders_inventories,Demand / orders / inventories,demand,0.22575073573670473,0.22575073573670473
2007-04,2007Q2,2007-06,financial_conditions,Financial conditions,financial,-0.20836111883563632,0.20836111883563632
2007-04,2007Q2,2007-06,housing_construction,Housing & construction,housing,0.040033632292685147,0.040033632292685147
2007-04,2007Q2,2007-06,labor_market,Labor market,labor,0.3918218694597131,0.3918218694597131
2007-04,2007Q2,2007-06,prices_inflation,Prices & inflation,prices,-0.009450469623893275,0.009450469623893275
2007-04,2007Q2,2007-06,real_activity_income,Real activity & income,real_activity,0.9119088732519997,0.9119088732519997
2007-05,2007Q2,2007-06,demand_orders_inventories,Demand / orders / inventories,demand,0.15190359445596166,0.15190359445596166
2007-05,2007Q2,2007-06,financial_conditions,Financial conditions,financial,0.04324045295174242,0.04324045295174242
2007-05,2007Q2,2007-06,housing_construction,Housing & construction,housing,0.06190143031940443,0.06190143031940443
2007-05,2007Q2,2007-06,labor_market,Labor market,labor,-0.36091939682034074,0.36091939682034074
2007-05,2007Q2,2007-06,prices_inflation,Prices & inflation,prices,-0.0035784627566890275,0.0035784627566890275
2007-05,2007Q2,2007-06,real_activity_income,Real activity & income,real_activity,-0.029188182912664118,0.029188182912664118
2007-05,2007Q2,2007-06,,,,0.11344650823029888,0.11344650823029888
2007-06,2007Q2,2007-06,demand_orders_inventories,Demand / orders / inventories,demand,-0.041300675977263335,0.041300675977263335
2007-06,2007Q2,2007-06,financial_conditions,Financial conditions,financial,0.0010588302171641137,0.0010588302171641137
2007-06,2007Q2,2007-06,housing_construction,Housing & construction,housing,0.0043470152675149955,0.0043470152675149955
2007-06,2007Q2,2007-06,labor_market,Labor market,labor,0.06887934743156889,0.06887934743156889
2007-06,2007Q2,2007-06,prices_inflation,Prices & inflation,prices,0.004444564248299398,0.004444564248299398
2007-06,2007Q2,2007-06,real_activity_income,Real activity & income,real_activity,-0.545416437550126,0.545416437550126
2007-07,2007Q3,2007-09,demand_orders_inventories,Demand / orders / inventories,demand,0.03743504234836684,0.03743504234836684
2007-07,2007Q3,2007-09,financial_conditions,Financial conditions,financial,0.11302080345601445,0.11302080345601445
2007-07,2007Q3,2007-09,housing_construction,Housing & construction,housing,0.016232620431835085,0.016232620431835085
2007-07,2007Q3,2007-09,labor_market,Labor market,labor,-0.03286777479242681,0.03286777479242681
2007-07,2007Q3,2007-09,prices_inflation,Prices & inflation,prices,0.007382421406630885,0.007382421406630885
2007-07,2007Q3,2007-09,real_activity_income,Real activity & income,real_activity,0.23608368008810718,0.23608368008810718
2007-08,2007Q3,2007-09,demand_orders_inventories,Demand / orders / inventories,demand,0.257133274996712,0.257133274996712
2007-08,2007Q3,2007-09,financial_conditions,Financial conditions,financial,-0.04702405093568152,0.04702405093568152
2007-08,2007Q3,2007-09,housing_construction,Housing & construction,housing,-0.07749333572998666,0.07749333572998666
2007-08,2007Q3,2007-09,labor_market,Labor market,labor,-0.029553678200533083,0.029553678200533083
2007-08,2007Q3,2007-09,prices_inflation,Prices & inflation,prices,-0.009272648445362467,0.009272648445362467
2007-08,2007Q3,2007-09,real_activity_income,Real activity & income,real_activity,0.40059038639208877,0.40059038639208877
2007-08,2007Q3,2007-09,,,,-0.0057538953503426605,0.0057538953503426605
2007-09,2007Q3,2007-09,demand_orders_inventories,Demand / orders / inventories,demand,-0.06895487915190697,0.06895487915190697
2007-09,2007Q3,2007-09,financial_conditions,Financial conditions,financial,-0.05807931715759814,0.05807931715759814
2007-09,2007Q3,2007-09,housing_construction,Housing & construction,housing,-0.03300538361339731,0.03300538361339731
2007-09,2007Q3,2007-09,labor_market,Labor market,labor,-0.3013450243450142,0.3013450243450142
2007-09,2007Q3,2007-09,prices_inflation,Prices & inflation,prices,-0.002286524786753754,0.002286524786753754
2007-09,2007Q3,2007-09,real_activity_income,Real activity & income,real_activity,-0.3485337001436547,0.3485337001436547
2007-10,2007Q4,2007-12,demand_orders_inventories,Demand / orders / inventories,demand,-0.13024348454997678,0.13024348454997678
2007-10,2007Q4,2007-12,financial_conditions,Financial conditions,financial,0.0009222580751556413,0.0009222580751556413
2007-10,2007Q4,2007-12,housing_construction,Housing & construction,housing,-0.3486736007918471,0.3486736007918471
2007-10,2007Q4,2007-12,labor_market,Labor market,labor,0.14282344687929363,0.14282344687929363
2007-10,2007Q4,2007-12,prices_inflation,Prices & inflation,prices,0.005630377778850049,0.005630377778850049
2007-10,2007Q4,2007-12,real_activity_income,Real activity & income,real_activity,0.12368325435204357,0.12368325435204357
2007-11,2007Q4,2007-12,demand_orders_inventories,Demand / orders / inventories,demand,0.02840083788340456,0.02840083788340456
2007-11,2007Q4,2007-12,financial_conditions,Financial conditions,financial,0.03367797388769172,0.03367797388769172
2007-11,2007Q4,2007-12,housing_construction,Housing & construction,housing,0.06392513531185126,0.06392513531185126
2007-11,2007Q4,2007-12,labor_market,Labor market,labor,-0.011847143146158886,0.011847143146158886
2007-11,2007Q4,2007-12,prices_inflation,Prices & inflation,prices,0.01161790051838107,0.01161790051838107
2007-11,2007Q4,2007-12,real_activity_income,Real activity & income,real_activity,-0.24833140574761028,0.24833140574761028
2007-11,2007Q4,2007-12,,,,-0.09956416654245363,0.09956416654245363
2007-12,2007Q4,2007-12,demand_orders_inventories,Demand / orders / inventories,demand,0.14163000566846565,0.14163000566846565
2007-12,2007Q4,2007-12,financial_conditions,Financial conditions,financial,-0.10706518418197304,0.10706518418197304
2007-12,2007Q4,2007-12,housing_construction,Housing & construction,housing,-0.02867919232445286,0.02867919232445286
2007-12,2007Q4,2007-12,labor_market,Labor market,labor,-0.01021268768403897,0.01021268768403897
2007-12,2007Q4,2007-12,prices_inflation,Prices & inflation,prices,-0.00448119702150012,0.00448119702150012
2007-12,2007Q4,2007-12,real_activity_income,Real activity & income,real_activity,0.0677858162254436,0.0677858162254436
2008-01,2008Q1,2008-03,demand_orders_inventories,Demand / orders / inventories,demand,0.27228127986656475,0.27228127986656475
2008-01,2008Q1,2008-03,financial_conditions,Financial conditions,financial,0.06787454904734924,0.06787454904734924
2008-01,2008Q1,2008-03,housing_construction,Housing & construction,housing,-0.5973707577824449,0.5973707577824449
2008-01,2008Q1,2008-03,labor_market,Labor market,labor,-0.308002901222653,0.308002901222653
2008-01,2008Q1,2008-03,prices_inflation,Prices & inflation,prices,0.011954301857244545,0.011954301857244545
2008-01,2008Q1,2008-03,real_activity_income,Real activity & income,real_activity,0.028771223666639464,0.028771223666639464
2008-02,2008Q1,2008-03,demand_orders_inventories,Demand / orders / inventories,demand,-0.1839580402679637,0.1839580402679637
2008-02,2008Q1,2008-03,financial_conditions,Financial conditions,financial,-0.0850331509270968,0.0850331509270968
2008-02,2008Q1,2008-03,housing_construction,Housing & construction,housing,-0.04866262942242784,0.04866262942242784
2008-02,2008Q1,2008-03,labor_market,Labor market,labor,0.10764581374334549,0.10764581374334549
2008-02,2008Q1,2008-03,prices_inflation,Prices & inflation,prices,0.004106565889646147,0.004106565889646147
2008-02,2008Q1,2008-03,real_activity_income,Real activity & income,real_activity,-0.0017997833431322163,0.0017997833431322163
2008-02,2008Q1,2008-03,,,,0.11139921706576618,0.11139921706576618
2008-03,2008Q1,2008-03,demand_orders_inventories,Demand / orders / inventories,demand,0.005682368719110667,0.005682368719110667
2008-03,2008Q1,2008-03,financial_conditions,Financial conditions,financial,0.004882201377180737,0.004882201377180737
2008-03,2008Q1,2008-03,housing_construction,Housing & construction,housing,-0.03629383564089717,0.03629383564089717
2008-03,2008Q1,2008-03,labor_market,Labor market,labor,-0.07620109445260748,0.07620109445260748
2008-03,2008Q1,2008-03,prices_inflation,Prices & inflation,prices,-0.015868183189166617,0.015868183189166617
2008-03,2008Q1,2008-03,real_activity_income,Real activity & income,real_activity,0.027796262617930206,0.027796262617930206
2008-04,2008Q2,2008-06,demand_orders_inventories,Demand / orders / inventories,demand,-0.024546002174023425,0.024546002174023425
2008-04,2008Q2,2008-06,financial_conditions,Financial conditions,financial,0.057548913317520246,0.057548913317520246
2008-04,2008Q2,2008-06,housing_construction,Housing & construction,housing,-0.5646044451247776,0.5646044451247776
2008-04,2008Q2,2008-06,labor_market,Labor market,labor,-0.5900020994620617,0.5900020994620617
2008-04,2008Q2,2008-06,prices_inflation,Prices & inflation,prices,0.017570867582463782,0.017570867582463782
2008-04,2008Q2,2008-06,real_activity_income,Real activity & income,real_activity,0.11622886613012806,0.11622886613012806
2008-05,2008Q2,2008-06,demand_orders_inventories,Demand / orders / inventories,demand,0.034280530481694764,0.034280530481694764
2008-05,2008Q2,2008-06,financial_conditions,Financial conditions,financial,0.2096688378437691,0.2096688378437691
2008-05,2008Q2,2008-06,housing_construction,Housing & construction,housing,-0.020307175188453465,0.020307175188453465
2008-05,2008Q2,2008-06,labor_market,Labor market,labor,0.060445703013238594,0.060445703013238594
2008-05,2008Q2,2008-06,prices_inflation,Prices & inflation,prices,0.0026892512496169137,0.0026892512496169137
2008-05,2008Q2,2008-06,real_activity_income,Real activity & income,real_activity,-0.3844302156684447,0.3844302156684447
2008-05,2008Q2,2008-06,,,,0.07467021654582232,0.07467021654582232
2008-06,2008Q2,2008-06,demand_orders_inventories,Demand / orders / inventories,demand,0.2103950333891802,0.2103950333891802
2008-06,2008Q2,2008-06,financial_conditions,Financial conditions,financial,0.0865936011020312,0.0865936011020312
2008-06,2008Q2,2008-06,housing_construction,Housing & construction,housing,-0.04003951401783722,0.04003951401783722
2008-06,2008Q2,2008-06,labor_market,Labor market,labor,-0.11951507964249604,0.11951507964249604
2008-06,2008Q2,2008-06,prices_inflation,Prices & inflation,prices,0.018057873732500174,0.018057873732500174
2008-06,2008Q2,2008-06,real_activity_income,Real activity & income,real_activity,0.2725182006721698,0.2725182006721698
2008-07,2008Q3,2008-09,demand_orders_inventories,Demand / orders / inventories,demand,0.04878801420916801,0.04878801420916801
2008-07,2008Q3,2008-09,financial_conditions,Financial conditions,financial,0.2571131479328095,0.2571131479328095
2008-07,2008Q3,2008-09,housing_construction,Housing & construction,housing,0.1851702701615758,0.1851702701615758
2008-07,2008Q3,2008-09,labor_market,Labor market,labor,-0.31626262250423876,0.31626262250423876
2008-07,2008Q3,2008-09,prices_inflation,Prices & inflation,prices,0.017295729480547008,0.017295729480547008
2008-07,2008Q3,2008-09,real_activity_income,Real activity & income,real_activity,-0.019022488722323427,0.019022488722323427
2008-08,2008Q3,2008-09,demand_orders_inventories,Demand / orders / inventories,demand,0.027260156413558608,0.027260156413558608
2008-08,2008Q3,2008-09,financial_conditions,Financial conditions,financial,0.02818541926074009,0.02818541926074009
2008-08,2008Q3,2008-09,housing_construction,Housing & construction,housing,-0.23994738287775275,0.23994738287775275
2008-08,2008Q3,2008-09,labor_market,Labor market,labor,-0.39316434453403754,0.39316434453403754
2008-08,2008Q3,2008-09,prices_inflation,Prices & inflation,prices,0.007561547522503221,0.007561547522503221
2008-08,2008Q3,2008-09,real_activity_income,Real activity & income,real_activity,-0.6397561933279701,0.6397561933279701
2008-08,2008Q3,2008-09,,,,-0.09507210829082473,0.09507210829082473
2008-09,2008Q3,2008-09,demand_orders_inventories,Demand / orders / inventories,demand,-0.03144358882137005,0.03144358882137005
2008-09,2008Q3,2008-09,financial_conditions,Financial conditions,financial,0.052699054165999994,0.052699054165999994
2008-09,2008Q3,2008-09,housing_construction,Housing & construction,housing,-0.06746991561856643,0.06746991561856643
2008-09,2008Q3,2008-09,labor_market,Labor market,labor,-0.3508494580888908,0.3508494580888908
2008-09,2008Q3,2008-09,prices_inflation,Prices & inflation,prices,-0.021625674270052263,0.021625674270052263
2008-09,2008Q3,2008-09,real_activity_income,Real activity & income,real_activity,-0.14503213941182597,0.14503213941182597
2008-10,2008Q4,2008-12,demand_orders_inventories,Demand / orders / inventories,demand,-0.137986302605791,0.137986302605791
2008-10,2008Q4,2008-12,financial_conditions,Financial conditions,financial,0.02738656350712697,0.02738656350712697
2008-10,2008Q4,2008-12,housing_construction,Housing & construction,housing,-0.36655972846186907,0.36655972846186907
2008-10,2008Q4,2008-12,labor_market,Labor market,labor,-0.23226025155949723,0.23226025155949723
2008-10,2008Q4,2008-12,prices_inflation,Prices & inflation,prices,-0.022681305485132208,0.022681305485132208
2008-10,2008Q4,2008-12,real_activity_income,Real activity & income,real_activity,-1.9725637147055906,1.9725637147055906
2008-11,2008Q4,2008-12,demand_orders_inventories,Demand / orders / inventories,demand,-0.23030932230207043,0.23030932230207043
2008-11,2008Q4,2008-12,financial_conditions,Financial conditions,financial,0.3052943608878303,0.3052943608878303
2008-11,2008Q4,2008-12,housing_construction,Housing & construction,housing,-0.35489036628732634,0.35489036628732634
2008-11,2008Q4,2008-12,labor_market,Labor market,labor,0.20635063731696413,0.20635063731696413
2008-11,2008Q4,2008-12,prices_inflation,Prices & inflation,prices,-0.002958814909372935,0.002958814909372935
2008-11,2008Q4,2008-12,real_activity_income,Real activity & income,real_activity,1.770048380812113,1.770048380812113
2008-11,2008Q4,2008-12,,,,-0.07594310001962601,0.07594310001962601
2008-12,2008Q4,2008-12,demand_orders_inventories,Demand / orders / inventories,demand,-0.02230131752458358,0.02230131752458358
2008-12,2008Q4,2008-12,financial_conditions,Financial conditions,financial,-0.03929991158518257,0.03929991158518257
2008-12,2008Q4,2008-12,housing_construction,Housing & construction,housing,-0.18850496163531832,0.18850496163531832
2008-12,2008Q4,2008-12,labor_market,Labor market,labor,-0.3391619670482853,0.3391619670482853
2008-12,2008Q4,2008-12,prices_inflation,Prices & inflation,prices,-0.01834431701623654,0.01834431701623654
2008-12,2008Q4,2008-12,real_activity_income,Real activity & income,real_activity,0.48188974482818525,0.48188974482818525
2009-01,2009Q1,2009-03,demand_orders_inventories,Demand / orders / inventories,demand,-0.46359805337700644,0.46359805337700644
2009-01,2009Q1,2009-03,financial_conditions,Financial conditions,financial,-0.22364160493864374,0.22364160493864374
2009-01,2009Q1,2009-03,housing_construction,Housing & construction,housing,-0.8923488026329629,0.8923488026329629
2009-01,2009Q1,2009-03,labor_market,Labor market,labor,-0.5868243569396406,0.5868243569396406
2009-01,2009Q1,2009-03,prices_inflation,Prices & inflation,prices,0.09109337371802342,0.09109337371802342
2009-01,2009Q1,2009-03,real_activity_income,Real activity & income,real_activity,-0.6812719811532728,0.6812719811532728
2009-02,2009Q1,2009-03,demand_orders_inventories,Demand / orders / inventories,demand,0.043200437761023794,0.043200437761023794
2009-02,2009Q1,2009-03,financial_conditions,Financial conditions,financial,0.2612164765573165,0.2612164765573165
2009-02,2009Q1,2009-03,housing_construction,Housing & construction,housing,-0.9883605820210187,0.9883605820210187
2009-02,2009Q1,2009-03,labor_market,Labor market,labor,-0.2803091047552957,0.2803091047552957
2009-02,2009Q1,2009-03,prices_inflation,Prices & inflation,prices,0.04540356697375275,0.04540356697375275
2009-02,2009Q1,2009-03,real_activity_income,Real activity & income,real_activity,-0.36907338762503017,0.36907338762503017
2009-02,2009Q1,2009-03,,,,-0.05150669457129454,0.05150669457129454
2009-03,2009Q1,2009-03,demand_orders_inventories,Demand / orders / inventories,demand,0.545953543599928,0.545953543599928
2009-03,2009Q1,2009-03,financial_conditions,Financial conditions,financial,0.12290202575554282,0.12290202575554282
2009-03,2009Q1,2009-03,housing_construction,Housing & construction,housing,0.06951341650984197,0.06951341650984197
2009-03,2009Q1,2009-03,labor_market,Labor market,labor,-0.05409808844534711,0.05409808844534711
2009-03,2009Q1,2009-03,prices_inflation,Prices & inflation,prices,-0.0023906271577595456,0.0023906271577595456
2009-03,2009Q1,2009-03,real_activity_income,Real activity & income,real_activity,1.1025776156251637,1.1025776156251637
2009-04,2009Q2,2009-06,demand_orders_inventories,Demand / orders / inventories,demand,0.13027080234841673,0.13027080234841673
2009-04,2009Q2,2009-06,financial_conditions,Financial conditions,financial,-0.026252304464471538,0.026252304464471538
2009-04,2009Q2,2009-06,housing_construction,Housing & construction,housing,-0.49258515010185916,0.49258515010185916
2009-04,2009Q2,2009-06,labor_market,Labor market,labor,-0.5532704531566425,0.5532704531566425
2009-04,2009Q2,2009-06,prices_inflation,Prices & inflation,prices,0.007837318553697759,0.007837318553697759
2009-04,2009Q2,2009-06,real_activity_income,Real activity & income,real_activity,-0.6346239714397954,0.6346239714397954
2009-05,2009Q2,2009-06,demand_orders_inventories,Demand / orders / inventories,demand,0.29903178337402336,0.29903178337402336
2009-05,2009Q2,2009-06,financial_conditions,Financial conditions,financial,0.07386887413750137,0.07386887413750137
2009-05,2009Q2,2009-06,housing_construction,Housing & construction,housing,-0.7378357231204722,0.7378357231204722
2009-05,2009Q2,2009-06,labor_market,Labor market,labor,0.31371515946061956,0.31371515946061956
2009-05,2009Q2,2009-06,prices_inflation,Prices & inflation,prices,0.009277170956760663,0.009277170956760663
2009-05,2009Q2,2009-06,real_activity_income,Real activity & income,real_activity,0.9243001550082077,0.9243001550082077
2009-05,2009Q2,2009-06,,,,-0.02298819586259958,0.02298819586259958
2009-06,2009Q2,2009-06,demand_orders_inventories,Demand / orders / inventories,demand,0.3273085681961392,0.3273085681961392
2009-06,2009Q2,2009-06,financial_conditions,Financial conditions,financial,0.09035485793291737,0.09035485793291737
2009-06,2009Q2,2009-06,housing_construction,Housing & construction,housing,-0.01942037549800865,0.01942037549800865
2009-06,2009Q2,2009-06,labor_market,Labor market,labor,0.05140080597886036,0.05140080597886036
2009-06,2009Q2,2009-06,prices_inflation,Prices & inflation,prices,-0.0019341427699997695,0.0019341427699997695
2009-06,2009Q2,2009-06,real_activity_income,Real activity & income,real_activity,0.7856190978880039,0.7856190978880039
2009-07,2009Q3,2009-09,demand_orders_inventories,Demand / orders / inventories,demand,0.02578334844668921,0.02578334844668921
2009-07,2009Q3,2009-09,financial_conditions,Financial conditions,financial,0.17539887891987863,0.17539887891987863
2009-07,2009Q3,2009-09,housing_construction,Housing & construction,housing,-0.019843607281152878,0.019843607281152878
2009-07,2009Q3,2009-09,labor_market,Labor market,labor,-0.07743610798104823,0.07743610798104823
2009-07,2009Q3,2009-09,prices_inflation,Prices & inflation,prices,-0.008234940759117453,0.008234940759117453
2009-07,2009Q3,2009-09,real_activity_income,Real activity & income,real_activity,0.07541833093999895,0.07541833093999895
2009-08,2009Q3,2009-09,demand_orders_inventories,Demand / orders / inventories,demand,0.1981831828823564,0.1981831828823564
2009-08,2009Q3,2009-09,financial_conditions,Financial conditions,financial,0.018001930906241664,0.018001930906241664
2009-08,2009Q3,2009-09,housing_construction,Housing & construction,housing,-0.19577213567957125,0.19577213567957125
2009-08,2009Q3,2009-09,labor_market,Labor market,labor,0.6012784385016459,0.6012784385016459
2009-08,2009Q3,2009-09,prices_inflation,Prices & inflation,prices,0.041230240922304505,0.041230240922304505
2009-08,2009Q3,2009-09,real_activity_income,Real activity & income,real_activity,0.8646106149009286,0.8646106149009286
2009-08,2009Q3,2009-09,,,,-0.13577842775107998,0.13577842775107998
2009-09,2009Q3,2009-09,demand_orders_inventories,Demand / orders / inventories,demand,-0.004952561009038042,0.004952561009038042
2009-09,2009Q3,2009-09,financial_conditions,Financial conditions,financial,-0.017730134738521006,0.017730134738521006
2009-09,2009Q3,2009-09,housing_construction,Housing & construction,housing,-0.033567163078673426,0.033567163078673426
2009-09,2009Q3,2009-09,labor_market,Labor market,labor,-0.2990039877876729,0.2990039877876729
2009-09,2009Q3,2009-09,prices_inflation,Prices & inflation,prices,0.003931644680396976,0.003931644680396976
2009-09,2009Q3,2009-09,real_activity_income,Real activity & income,real_activity,0.10678669832162724,0.10678669832162724
2009-10,2009Q4,2009-12,demand_orders_inventories,Demand / orders / inventories,demand,-0.16879294748406257,0.16879294748406257
2009-10,2009Q4,2009-12,financial_conditions,Financial conditions,financial,-0.02017358920501053,0.02017358920501053
2009-10,2009Q4,2009-12,housing_construction,Housing & construction,housing,-0.2091515376388712,0.2091515376388712
2009-10,2009Q4,2009-12,labor_market,Labor market,labor,-0.26408976511622334,0.26408976511622334
2009-10,2009Q4,2009-12,prices_inflation,Prices & inflation,prices,0.018978604615488504,0.018978604615488504
2009-10,2009Q4,2009-12,real_activity_income,Real activity & income,real_activity,-0.082915618634384,0.082915618634384
2009-11,2009Q4,2009-12,demand_orders_inventories,Demand / orders / inventories,demand,0.026965344882658858,0.026965344882658858
2009-11,2009Q4,2009-12,financial_conditions,Financial conditions,financial,0.023033011693358987,0.023033011693358987
2009-11,2009Q4,2009-12,housing_construction,Housing & construction,housing,-0.376284242916808,0.376284242916808
2009-11,2009Q4,2009-12,labor_market,Labor market,labor,-0.18732524358651975,0.18732524358651975
2009-11,2009Q4,2009-12,prices_inflation,Prices & inflation,prices,-0.003033493390341863,0.003033493390341863
2009-11,2009Q4,2009-12,real_activity_income,Real activity & income,real_activity,-0.5123821036490273,0.5123821036490273
2009-11,2009Q4,2009-12,,,,-0.12968134224850375,0.12968134224850375
2009-12,2009Q4,2009-12,demand_orders_inventories,Demand / orders / inventories,demand,0.16017561032749336,0.16017561032749336
2009-12,2009Q4,2009-12,financial_conditions,Financial conditions,financial,0.08308913987736631,0.08308913987736631
2009-12,2009Q4,2009-12,housing_construction,Housing & construction,housing,-0.010736971192119726,0.010736971192119726
2009-12,2009Q4,2009-12,labor_market,Labor market,labor,0.43083576416627534,0.43083576416627534
2009-12,2009Q4,2009-12,prices_inflation,Prices & inflation,prices,-0.01850549277624177,0.01850549277624177
2009-12,2009Q4,2009-12,real_activity_income,Real activity & income,real_activity,0.6215079445457355,0.6215079445457355
2010-01,2010Q1,2010-03,demand_orders_inventories,Demand / orders / inventories,demand,-0.10194832871086557,0.10194832871086557
2010-01,2010Q1,2010-03,financial_conditions,Financial conditions,financial,-0.018010636537086983,0.018010636537086983
2010-01,2010Q1,2010-03,housing_construction,Housing & construction,housing,-0.46259399584410815,0.46259399584410815
2010-01,2010Q1,2010-03,labor_market,Labor market,labor,0.04367271458981917,0.04367271458981917
2010-01,2010Q1,2010-03,prices_inflation,Prices & inflation,prices,0.016362895931138714,0.016362895931138714
2010-01,2010Q1,2010-03,real_activity_income,Real activity & income,real_activity,-0.4665669020468829,0.4665669020468829
2010-02,2010Q1,2010-03,demand_orders_inventories,Demand / orders / inventories,demand,0.1442456899647371,0.1442456899647371
2010-02,2010Q1,2010-03,financial_conditions,Financial conditions,financial,0.010469561724739684,0.010469561724739684
2010-02,2010Q1,2010-03,housing_construction,Housing & construction,housing,-0.08993473847876116,0.08993473847876116
2010-02,2010Q1,2010-03,labor_market,Labor market,labor,0.3370481803730885,0.3370481803730885
2010-02,2010Q1,2010-03,prices_inflation,Prices & inflation,prices,-0.047042413629912225,0.047042413629912225
2010-02,2010Q1,2010-03,real_activity_income,Real activity & income,real_activity,0.5036902827312999,0.5036902827312999
2010-02,2010Q1,2010-03,,,,-0.18686187856421346,0.18686187856421346
2010-03,2010Q1,2010-03,demand_orders_inventories,Demand / orders / inventories,demand,-0.003546961479528171,0.003546961479528171
2010-03,2010Q1,2010-03,financial_conditions,Financial conditions,financial,0.0021517824891525168,0.0021517824891525168
2010-03,2010Q1,2010-03,housing_construction,Housing & construction,housing,-0.05647359108293319,0.05647359108293319
2010-03,2010Q1,2010-03,labor_market,Labor market,labor,-0.024144578913908983,0.024144578913908983
2010-03,2010Q1,2010-03,prices_inflation,Prices & inflation,prices,0.03687161330036613,0.03687161330036613
2010-03,2010Q1,2010-03,real_activity_income,Real activity & income,real_activity,-0.5207264006722472,0.5207264006722472
2010-04,2010Q2,2010-06,demand_orders_inventories,Demand / orders / inventories,demand,-0.04252752295914865,0.04252752295914865
2010-04,2010Q2,2010-06,financial_conditions,Financial conditions,financial,0.05754520234320494,0.05754520234320494
2010-04,2010Q2,2010-06,housing_construction,Housing & construction,housing,-0.3100971489100899,0.3100971489100899
2010-04,2010Q2,2010-06,labor_market,Labor market,labor,0.4629538500995905,0.4629538500995905
2010-04,2010Q2,2010-06,prices_inflation,Prices & inflation,prices,0.02478517631371258,0.02478517631371258
2010-04,2010Q2,2010-06,real_activity_income,Real activity & income,real_activity,0.5174794911555154,0.5174794911555154
2010-05,2010Q2,2010-06,demand_orders_inventories,Demand / orders / inventories,demand,0.15964081629497928,0.15964081629497928
2010-05,2010Q2,2010-06,financial_conditions,Financial conditions,financial,0.07373313451512378,0.07373313451512378
2010-05,2010Q2,2010-06,housing_construction,Housing & construction,housing,0.09951118912233378,0.09951118912233378
2010-05,2010Q2,2010-06,labor_market,Labor market,labor,0.07000969947743324,0.07000969947743324
2010-05,2010Q2,2010-06,prices_inflation,Prices & inflation,prices,-0.0044420958244082735,0.0044420958244082735
2010-05,2010Q2,2010-06,real_activity_income,Real activity & income,real_activity,0.440733252670406,0.440733252670406
2010-05,2010Q2,2010-06,,,,0.021604762835171654,0.021604762835171654
2010-06,2010Q2,2010-06,demand_orders_inventories,Demand / orders / inventories,demand,-0.14256646234794984,0.14256646234794984
2010-06,2010Q2,2010-06,financial_conditions,Financial conditions,financial,-0.029462932042189464,0.029462932042189464
2010-06,2010Q2,2010-06,housing_construction,Housing & construction,housing,-0.04895903920536772,0.04895903920536772
2010-06,2010Q2,2010-06,labor_market,Labor market,labor,0.07478135266751025,0.07478135266751025
2010-06,2010Q2,2010-06,prices_inflation,Prices & inflation,prices,0.007883568121096758,0.007883568121096758
2010-06,2010Q2,2010-06,real_activity_income,Real activity & income,real_activity,0.16370236115092615,0.16370236115092615
2010-07,2010Q3,2010-09,demand_orders_inventories,Demand / orders / inventories,demand,-0.2664962780874697,0.2664962780874697
2010-07,2010Q3,2010-09,financial_conditions,Financial conditions,financial,-0.06446346932179445,0.06446346932179445
2010-07,2010Q3,2010-09,housing_construction,Housing & construction,housing,-0.2781486327372757,0.2781486327372757
2010-07,2010Q3,2010-09,labor_market,Labor market,labor,-0.5455058126588501,0.5455058126588501
2010-07,2010Q3,2010-09,prices_inflation,Prices & inflation,prices,-0.011900812879573622,0.011900812879573622
2010-07,2010Q3,2010-09,real_activity_income,Real activity & income,real_activity,-0.7054243733240992,0.7054243733240992
2010-08,2010Q3,2010-09,demand_orders_inventories,Demand / orders / inventories,demand,0.008548026231948168,0.008548026231948168
2010-08,2010Q3,2010-09,financial_conditions,Financial conditions,financial,0.04795136724314505,0.04795136724314505
2010-08,2010Q3,2010-09,housing_construction,Housing & construction,housing,-0.01845801243737158,0.01845801243737158
2010-08,2010Q3,2010-09,labor_market,Labor market,labor,0.09538294534870823,0.09538294534870823
2010-08,2010Q3,2010-09,prices_inflation,Prices & inflation,prices,0.0001734408781970849,0.0001734408781970849
2010-08,2010Q3,2010-09,real_activity_income,Real activity & income,real_activity,0.7280849685807097,0.7280849685807097
2010-08,2010Q3,2010-09,,,,0.16909022826717424,0.16909022826717424
2010-09,2010Q3,2010-09,demand_orders_inventories,Demand / orders / inventories,demand,0.00682662653797866,0.00682662653797866
2010-09,2010Q3,2010-09,financial_conditions,Financial conditions,financial,0.019948332131385006,0.019948332131385006
2010-09,2010Q3,2010-09,housing_construction,Housing & construction,housing,-0.007546326445798725,0.007546326445798725
2010-09,2010Q3,2010-09,labor_market,Labor market,labor,-0.27251848967922615,0.27251848967922615
2010-09,2010Q3,2010-09,prices_inflation,Prices & inflation,prices,-0.011014062908146542,0.011014062908146542
2010-09,2010Q3,2010-09,real_activity_income,Real activity & income,real_activity,0.12359049662811397,0.12359049662811397
2010-10,2010Q4,2010-12,demand_orders_inventories,Demand / orders / inventories,demand,0.17080670023510536,0.17080670023510536
2010-10,2010Q4,2010-12,financial_conditions,Financial conditions,financial,-0.00964044449708161,0.00964044449708161
2010-10,2010Q4,2010-12,housing_construction,Housing & construction,housing,-0.13401408864220074,0.13401408864220074
2010-10,2010Q4,2010-12,labor_market,Labor market,labor,-0.04196826508090224,0.04196826508090224
2010-10,2010Q4,2010-12,prices_inflation,Prices & inflation,prices,-0.008317554239046747,0.008317554239046747
2010-10,2010Q4,2010-12,real_activity_income,Real activity & income,real_activity,-0.26339739645888277,0.26339739645888277
2010-11,2010Q4,2010-12,demand_orders_inventories,Demand / orders / inventories,demand,-0.02874011909799858,0.02874011909799858
2010-11,2010Q4,2010-12,financial_conditions,Financial conditions,financial,0.024590130452136733,0.024590130452136733
2010-11,2010Q4,2010-12,housing_construction,Housing & construction,housing,-0.20751054506890276,0.20751054506890276
2010-11,2010Q4,2010-12,labor_market,Labor market,labor,0.0772578371234897,0.0772578371234897
2010-11,2010Q4,2010-12,prices_inflation,Prices & inflation,prices,0.00035946398307115136,0.00035946398307115136
2010-11,2010Q4,2010-12,real_activity_income,Real activity & income,real_activity,0.2829858240535,0.2829858240535
2010-11,2010Q4,2010-12,,,,0.062147439618432124,0.062147439618432124
2010-12,2010Q4,2010-12,demand_orders_inventories,Demand / orders / inventories,demand,-0.0710896788872492,0.0710896788872492
2010-12,2010Q4,2010-12,financial_conditions,Financial conditions,financial,0.012050267748271648,0.012050267748271648
2010-12,2010Q4,2010-12,housing_construction,Housing & construction,housing,0.004558907222123646,0.004558907222123646
2010-12,2010Q4,2010-12,labor_market,Labor market,labor,0.03758010022110262,0.03758010022110262
2010-12,2010Q4,2010-12,prices_inflation,Prices & inflation,prices,0.00442599246132004,0.00442599246132004
2010-12,2010Q4,2010-12,real_activity_income,Real activity & income,real_activity,0.17447427325459378,0.17447427325459378
2011-01,2011Q1,2011-03,demand_orders_inventories,Demand / orders / inventories,demand,-0.17452889795550425,0.17452889795550425
2011-01,2011Q1,2011-03,financial_conditions,Financial conditions,financial,0.048126444935741024,0.048126444935741024
2011-01,2011Q1,2011-03,housing_construction,Housing & construction,housing,-0.45124327508096845,0.45124327508096845
2011-01,2011Q1,2011-03,labor_market,Labor market,labor,0.3285321671804806,0.3285321671804806
2011-01,2011Q1,2011-03,prices_inflation,Prices & inflation,prices,0.0019839762102257918,0.0019839762102257918
2011-01,2011Q1,2011-03,real_activity_income,Real activity & income,real_activity,-0.016050651895510294,0.016050651895510294
2011-02,2011Q1,2011-03,demand_orders_inventories,Demand / orders / inventories,demand,0.07339391427010658,0.07339391427010658
2011-02,2011Q1,2011-03,financial_conditions,Financial conditions,financial,0.0022353767352253986,0.0022353767352253986
2011-02,2011Q1,2011-03,housing_construction,Housing & construction,housing,0.2066309165680926,0.2066309165680926
2011-02,2011Q1,2011-03,labor_market,Labor market,labor,0.10806494970372668,0.10806494970372668
2011-02,2011Q1,2011-03,prices_inflation,Prices & inflation,prices,-0.006360704809793156,0.006360704809793156
2011-02,2011Q1,2011-03,real_activity_income,Real activity & income,real_activity,0.3856531811378129,0.3856531811378129
2011-02,2011Q1,2011-03,,,,-0.020209829537224423,0.020209829537224423
2011-03,2011Q1,2011-03,demand_orders_inventories,Demand / orders / inventories,demand,0.059529514403460826,0.059529514403460826
2011-03,2011Q1,2011-03,financial_conditions,Financial conditions,financial,-0.011148987746763931,0.011148987746763931
2011-03,2011Q1,2011-03,housing_construction,Housing & construction,housing,-0.13343629037339105,0.13343629037339105
2011-03,2011Q1,2011-03,labor_market,Labor market,labor,0.0783633705353525,0.0783633705353525
2011-03,2011Q1,2011-03,prices_inflation,Prices & inflation,prices,0.0034159864467425234,0.0034159864467425234
2011-03,2011Q1,2011-03,real_activity_income,Real activity & income,real_activity,-0.12469341828348486,0.12469341828348486
2011-04,2011Q2,2011-06,demand_orders_inventories,Demand / orders / inventories,demand,-0.04712185053513542,0.04712185053513542
2011-04,2011Q2,2011-06,financial_conditions,Financial conditions,financial,0.015346679208315284,0.015346679208315284
2011-04,2011Q2,2011-06,housing_construction,Housing & construction,housing,0.05480116181810752,0.05480116181810752
2011-04,2011Q2,2011-06,labor_market,Labor market,labor,0.05877318270492646,0.05877318270492646
2011-04,2011Q2,2011-06,prices_inflation,Prices & inflation,prices,-0.007014093214601808,0.007014093214601808
2011-04,2011Q2,2011-06,real_activity_income,Real activity & income,real_activity,0.051998126648031856,0.051998126648031856
2011-05,2011Q2,2011-06,demand_orders_inventories,Demand / orders / inventories,demand,-0.06528280425667574,0.06528280425667574
2011-05,2011Q2,2011-06,financial_conditions,Financial conditions,financial,-0.001767171081783073,0.001767171081783073
2011-05,2011Q2,2011-06,housing_construction,Housing & construction,housing,-0.17404812500706582,0.17404812500706582
2011-05,2011Q2,2011-06,labor_market,Labor market,labor,-0.3061221632705259,0.3061221632705259
2011-05,2011Q2,2011-06,prices_inflation,Prices & inflation,prices,-0.0009390226606996602,0.0009390226606996602
2011-05,2011Q2,2011-06,real_activity_income,Real activity & income,real_activity,-0.7282459214313338,0.7282459214313338
2011-05,2011Q2,2011-06,,,,0.18710036060854288,0.18710036060854288
2011-06,2011Q2,2011-06,demand_orders_inventories,Demand / orders / inventories,demand,-0.024473686893843508,0.024473686893843508
2011-06,2011Q2,2011-06,financial_conditions,Financial conditions,financial,0.007607949598509925,0.007607949598509925
2011-06,2011Q2,2011-06,housing_construction,Housing & construction,housing,-0.03182148075426561,0.03182148075426561
2011-06,2011Q2,2011-06,labor_market,Labor market,labor,-0.059715530343939276,0.059715530343939276
2011-06,2011Q2,2011-06,prices_inflation,Prices & inflation,prices,0.020674325350756195,0.020674325350756195
2011-06,2011Q2,2011-06,real_activity_income,Real activity & income,real_activity,0.225144915020576,0.225144915020576
2011-07,2011Q3,2011-09,demand_orders_inventories,Demand / orders / inventories,demand,-0.07612386640765648,0.07612386640765648
2011-07,2011Q3,2011-09,financial_conditions,Financial conditions,financial,-0.024246207830920463,0.024246207830920463
2011-07,2011Q3,2011-09,housing_construction,Housing & construction,housing,0.22962202338880036,0.22962202338880036
2011-07,2011Q3,2011-09,labor_market,Labor market,labor,-0.17323284976464076,0.17323284976464076
2011-07,2011Q3,2011-09,prices_inflation,Prices & inflation,prices,0.0008728732980361909,0.0008728732980361909
2011-07,2011Q3,2011-09,real_activity_income,Real activity & income,real_activity,0.07938918498505916,0.07938918498505916
2011-08,2011Q3,2011-09,demand_orders_inventories,Demand / orders / inventories,demand,0.1466209707419957,0.1466209707419957
2011-08,2011Q3,2011-09,financial_conditions,Financial conditions,financial,0.00920842192034235,0.00920842192034235
2011-08,2011Q3,2011-09,housing_construction,Housing & construction,housing,-0.10937418608255749,0.10937418608255749
2011-08,2011Q3,2011-09,labor_market,Labor market,labor,0.14121444330295563,0.14121444330295563
2011-08,2011Q3,2011-09,prices_inflation,Prices & inflation,prices,0.006287580923107627,0.006287580923107627
2011-08,2011Q3,2011-09,real_activity_income,Real activity & income,real_activity,0.19524692608990055,0.19524692608990055
2011-08,2011Q3,2011-09,,,,0.10938897549183385,0.10938897549183385
2011-09,2011Q3,2011-09,demand_orders_inventories,Demand / orders / inventories,demand,0.09380141267765392,0.09380141267765392
2011-09,2011Q3,2011-09,financial_conditions,Financial conditions,financial,0.03535128087367474,0.03535128087367474
2011-09,2011Q3,2011-09,housing_construction,Housing & construction,housing,-0.05607883236401062,0.05607883236401062
2011-09,2011Q3,2011-09,labor_market,Labor market,labor,-0.09093052237681253,0.09093052237681253
2011-09,2011Q3,2011-09,prices_inflation,Prices & inflation,prices,0.010105454133149443,0.010105454133149443
2011-09,2011Q3,2011-09,real_activity_income,Real activity & income,real_activity,-0.09597885955484299,0.09597885955484299
2011-10,2011Q4,2011-12,demand_orders_inventories,Demand / orders / inventories,demand,0.043476191974659684,0.043476191974659684
2011-10,2011Q4,2011-12,financial_conditions,Financial conditions,financial,-0.08581134456530387,0.08581134456530387
2011-10,2011Q4,2011-12,housing_construction,Housing & construction,housing,0.16017250591027998,0.16017250591027998
2011-10,2011Q4,2011-12,labor_market,Labor market,labor,-0.02371154912900051,0.02371154912900051
2011-10,2011Q4,2011-12,prices_inflation,Prices & inflation,prices,-0.010361117410406982,0.010361117410406982
2011-10,2011Q4,2011-12,real_activity_income,Real activity & income,real_activity,0.04071845522016937,0.04071845522016937
2011-11,2011Q4,2011-12,demand_orders_inventories,Demand / orders / inventories,demand,-0.11126053280362347,0.11126053280362347
2011-11,2011Q4,2011-12,financial_conditions,Financial conditions,financial,0.027317509541204568,0.027317509541204568
2011-11,2011Q4,2011-12,housing_construction,Housing & construction,housing,-0.04898389097473606,0.04898389097473606
2011-11,2011Q4,2011-12,labor_market,Labor market,labor,0.16840848272449105,0.16840848272449105
