haminh109/Nowcasting-GDP-Growth/outputs/layer1_dfm/dfm_states.csv
state_period,global,demand,financial,housing,labor,prices,real_activity,vintage_period,target_quarter,state_kind
1999-12,0.477057259840881,-0.01935926740351749,-0.14184769849115825,0.7497637980159912,-0.3974582703928091,0.5788035825585821,-0.7897895812402757,2000-01,2000Q1,current_smoothed
2000-01,0.6560014077763282,0.20666776211079135,-0.09753326190886501,0.8150799258248478,-0.3674618680956472,-0.4477153396470597,0.16768986804517663,2000-02,2000Q1,current_smoothed
1999-12,0.477057259840881,-0.01935926740351749,-0.14184769849115825,0.7497637980159912,-0.3974582703928091,0.5788035825585821,-0.7897895812402757,2000-02,2000Q1,previous_vintage_smoothed
2000-02,0.08861258647121072,0.008626192951442482,0.1077005763407545,1.1653083861213653,-0.0718828797508769,1.8420485719855526,-0.08791687246701924,2000-03,2000Q1,current_smoothed
2000-01,0.6560014077763282,0.20666776211079135,-0.09753326190886501,0.8150799258248478,-0.3674618680956472,-0.4477153396470597,0.16768986804517663,2000-03,2000Q1,previous_vintage_smoothed
2000-03,-0.11370493924609879,-0.1940453880348017,0.16418336727005808,0.769427520980762,-0.2460788627052883,0.787476546181352,0.20217183730010432,2000-04,2000Q2,current_smoothed
2000-02,0.08861258647121072,0.008626192951442482,0.1077005763407545,1.1653083861213653,-0.0718828797508769,1.8420485719855526,-0.08791687246701924,2000-04,2000Q2,previous_vintage_smoothed
2000-04,0.3169706142707045,0.03597686882345595,0.32766053658648925,0.699276052770263,0.4196805228248161,-3.620107211910803,0.5316098299738462,2000-05,2000Q2,current_smoothed
2000-03,-0.11370493924609879,-0.1940453880348017,0.16418336727005808,0.769427520980762,-0.2460788627052883,0.787476546181352,0.20217183730010432,2000-05,2000Q2,previous_vintage_smoothed
2000-05,-0.06926331975979026,-0.6868266313480967,0.3082291359688909,0.7076367510314315,-0.11694733543249838,0.4014611972813948,-0.06146319908757191,2000-06,2000Q2,current_smoothed
2000-04,0.3169706142707045,0.03597686882345595,0.32766053658648925,0.699276052770263,0.4196805228248161,-3.620107211910803,0.5316098299738462,2000-06,2000Q2,previous_vintage_smoothed
2000-06,0.00614932684969174,-0.820486686163699,0.5388975442312851,0.5436870322059817,-0.27280556702706743,2.391272975193592,0.08516667736744321,2000-07,2000Q3,current_smoothed
2000-05,-0.06926331975979026,-0.6868266313480967,0.3082291359688909,0.7076367510314315,-0.11694733543249838,0.4014611972813948,-0.06146319908757191,2000-07,2000Q3,previous_vintage_smoothed
2000-07,-0.2565383565894962,0.43299980183192316,0.6129384748795507,0.5687293279946808,-0.48151159727903,-1.2575076729918506,0.8181502169536596,2000-08,2000Q3,current_smoothed
2000-06,0.00614932684969174,-0.820486686163699,0.5388975442312851,0.5436870322059817,-0.27280556702706743,2.391272975193592,0.08516667736744321,2000-08,2000Q3,previous_vintage_smoothed
2000-08,-0.8034910086924264,-0.26468397483438044,0.5718156015311375,0.9795543666989692,-0.7192529106700999,-1.3873756575600373,0.6308865744018067,2000-09,2000Q3,current_smoothed
2000-07,-0.2565383565894962,0.43299980183192316,0.6129384748795507,0.5687293279946808,-0.48151159727903,-1.2575076729918506,0.8181502169536596,2000-09,2000Q3,previous_vintage_smoothed
2000-09,-0.10256771956079395,0.18531281198579372,0.5980005813784028,0.5429549013529815,-0.8167750357254641,2.887498943310274,-0.043239381378161676,2000-10,2000Q4,current_smoothed
2000-08,-0.8034910086924264,-0.26468397483438044,0.5718156015311375,0.9795543666989692,-0.7192529106700999,-1.3873756575600373,0.6308865744018067,2000-10,2000Q4,previous_vintage_smoothed
2000-10,-0.4435538286538195,-0.1204797415150182,0.5378385531190201,0.7845927031108862,-0.28213615504395295,-1.6732094337975656,-0.09103137211876293,2000-11,2000Q4,current_smoothed
2000-09,-0.10256771956079395,0.18531281198579372,0.5980005813784028,0.5429549013529815,-0.8167750357254641,2.887498943310274,-0.043239381378161676,2000-11,2000Q4,previous_vintage_smoothed
2000-11,-0.8559655365723564,-0.5506429938681813,0.5013522762896231,1.1664053814464466,0.15526019634166538,0.29426612012322234,-0.5345403325116562,2000-12,2000Q4,current_smoothed
2000-10,-0.4435538286538195,-0.1204797415150182,0.5378385531190201,0.7845927031108862,-0.28213615504395295,-1.6732094337975656,-0.09103137211876293,2000-12,2000Q4,previous_vintage_smoothed
2000-12,-1.5432051138934804,0.03219657388301548,0.43035752202470384,1.6279739995973734,0.06066859304995613,-0.25299196072730895,-0.7123094913948059,2001-01,2001Q1,current_smoothed
2000-11,-0.8559655365723564,-0.5506429938681813,0.5013522762896231,1.1664053814464466,0.15526019634166538,0.29426612012322234,-0.5345403325116562,2001-01,2001Q1,previous_vintage_smoothed
2001-01,-0.5819790462950122,0.17611792563107614,0.23846059921732654,1.2911081842096082,0.03793166957129603,1.7653724510836728,0.18362802539330683,2001-02,2001Q1,current_smoothed
2000-12,-1.5432051138934804,0.03219657388301548,0.43035752202470384,1.6279739995973734,0.06066859304995613,-0.25299196072730895,-0.7123094913948059,2001-02,2001Q1,previous_vintage_smoothed
2001-02,-0.9920357812240763,-0.20739605205989256,-0.14132161709741276,1.5401740428482635,-0.1115927106987818,-1.2156126015179909,0.01504327880002564,2001-03,2001Q1,current_smoothed
2001-01,-0.5819790462950122,0.17611792563107614,0.23846059921732654,1.2911081842096082,0.03793166957129603,1.7653724510836728,0.18362802539330683,2001-03,2001Q1,previous_vintage_smoothed
2001-03,-0.6957693129623892,-0.36788225848692485,-0.1986844527473819,1.246338450096869,-0.47370749366419984,-1.3603246999916874,0.7350435464579127,2001-04,2001Q2,current_smoothed
2001-02,-0.9920357812240763,-0.20739605205989256,-0.14132161709741276,1.5401740428482635,-0.1115927106987818,-1.2156126015179909,0.01504327880002564,2001-04,2001Q2,previous_vintage_smoothed
2001-04,-1.1083703996023249,0.14596605596168216,-0.7202552111059748,1.5640267149356069,-0.534330656212437,1.5984869554404675,0.3775033669459608,2001-05,2001Q2,current_smoothed
2001-03,-0.6957693129623892,-0.36788225848692485,-0.1986844527473819,1.246338450096869,-0.47370749366419984,-1.3603246999916874,0.7350435464579127,2001-05,2001Q2,previous_vintage_smoothed
2001-05,-1.0136136152039614,0.2552342185432354,-1.1432934048729817,1.5212091759327508,-0.6635831986419871,0.26703697688384126,-0.45998150900019624,2001-06,2001Q2,current_smoothed
2001-04,-1.1083703996023249,0.14596605596168216,-0.7202552111059748,1.5640267149356069,-0.534330656212437,1.5984869554404675,0.3775033669459608,2001-06,2001Q2,previous_vintage_smoothed
2001-06,-1.06648225789539,-0.1629821158658871,-1.193305259146619,1.6433650380459923,-1.0513714868849282,-0.4963755957013373,-0.660780290883656,2001-07,2001Q3,current_smoothed
2001-05,-1.0136136152039614,0.2552342185432354,-1.1432934048729817,1.5212091759327508,-0.6635831986419871,0.26703697688384126,-0.45998150900019624,2001-07,2001Q3,previous_vintage_smoothed
2001-07,-0.5595856620354225,0.17503464172197464,-1.1464641243314637,1.3456733441441668,-0.9668944970993459,-2.079854870190489,0.2068398738041445,2001-08,2001Q3,current_smoothed
2001-06,-1.06648225789539,-0.1629821158658871,-1.193305259146619,1.6433650380459923,-1.0513714868849282,-0.4963755957013373,-0.660780290883656,2001-08,2001Q3,previous_vintage_smoothed
2001-08,-1.2173780538819448,-0.0067143474056890915,-1.1390359240882604,1.2865463738457261,-1.285441117069627,1.7137023575535721,-0.7617491020393771,2001-09,2001Q3,current_smoothed
2001-07,-0.5595856620354225,0.17503464172197464,-1.1464641243314637,1.3456733441441668,-0.9668944970993459,-2.079854870190489,0.2068398738041445,2001-09,2001Q3,previous_vintage_smoothed
2001-09,-1.8009884079483642,-1.181244665826951,-1.593251628962356,1.779031975106892,-0.5539356934842137,2.382170039583658,-0.18565677351768817,2001-10,2001Q4,current_smoothed
2001-08,-1.2173780538819448,-0.0067143474056890915,-1.1390359240882604,1.2865463738457261,-1.285441117069627,1.7137023575535721,-0.7617491020393771,2001-10,2001Q4,previous_vintage_smoothed
2001-10,-1.5048120142308812,3.1895323874122683,-1.8373093745037496,1.4905422285374548,-1.3200401032131739,-2.7979794027098754,-0.8759264084350062,2001-11,2001Q4,current_smoothed
2001-09,-1.8009884079483642,-1.181244665826951,-1.593251628962356,1.779031975106892,-0.5539356934842137,2.382170039583658,-0.18565677351768817,2001-11,2001Q4,previous_vintage_smoothed
2001-11,-1.2075156746330764,-1.6427843824297848,-1.8864122318268222,1.5923873510141198,-2.4297369110293263,-0.09037852747959672,0.6200338488957475,2001-12,2001Q4,current_smoothed
2001-10,-1.5048120142308812,3.1895323874122683,-1.8373093745037496,1.4905422285374548,-1.3200401032131739,-2.7979794027098754,-0.8759264084350062,2001-12,2001Q4,previous_vintage_smoothed
2001-12,-0.3222869381910413,-0.5074428164111331,-1.9481675355253352,0.8457677845754707,-2.769419471694855,-0.55400709590229,-0.35165257209488876,2002-01,2002Q1,current_smoothed
2001-11,-1.2075156746330764,-1.6427843824297848,-1.8864122318268222,1.5923873510141198,-2.4297369110293263,-0.09037852747959672,0.6200338488957475,2002-01,2002Q1,previous_vintage_smoothed
2002-01,-0.11638060979261651,-0.019299459362074025,-1.762254384614087,1.0804452437078003,-2.6502558025824117,1.8018937695473918,-0.4632125278796145,2002-02,2002Q1,current_smoothed
2001-12,-0.3222869381910413,-0.5074428164111331,-1.9481675355253352,0.8457677845754707,-2.769419471694855,-0.55400709590229,-0.35165257209488876,2002-02,2002Q1,previous_vintage_smoothed
2002-02,0.38627885319448446,-0.5042345690428954,-1.496038408844178,1.0279822241673846,-2.452087217811696,-0.01898009325193581,-0.5357553856931312,2002-03,2002Q1,current_smoothed
2002-01,-0.11638060979261651,-0.019299459362074025,-1.762254384614087,1.0804452437078003,-2.6502558025824117,1.8018937695473918,-0.4632125278796145,2002-03,2002Q1,previous_vintage_smoothed
2002-03,0.25323418834545985,0.02460382984476638,-1.4956206483376018,0.7217658910014123,-1.5539605985422802,0.9875444841964134,0.560035044445521,2002-04,2002Q2,current_smoothed
2002-02,0.38627885319448446,-0.5042345690428954,-1.496038408844178,1.0279822241673846,-2.452087217811696,-0.01898009325193581,-0.5357553856931312,2002-04,2002Q2,previous_vintage_smoothed
2002-04,-0.33848154695840293,1.1367174268953524,-1.4505747700989133,0.8676304360192713,-1.2380878671001208,0.5330353332626192,0.45096952333855056,2002-05,2002Q2,current_smoothed
2002-03,0.25323418834545985,0.02460382984476638,-1.4956206483376018,0.7217658910014123,-1.5539605985422802,0.9875444841964134,0.560035044445521,2002-05,2002Q2,previous_vintage_smoothed
2002-05,0.2246121883115494,-0.7807628305294773,-1.2881832102216253,1.0532310114735173,-1.5928948262663527,-2.7519160139536685,-0.40569200211382245,2002-06,2002Q2,current_smoothed
2002-04,-0.33848154695840293,1.1367174268953524,-1.4505747700989133,0.8676304360192713,-1.2380878671001208,0.5330353332626192,0.45096952333855056,2002-06,2002Q2,previous_vintage_smoothed
2002-06,0.1694687508013952,0.2961300878981026,-1.1781871770511072,0.8946130535109152,-1.5303644077861935,0.5993276350792534,0.553040573074074,2002-07,2002Q3,current_smoothed
2002-05,0.2246121883115494,-0.7807628305294773,-1.2881832102216253,1.0532310114735173,-1.5928948262663527,-2.7519160139536685,-0.40569200211382245,2002-07,2002Q3,previous_vintage_smoothed
2002-07,-0.09809867972792279,0.43901228363379025,-1.0761279612488048,0.9861382349008403,-1.2784446132741052,0.27405759994740414,-0.23914868862640062,2002-08,2002Q3,current_smoothed
2002-06,0.1694687508013952,0.2961300878981026,-1.1781871770511072,0.8946130535109152,-1.5303644077861935,0.5993276350792534,0.553040573074074,2002-08,2002Q3,previous_vintage_smoothed
2002-08,-0.2844123131541803,0.18607392101994963,-0.8095779664086759,0.9895834753171169,-0.8772708462437443,0.8347856094066692,-0.36257890950620414,2002-09,2002Q3,current_smoothed
2002-07,-0.09809867972792279,0.43901228363379025,-1.0761279612488048,0.9861382349008403,-1.2784446132741052,0.27405759994740414,-0.23914868862640062,2002-09,2002Q3,previous_vintage_smoothed
2002-09,-0.5139865136003092,-0.6629354361066819,-0.6178555091411767,1.78130564404507,-0.7281505842977011,-0.44264576812230755,-0.3291569248656214,2002-10,2002Q4,current_smoothed
2002-08,-0.2844123131541803,0.18607392101994963,-0.8095779664086759,0.9895834753171169,-0.8772708462437443,0.8347856094066692,-0.36257890950620414,2002-10,2002Q4,previous_vintage_smoothed
2002-10,-0.9231715332774348,-0.10659106195049238,-0.6240161869053902,1.3520152891753139,-0.6595609320703095,0.3479335309778118,-0.6810863258710659,2002-11,2002Q4,current_smoothed
2002-09,-0.5139865136003092,-0.6629354361066819,-0.6178555091411767,1.78130564404507,-0.7281505842977011,-0.44264576812230755,-0.3291569248656214,2002-11,2002Q4,previous_vintage_smoothed
2002-11,-0.5103594533285131,-0.09887751110013088,-0.8964390368655875,1.365146871525237,-1.016978938082255,-0.9315586329623543,0.2506045099329993,2002-12,2002Q4,current_smoothed
2002-10,-0.9231715332774348,-0.10659106195049238,-0.6240161869053902,1.3520152891753139,-0.6595609320703095,0.3479335309778118,-0.6810863258710659,2002-12,2002Q4,previous_vintage_smoothed
2002-12,-0.4417429123027763,0.3639269895942138,-0.7811453413117532,1.7102825880461128,-1.079998265559226,-0.10579373578517946,-0.33255979113692374,2003-01,2003Q1,current_smoothed
2002-11,-0.5103594533285131,-0.09887751110013088,-0.8964390368655875,1.365146871525237,-1.016978938082255,-0.9315586329623543,0.2506045099329993,2003-01,2003Q1,previous_vintage_smoothed
2003-01,0.019309600838336657,-0.19518306448300543,-0.6603252807830043,1.4457089371489302,-1.2061898591155717,1.5185896615814611,0.36645742781576035,2003-02,2003Q1,current_smoothed
2002-12,-0.4417429123027763,0.3639269895942138,-0.7811453413117532,1.7102825880461128,-1.079998265559226,-0.10579373578517946,-0.33255979113692374,2003-02,2003Q1,previous_vintage_smoothed
2003-02,-0.7547307155981604,-1.0886887103729064,-0.5487173396976857,1.2742340168160755,-0.9813664785759236,1.432446758942078,0.35860599256396636,2003-03,2003Q1,current_smoothed
2003-01,0.019309600838336657,-0.19518306448300543,-0.6603252807830043,1.4457089371489302,-1.2061898591155717,1.5185896615814611,0.36645742781576035,2003-03,2003Q1,previous_vintage_smoothed
2003-03,-0.623145890902715,1.0758705926035033,-0.37469306743138653,1.6303493419619282,-0.8406449975331337,-1.18661536424556,-0.04474755391178372,2003-04,2003Q2,current_smoothed
2003-02,-0.7547307155981604,-1.0886887103729064,-0.5487173396976857,1.2742340168160755,-0.9813664785759236,1.432446758942078,0.35860599256396636,2003-04,2003Q2,previous_vintage_smoothed
2003-04,-1.0093786408168859,-0.29159376926661673,-0.2821888339535916,1.4509531952350683,-1.1986287430179952,-3.8294458639619706,-0.36395788681414853,2003-05,2003Q2,current_smoothed
2003-03,-0.623145890902715,1.0758705926035033,-0.37469306743138653,1.6303493419619282,-0.8406449975331337,-1.18661536424556,-0.04474755391178372,2003-05,2003Q2,previous_vintage_smoothed
2003-05,-0.4536583141919779,-0.01559914909082533,-0.1548416335206888,1.4431227079976507,-1.1186182416089754,1.3742574752312047,0.3856263469153874,2003-06,2003Q2,current_smoothed
2003-04,-1.0093786408168859,-0.29159376926661673,-0.2821888339535916,1.4509531952350683,-1.1986287430179952,-3.8294458639619706,-0.36395788681414853,2003-06,2003Q2,previous_vintage_smoothed
2003-06,-0.3128016551576565,0.11711957157017722,-0.050629669918041145,1.5570395438992088,-1.465622779400425,1.5349381896255327,0.6861825171592127,2003-07,2003Q3,current_smoothed
2003-05,-0.4536583141919779,-0.01559914909082533,-0.1548416335206888,1.4431227079976507,-1.1186182416089754,1.3742574752312047,0.3856263469153874,2003-07,2003Q3,previous_vintage_smoothed
2003-07,-0.026034102337587323,0.46444476430247433,-0.28248030939662694,1.532690275868694,-1.9846228937998331,-0.11181934820692528,-0.1834839944628113,2003-08,2003Q3,current_smoothed
2003-06,-0.3128016551576565,0.11711957157017722,-0.050629669918041145,1.5570395438992088,-1.465622779400425,1.5349381896255327,0.6861825171592127,2003-08,2003Q3,previous_vintage_smoothed
2003-08,-0.2194846102887651,-0.41857299907305734,-0.47436928019704766,1.4994284517456682,-1.6784035277982041,0.7760435139881846,-0.49374429480510357,2003-09,2003Q3,current_smoothed
2003-07,-0.026034102337587323,0.46444476430247433,-0.28248030939662694,1.532690275868694,-1.9846228937998331,-0.11181934820692528,-0.1834839944628113,2003-09,2003Q3,previous_vintage_smoothed
2003-09,-0.02830465678300634,-0.05432954496794598,-0.45593673075527585,1.5552509383964503,-1.2890162242726775,-0.3150022298648043,0.8919884422999351,2003-10,2003Q4,current_smoothed
2003-08,-0.2194846102887651,-0.41857299907305734,-0.47436928019704766,1.4994284517456682,-1.6784035277982041,0.7760435139881846,-0.49374429480510357,2003-10,2003Q4,previous_vintage_smoothed
2003-10,0.06085240563573017,-0.5093384880758344,-0.384334354072796,1.690360035092367,-0.9791277900623121,-1.6721918681834795,-0.48921461960052504,2003-11,2003Q4,current_smoothed
2003-09,-0.02830465678300634,-0.05432954496794598,-0.45593673075527585,1.5552509383964503,-1.2890162242726775,-0.3150022298648043,0.8919884422999351,2003-11,2003Q4,previous_vintage_smoothed
2003-11,0.7016507919098064,-0.07859762887091756,-0.36606659458540197,1.5476645914124498,-1.5424317133309897,-0.8484303775064987,0.20373729219879264,2003-12,2003Q4,current_smoothed
2003-10,0.06085240563573017,-0.5093384880758344,-0.384334354072796,1.690360035092367,-0.9791277900623121,-1.6721918681834795,-0.48921461960052504,2003-12,2003Q4,previous_vintage_smoothed
2003-12,0.3544151853159638,-0.1536113075883759,-0.36001449427085025,1.7055319811364245,-1.6408130104297527,1.8800819496139305,-0.5001165974341697,2004-01,2004Q1,current_smoothed
2003-11,0.7016507919098064,-0.07859762887091756,-0.36606659458540197,1.5476645914124498,-1.5424317133309897,-0.8484303775064987,0.20373729219879264,2004-01,2004Q1,previous_vintage_smoothed
2004-01,0.00024217697833284898,-0.5229235291162742,-0.31668882281418165,1.4522577911715673,-0.9303723610418899,1.4478699698668387,0.07450885267478136,2004-02,2004Q1,current_smoothed
2003-12,0.3544151853159638,-0.1536113075883759,-0.36001449427085025,1.7055319811364245,-1.6408130104297527,1.8800819496139305,-0.5001165974341697,2004-02,2004Q1,previous_vintage_smoothed
2004-02,0.23738461115361142,-0.36751199475518387,-0.19982554005927994,1.2025196726496818,-0.9873282868221777,-0.9237381198194978,1.0125725841137163,2004-03,2004Q1,current_smoothed
2004-01,0.00024217697833284898,-0.5229235291162742,-0.31668882281418165,1.4522577911715673,-0.9303723610418899,1.4478699698668387,0.07450885267478136,2004-03,2004Q1,previous_vintage_smoothed
2004-03,0.2971796678900065,0.5531157298226104,-0.137233365856483,1.5572218024404518,-0.8034457173087839,0.8141520922480848,-0.9218040588219515,2004-04,2004Q2,current_smoothed
2004-02,0.23738461115361142,-0.36751199475518387,-0.19982554005927994,1.2025196726496818,-0.9873282868221777,-0.9237381198194978,1.0125725841137163,2004-04,2004Q2,previous_vintage_smoothed
2004-04,0.583277766257492,-0.9174740171780297,-0.22829182111734742,1.3453941551620454,-0.5608584364780372,-1.2533821862564685,0.017356305007697734,2004-05,2004Q2,current_smoothed
2004-03,0.2971796678900065,0.5531157298226104,-0.137233365856483,1.5572218024404518,-0.8034457173087839,0.8141520922480848,-0.9218040588219515,2004-05,2004Q2,previous_vintage_smoothed
2004-05,0.6311161175383491,0.020226518350910043,-0.3611905958010435,1.3354507510338314,-0.052246494001909664,2.033852440047374,0.45543699828768314,2004-06,2004Q2,current_smoothed
2004-04,0.583277766257492,-0.9174740171780297,-0.22829182111734742,1.3453941551620454,-0.5608584364780372,-1.2533821862564685,0.017356305007697734,2004-06,2004Q2,previous_vintage_smoothed
2004-06,-0.1560180756215,-0.8845930257839256,-0.3976062604728568,1.3552031359789916,-0.2631000253189937,-1.6034457331728356,-0.5057173995070611,2004-07,2004Q3,current_smoothed
2004-05,0.6311161175383491,0.020226518350910043,-0.3611905958010435,1.3354507510338314,-0.052246494001909664,2.033852440047374,0.45543699828768314,2004-07,2004Q3,previous_vintage_smoothed
2004-07,0.1504254127367033,0.3555243356771176,-0.09424921842909086,1.6534521474510022,-0.17631850090415455,-1.8604704342508436,0.4648717085648542,2004-08,2004Q3,current_smoothed
2004-06,-0.1560180756215,-0.8845930257839256,-0.3976062604728568,1.3552031359789916,-0.2631000253189937,-1.6034457331728356,-0.5057173995070611,2004-08,2004Q3,previous_vintage_smoothed
2004-08,0.16478107474222062,-0.3886696166687866,0.13487734926055894,1.67783150792634,-0.275713920060727,0.4440553903347392,0.22470496910758195,2004-09,2004Q3,current_smoothed
2004-07,0.1504254127367033,0.3555243356771176,-0.09424921842909086,1.6534521474510022,-0.17631850090415455,-1.8604704342508436,0.4648717085648542,2004-09,2004Q3,previous_vintage_smoothed
2004-09,-0.4535038260273894,0.3359706518973043,0.31259053736637143,1.753949207094936,-0.25130625736222173,0.6863695358661122,-0.46486891821246784,2004-10,2004Q4,current_smoothed
2004-08,0.16478107474222062,-0.3886696166687866,0.13487734926055894,1.67783150792634,-0.275713920060727,0.4440553903347392,0.22470496910758195,2004-10,2004Q4,previous_vintage_smoothed
2004-10,0.09286918016770339,-0.1525484325420717,0.44325959504447154,1.762769819107923,-0.09064309945462734,2.5134071359089387,0.7442756817169754,2004-11,2004Q4,current_smoothed
2004-09,-0.4535038260273894,0.3359706518973043,0.31259053736637143,1.753949207094936,-0.25130625736222173,0.6863695358661122,-0.46486891821246784,2004-11,2004Q4,previous_vintage_smoothed
2004-11,-0.1464810547341816,-0.4376758401507501,0.5149813974375828,1.2554029272815355,-0.28625085425125846,-2.4453125627161554,0.0630899439049722,2004-12,2004Q4,current_smoothed
2004-10,0.09286918016770339,-0.1525484325420717,0.44325959504447154,1.762769819107923,-0.09064309945462734,2.5134071359089387,0.7442756817169754,2004-12,2004Q4,previous_vintage_smoothed
2004-12,1.3881582464333586,0.4480304744761978,0.705709896007144,1.0274887861644666,-1.3922436034862706,-1.4973333783608385,-1.1495825675522893,2005-01,2005Q1,current_smoothed
2004-11,-0.1464810547341816,-0.4376758401507501,0.5149813974375828,1.2554029272815355,-0.28625085425125846,-2.4453125627161554,0.0630899439049722,2005-01,2005Q1,previous_vintage_smoothed
2005-01,-0.11183906876031963,-0.7053572239134989,0.716327193247827,2.1776817022971997,-0.6425575856383985,0.9568841329690988,0.4376739810951754,2005-02,2005Q1,current_smoothed
2004-12,1.3881582464333586,0.4480304744761978,0.705709896007144,1.0274887861644666,-1.3922436034862706,-1.4973333783608385,-1.1495825675522893,2005-02,2005Q1,previous_vintage_smoothed
2005-02,-0.16199112232206772,-0.18621562381754933,0.9005284461102171,2.275016153974179,-0.28181410876171137,1.0334423241377533,0.6927424704877592,2005-03,2005Q1,current_smoothed
2005-01,-0.11183906876031963,-0.7053572239134989,0.716327193247827,2.1776817022971997,-0.6425575856383985,0.9568841329690988,0.4376739810951754,2005-03,2005Q1,previous_vintage_smoothed
2005-03,-0.6975702508775051,0.06116762394610356,0.8019136430106111,1.6763853263176187,0.2741923405468559,1.4417663104910454,0.11353057132813892,2005-04,2005Q2,current_smoothed
2005-02,-0.16199112232206772,-0.18621562381754933,0.9005284461102171,2.275016153974179,-0.28181410876171137,1.0334423241377533,0.6927424704877592,2005-04,2005Q2,previous_vintage_smoothed
2005-04,-0.15044712584502498,0.3241280047188089,0.8707883175146008,1.929675243247539,0.20177143154841284,-0.423509560637884,-0.31303317482416204,2005-05,2005Q2,current_smoothed
2005-03,-0.6975702508775051,0.06116762394610356,0.8019136430106111,1.6763853263176187,0.2741923405468559,1.4417663104910454,0.11353057132813892,2005-05,2005Q2,previous_vintage_smoothed
2005-05,-0.040765994842225386,-0.7202287072509235,1.0159599376187152,1.7886757978917547,0.001961132334678643,-2.8510404406704755,0.6216387248930814,2005-06,2005Q2,current_smoothed
2005-04,-0.15044712584502498,0.3241280047188089,0.8707883175146008,1.929675243247539,0.20177143154841284,-0.423509560637884,-0.31303317482416204,2005-06,2005Q2,previous_vintage_smoothed
2005-06,-0.13133993506937486,0.525395052028543,1.0060966622435048,1.8263687690191908,0.03544919489405887,0.4228526332518098,0.40923202750209153,2005-07,2005Q3,current_smoothed
2005-05,-0.040765994842225386,-0.7202287072509235,1.0159599376187152,1.7886757978917547,0.001961132334678643,-2.8510404406704755,0.6216387248930814,2005-07,2005Q3,previous_vintage_smoothed
2005-07,0.0955047113708372,0.5940738269050203,1.1141795927723677,1.7763920280132346,-0.2206158478966942,2.42786808342319,-0.4543538722555259,2005-08,2005Q3,current_smoothed
2005-06,-0.13133993506937486,0.525395052028543,1.0060966622435048,1.8263687690191908,0.03544919489405887,0.4228526332518098,0.40923202750209153,2005-08,2005Q3,previous_vintage_smoothed
2005-08,-0.5086929793224867,-2.0918147981602466,1.1325699194662169,2.016043495307476,0.06378319193142817,0.571149501649183,0.7300896385636211,2005-09,2005Q3,current_smoothed
2005-07,0.0955047113708372,0.5940738269050203,1.1141795927723677,1.7763920280132346,-0.2206158478966942,2.42786808342319,-0.4543538722555259,2005-09,2005Q3,previous_vintage_smoothed
2005-09,-1.2354141465192139,-0.583557028111527,1.082704480351363,2.6106120417412177,0.9180098154506985,3.3907118944792005,-0.031596975886748827,2005-10,2005Q4,current_smoothed
2005-08,-0.5086929793224867,-2.0918147981602466,1.1325699194662169,2.016043495307476,0.06378319193142817,0.571149501649183,0.7300896385636211,2005-10,2005Q4,previous_vintage_smoothed
2005-10,0.4510659259675451,-0.4564617279818579,1.1497330204327212,1.4690746754287347,-0.21424697047633487,-5.248842596096285,1.6878929901114623,2005-11,2005Q4,current_smoothed
2005-09,-1.2354141465192139,-0.583557028111527,1.082704480351363,2.6106120417412177,0.9180098154506985,3.3907118944792005,-0.031596975886748827,2005-11,2005Q4,previous_vintage_smoothed
2005-11,0.9635643221704236,-0.13179174038758026,1.1526276209307007,1.4464688994304762,-1.1908131725287974,-3.9286797604657586,-1.248862126007086,2005-12,2005Q4,current_smoothed
2005-10,0.4510659259675451,-0.4564617279818579,1.1497330204327212,1.4690746754287347,-0.21424697047633487,-5.248842596096285,1.6878929901114623,2005-12,2005Q4,previous_vintage_smoothed
2005-12,0.22695187518105045,0.6652277689609244,1.0814087170214148,1.387087172822026,-0.7840701205170715,2.9170903006832174,-0.5563909884456638,2006-01,2006Q1,current_smoothed
2005-11,0.9635643221704236,-0.13179174038758026,1.1526276209307007,1.4464688994304762,-1.1908131725287974,-3.9286797604657586,-1.248862126007086,2006-01,2006Q1,previous_vintage_smoothed
2006-01,0.7325263707386975,0.49641582520616817,1.1603972023017286,1.8757024620624836,-1.006911772129935,2.9375443911504164,-0.20307429543701208,2006-02,2006Q1,current_smoothed
2005-12,0.22695187518105045,0.6652277689609244,1.0814087170214148,1.387087172822026,-0.7840701205170715,2.9170903006832174,-0.5563909884456638,2006-02,2006Q1,previous_vintage_smoothed
2006-02,-0.19321003165115053,-1.4767939945046182,1.1481347236292638,1.999400488230835,-0.19304127223149822,-2.6917799920763597,-0.24505406804903135,2006-03,2006Q1,current_smoothed
2006-01,0.7325263707386975,0.49641582520616817,1.1603972023017286,1.8757024620624836,-1.006911772129935,2.9375443911504164,-0.20307429543701208,2006-03,2006Q1,previous_vintage_smoothed
2006-03,0.03647855217566299,0.07778197492782776,1.0483908291022814,1.4999642912805367,-0.05393460243092031,1.6038621287199666,0.4652729256201198,2006-04,2006Q2,current_smoothed
2006-02,-0.19321003165115053,-1.4767939945046182,1.1481347236292638,1.999400488230835,-0.19304127223149822,-2.6917799920763597,-0.24505406804903135,2006-04,2006Q2,previous_vintage_smoothed
2006-04,0.11614158292424805,-0.24052740411817716,1.0117672908894904,1.191099213801482,0.016649591437141967,1.0936098232016918,0.7717145257759542,2006-05,2006Q2,current_smoothed
2006-03,0.03647855217566299,0.07778197492782776,1.0483908291022814,1.4999642912805367,-0.05393460243092031,1.6038621287199666,0.4652729256201198,2006-05,2006Q2,previous_vintage_smoothed
2006-05,-0.4229805250652213,-0.30467961567100516,0.9061509042697975,1.7435974305733133,0.08877007632583045,-0.7753993984741607,-0.23151876702332494,2006-06,2006Q2,current_smoothed
2006-04,0.11614158292424805,-0.24052740411817716,1.0117672908894904,1.191099213801482,0.016649591437141967,1.0936098232016918,0.7717145257759542,2006-06,2006Q2,previous_vintage_smoothed
2006-06,0.08921333036508584,-0.5479697797719453,0.860963255204913,1.196203526337825,-0.1414328045288958,-1.2594787743271771,0.8215423164785582,2006-07,2006Q3,current_smoothed
2006-05,-0.4229805250652213,-0.30467961567100516,0.9061509042697975,1.7435974305733133,0.08877007632583045,-0.7753993984741607,-0.23151876702332494,2006-07,2006Q3,previous_vintage_smoothed
2006-07,-0.08859290718150323,0.3556648551863459,0.9863580737141586,1.1323638325620773,-0.2895971896832685,1.254174506830494,-0.1770955323552904,2006-08,2006Q3,current_smoothed
2006-06,0.08921333036508584,-0.5479697797719453,0.860963255204913,1.196203526337825,-0.1414328045288958,-1.2594787743271771,0.8215423164785582,2006-08,2006Q3,previous_vintage_smoothed
2006-08,-0.5640726854787634,-0.21502905582783574,0.9465848266363607,1.035337305795745,-0.13632130185698949,-0.8538511965223995,0.08055987498927554,2006-09,2006Q3,current_smoothed
2006-07,-0.08859290718150323,0.3556648551863459,0.9863580737141586,1.1323638325620773,-0.2895971896832685,1.254174506830494,-0.1770955323552904,2006-09,2006Q3,previous_vintage_smoothed
2006-09,-0.011588264384325957,-0.5579395373610198,0.9263128333824422,1.0132420187489573,-0.5523563222559791,-3.7961053824899174,-1.255112462236455,2006-10,2006Q4,current_smoothed
2006-08,-0.5640726854787634,-0.21502905582783574,0.9465848266363607,1.035337305795745,-0.13632130185698949,-0.8538511965223995,0.08055987498927554,2006-10,2006Q4,previous_vintage_smoothed
2006-10,-0.2962041256031257,-0.1341923251096095,0.8586616742518935,0.3244889939995467,-0.18223422754248855,0.29697605763277013,-0.7033910391058722,2006-11,2006Q4,current_smoothed
2006-09,-0.011588264384325957,-0.5579395373610198,0.9263128333824422,1.0132420187489573,-0.5523563222559791,-3.7961053824899174,-1.255112462236455,2006-11,2006Q4,previous_vintage_smoothed
2006-11,-0.391789392490999,0.264633383818703,0.8597396369887134,0.6897418715705239,0.024392747390881906,2.452068288976447,0.45281611191625726,2006-12,2006Q4,current_smoothed
2006-10,-0.2962041256031257,-0.1341923251096095,0.8586616742518935,0.3244889939995467,-0.18223422754248855,0.29697605763277013,-0.7033910391058722,2006-12,2006Q4,previous_vintage_smoothed
2006-12,0.12485072724946761,0.20008725571487437,0.8273980851090805,0.5786782628343556,-0.22893507371921643,2.416047645199152,0.6748592914740995,2007-01,2007Q1,current_smoothed
2006-11,-0.391789392490999,0.264633383818703,0.8597396369887134,0.6897418715705239,0.024392747390881906,2.452068288976447,0.45281611191625726,2007-01,2007Q1,previous_vintage_smoothed
2007-01,-0.8621764329791207,-0.5367554561828148,0.6937590897906996,0.39639939290150666,-0.04324598752590417,-1.620754858186581,-0.9476918951837784,2007-02,2007Q1,current_smoothed
2006-12,0.12485072724946761,0.20008725571487437,0.8273980851090805,0.5786782628343556,-0.22893507371921643,2.416047645199152,0.6748592914740995,2007-02,2007Q1,previous_vintage_smoothed
2007-02,-0.5306669499041081,-0.22269363630867323,0.6579244518627853,0.6350938277797651,0.16471784047505858,1.2705003235819161,0.8961130477551483,2007-03,2007Q1,current_smoothed
2007-01,-0.8621764329791207,-0.5367554561828148,0.6937590897906996,0.39639939290150666,-0.04324598752590417,-1.620754858186581,-0.9476918951837784,2007-03,2007Q1,previous_vintage_smoothed
2007-03,0.17256961021279113,-0.21295480777763773,0.6624532526728464,0.25714079783705407,-0.2955765969968481,0.9756983054367262,0.5121823648655921,2007-04,2007Q2,current_smoothed
2007-02,-0.5306669499041081,-0.22269363630867323,0.6579244518627853,0.6350938277797651,0.16471784047505858,1.2705003235819161,0.8961130477551483,2007-04,2007Q2,previous_vintage_smoothed
2007-04,0.026607607594927106,-0.5579869532828916,0.5101023076307998,0.376238295855339,-0.5526295136390917,-0.8187424431326414,0.39234711089563756,2007-05,2007Q2,current_smoothed
2007-03,0.17256961021279113,-0.21295480777763773,0.6624532526728464,0.25714079783705407,-0.2955765969968481,0.9756983054367262,0.5121823648655921,2007-05,2007Q2,previous_vintage_smoothed
2007-05,-0.375457856276763,0.14288926628231116,0.425703320338629,0.4182373169626132,-0.3090105451318513,1.1590693615160994,0.027881220131634254,2007-06,2007Q2,current_smoothed
2007-04,0.026607607594927106,-0.5579869532828916,0.5101023076307998,0.376238295855339,-0.5526295136390917,-0.8187424431326414,0.39234711089563756,2007-06,2007Q2,previous_vintage_smoothed
2007-06,-0.022634620755488454,-0.9994213467894999,0.28755300899453984,0.2129268978102276,-0.1369170259838085,-2.258869708372501,0.6235831703612558,2007-07,2007Q3,current_smoothed
2007-05,-0.375457856276763,0.14288926628231116,0.425703320338629,0.4182373169626132,-0.3090105451318513,1.1590693615160994,0.027881220131634254,2007-07,2007Q3,previous_vintage_smoothed
2007-07,0.23421204699057974,0.13929635146480007,0.25074698037356663,-0.22336107318180265,-0.6844781990464526,-0.2872720192491976,0.3182119690902645,2007-08,2007Q3,current_smoothed
2007-06,-0.022634620755488454,-0.9994213467894999,0.28755300899453984,0.2129268978102276,-0.1369170259838085,-2.258869708372501,0.6235831703612558,2007-08,2007Q3,previous_vintage_smoothed
2007-08,-0.5825525822264022,0.03930304144226489,-0.06627811907285862,0.03651633650387228,-0.6154618783487589,-1.2544677209927342,-0.37047064123939966,2007-09,2007Q3,current_smoothed
2007-07,0.23421204699057974,0.13929635146480007,0.25074698037356663,-0.22336107318180265,-0.6844781990464526,-0.2872720192491976,0.3182119690902645,2007-09,2007Q3,previous_vintage_smoothed
2007-09,-0.5784435207715579,-0.04518275624455786,-0.0640596400138291,-0.48384856222639827,-0.16823638451073553,2.0011009101512838,0.28756025895913057,2007-10,2007Q4,current_smoothed
2007-08,-0.5825525822264022,0.03930304144226489,-0.06627811907285862,0.03651633650387228,-0.6154618783487589,-1.2544677209927342,-0.37047064123939966,2007-10,2007Q4,previous_vintage_smoothed
2007-10,-0.519865001257967,-0.345094946286989,-0.17050513274560697,-0.38549613349254114,-0.11273308321321229,0.10120035082996338,-0.661156784112339,2007-11,2007Q4,current_smoothed
2007-09,-0.5784435207715579,-0.04518275624455786,-0.0640596400138291,-0.48384856222639827,-0.16823638451073553,2.0011009101512838,0.28756025895913057,2007-11,2007Q4,previous_vintage_smoothed
2007-11,-0.5797861208305184,0.45161546553399967,-0.4288963025875233,-0.523895042480532,0.17354974730890516,2.369701746409007,0.9527650725221163,2007-12,2007Q4,current_smoothed
2007-10,-0.519865001257967,-0.345094946286989,-0.17050513274560697,-0.38549613349254114,-0.11273308321321229,0.10120035082996338,-0.661156784112339,2007-12,2007Q4,previous_vintage_smoothed
2007-12,-0.8145786919050524,-0.4842441045678586,-0.5880444979997566,-1.1702654517835602,-0.062618456152329,-2.422094329100779,0.4271684804406989,2008-01,2008Q1,current_smoothed
2007-11,-0.5797861208305184,0.45161546553399967,-0.4288963025875233,-0.523895042480532,0.17354974730890516,2.369701746409007,0.9527650725221163,2008-01,2008Q1,previous_vintage_smoothed
2008-01,-0.7245451351259004,-0.06786388642700014,-0.7668554982222642,-1.1501713757154552,-0.23374533927421337,0.27403145023038344,0.4546685598794495,2008-02,2008Q1,current_smoothed
2007-12,-0.8145786919050524,-0.4842441045678586,-0.5880444979997566,-1.1702654517835602,-0.062618456152329,-2.422094329100779,0.4271684804406989,2008-02,2008Q1,previous_vintage_smoothed
2008-02,-0.748677844319246,-0.7728616964426644,-1.6574102823193329,-0.9284551434983568,-0.3780156735061448,-1.4137072554731773,-0.09108441075261449,2008-03,2008Q1,current_smoothed
2008-01,-0.7245451351259004,-0.06786388642700014,-0.7668554982222642,-1.1501713757154552,-0.23374533927421337,0.27403145023038344,0.4546685598794495,2008-03,2008Q1,previous_vintage_smoothed
2008-03,-1.110593738865799,0.09032198167194586,-1.8880155387764979,-1.312796593736366,-0.08397187082850696,1.3745862300315135,1.013651822909838,2008-04,2008Q2,current_smoothed
2008-02,-0.748677844319246,-0.7728616964426644,-1.6574102823193329,-0.9284551434983568,-0.3780156735061448,-1.4137072554731773,-0.09108441075261449,2008-04,2008Q2,previous_vintage_smoothed
2008-04,-0.9650091889989153,-0.4811317460296703,-1.8875468409971459,-0.953610729645191,-0.4754172941244186,-0.6125859339135248,-0.9386519360830652,2008-05,2008Q2,current_smoothed
2008-03,-1.110593738865799,0.09032198167194586,-1.8880155387764979,-1.312796593736366,-0.08397187082850696,1.3745862300315135,1.013651822909838,2008-05,2008Q2,previous_vintage_smoothed
2008-05,-0.4855180647005802,0.1869788612723676,-1.8718051874166557,-1.4722999157762982,-0.796146214584978,1.8692240668361577,0.0336419320302229,2008-06,2008Q2,current_smoothed
2008-04,-0.9650091889989153,-0.4811317460296703,-1.8875468409971459,-0.953610729645191,-0.4754172941244186,-0.6125859339135248,-0.9386519360830652,2008-06,2008Q2,previous_vintage_smoothed
2008-06,-0.2866068269633741,-0.2809300378679684,-1.6566722666571532,-1.1071983129992624,-1.0763563037914596,1.9281480337936892,0.2175037184025678,2008-07,2008Q3,current_smoothed
2008-05,-0.4855180647005802,0.1869788612723676,-1.8718051874166557,-1.4722999157762982,-0.796146214584978,1.8692240668361577,0.0336419320302229,2008-07,2008Q3,previous_vintage_smoothed
2008-07,-0.9027690904646757,-0.5647313055720241,-1.566114599559554,-1.2806431271651455,-0.49602793307456244,-1.071108257658371,1.3906539438389223,2008-08,2008Q3,current_smoothed
2008-06,-0.2866068269633741,-0.2809300378679684,-1.6566722666571532,-1.1071983129992624,-1.0763563037914596,1.9281480337936892,0.2175037184025678,2008-08,2008Q3,previous_vintage_smoothed
2008-08,-1.435987771892996,-0.36824442596161744,-1.3318143632720971,-1.3603051498160676,-0.34339384608351164,-4.00008616583563,-0.7040960597052315,2008-09,2008Q3,current_smoothed
2008-07,-0.9027690904646757,-0.5647313055720241,-1.566114599559554,-1.2806431271651455,-0.49602793307456244,-1.071108257658371,1.3906539438389223,2008-09,2008Q3,previous_vintage_smoothed
2008-09,-2.7028989997122754,-0.3975401891861301,-1.4080740034645496,-1.0996167051893624,0.6268731970233854,0.7097965774614828,-2.154367435407544,2008-10,2008Q4,current_smoothed
2008-08,-1.435987771892996,-0.36824442596161744,-1.3318143632720971,-1.3603051498160676,-0.34339384608351164,-4.00008616583563,-0.7040960597052315,2008-10,2008Q4,previous_vintage_smoothed
2008-10,-1.6159753060329416,-1.6261766492060081,-2.118256678164924,-1.8408322393956746,-0.4817566919853565,-4.1751986565899735,2.5897527743577795,2008-11,2008Q4,current_smoothed
2008-09,-2.7028989997122754,-0.3975401891861301,-1.4080740034645496,-1.0996167051893624,0.6268731970233854,0.7097965774614828,-2.154367435407544,2008-11,2008Q4,previous_vintage_smoothed
2008-11,-2.2079297046928943,-0.37344782758964423,-2.618386348486564,-2.6009798181664983,-0.9179961269321381,-3.155087871668563,-0.3847439763831428,2008-12,2008Q4,current_smoothed
2008-10,-1.6159753060329416,-1.6261766492060081,-2.118256678164924,-1.8408322393956746,-0.4817566919853565,-4.1751986565899735,2.5897527743577795,2008-12,2008Q4,previous_vintage_smoothed
2008-12,-3.6863233124269645,-0.7546374639318287,-2.2852471091876896,-2.369264098098766,-0.847822599003055,4.336960377823925,-0.17560620625750614,2009-01,2009Q1,current_smoothed
2008-11,-2.2079297046928943,-0.37344782758964423,-2.618386348486564,-2.6009798181664983,-0.9179961269321381,-3.155087871668563,-0.3847439763831428,2009-01,2009Q1,previous_vintage_smoothed
2009-01,-4.2994120156481594,1.1135597217685527,-1.5403074002912274,-2.6663466521341777,-0.7764540538389485,5.368790933166402,0.3923078050483618,2009-02,2009Q1,current_smoothed
2008-12,-3.6863233124269645,-0.7546374639318287,-2.2852471091876896,-2.369264098098766,-0.847822599003055,4.336960377823925,-0.17560620625750614,2009-02,2009Q1,previous_vintage_smoothed
2009-02,-2.5832334767549483,0.3694963704927831,-0.932338697165989,-2.53399795258927,-2.052913860583377,0.6324909613386807,1.4396612007511265,2009-03,2009Q1,current_smoothed
2009-01,-4.2994120156481594,1.1135597217685527,-1.5403074002912274,-2.6663466521341777,-0.7764540538389485,5.368790933166402,0.3923078050483618,2009-03,2009Q1,previous_vintage_smoothed
2009-03,-2.98162980376618,-0.41523751197623276,-0.8447018333602024,-2.877554711913606,-2.3345749556069793,-2.0345847319845136,0.1838500109471811,2009-04,2009Q2,current_smoothed
2009-02,-2.5832334767549483,0.3694963704927831,-0.932338697165989,-2.53399795258927,-2.052913860583377,0.6324909613386807,1.4396612007511265,2009-04,2009Q2,previous_vintage_smoothed
2009-04,-2.360660682615549,0.025121816554054942,0.9618332039193176,-3.5771582513455344,-2.717199134971388,0.6809695590556645,1.9249285298384822,2009-05,2009Q2,current_smoothed
2009-03,-2.98162980376618,-0.41523751197623276,-0.8447018333602024,-2.877554711913606,-2.3345749556069793,-2.0345847319845136,0.1838500109471811,2009-05,2009Q2,previous_vintage_smoothed
2009-05,-1.3907156587339071,0.28566984690228686,0.3774167748269392,-3.363816773556824,-3.4263992122229414,0.5318063890464678,-0.4946742112309525,2009-06,2009Q2,current_smoothed
2009-04,-2.360660682615549,0.025121816554054942,0.9618332039193176,-3.5771582513455344,-2.717199134971388,0.6809695590556645,1.9249285298384822,2009-06,2009Q2,previous_vintage_smoothed
2009-06,-1.1795670859472223,0.3519226854874872,-0.04783124749830375,-3.100151972044681,-3.6020846318784745,2.945167489351583,-0.039728074125773845,2009-07,2009Q3,current_smoothed
2009-05,-1.3907156587339071,0.28566984690228686,0.3774167748269392,-3.363816773556824,-3.4263992122229414,0.5318063890464678,-0.4946742112309525,2009-07,2009Q3,previous_vintage_smoothed
2009-07,-0.1416071283804871,-0.28116019721530133,-0.43729874911193145,-3.6607574334114714,-3.256802780296325,-3.278744086231816,1.4156751005021162,2009-08,2009Q3,current_smoothed
2009-06,-1.1795670859472223,0.3519226854874872,-0.04783124749830375,-3.100151972044681,-3.6020846318784745,2.945167489351583,-0.039728074125773845,2009-08,2009Q3,previous_vintage_smoothed
2009-08,-0.15889985960645106,1.0890248301977166,-0.8513536789759674,-3.478555012926348,-3.008217178110062,1.9060327806005193,1.030823911914308,2009-09,2009Q3,current_smoothed
2009-07,-0.1416071283804871,-0.28116019721530133,-0.43729874911193145,-3.6607574334114714,-3.256802780296325,-3.278744086231816,1.4156751005021162,2009-09,2009Q3,previous_vintage_smoothed
2009-09,-0.26511221412409947,-1.5809438003248037,-0.8238577105097077,-3.4231275942857593,-3.0297555740027695,-1.2282006714753682,1.5788958876999735,2009-10,2009Q4,current_smoothed
2009-08,-0.15889985960645106,1.0890248301977166,-0.8513536789759674,-3.478555012926348,-3.008217178110062,1.9060327806005193,1.030823911914308,2009-10,2009Q4,previous_vintage_smoothed
2009-10,-0.6832463276225661,0.5071212023147957,-0.49208983031419257,-3.5625303517676343,-2.5477901023085203,0.6158270508017345,0.2811405054199298,2009-11,2009Q4,current_smoothed
2009-09,-0.26511221412409947,-1.5809438003248037,-0.8238577105097077,-3.4231275942857593,-3.0297555740027695,-1.2282006714753682,1.5788958876999735,2009-11,2009Q4,previous_vintage_smoothed
2009-11,0.4763966172628775,0.22965855277059835,-0.42215748831685806,-3.774176204094587,-2.543450404557529,0.5326670301469677,0.9214784735025295,2009-12,2009Q4,current_smoothed
2009-10,-0.6832463276225661,0.5071212023147957,-0.49208983031419257,-3.5625303517676343,-2.5477901023085203,0.6158270508017345,0.2811405054199298,2009-12,2009Q4,previous_vintage_smoothed
2009-12,-0.20751482305923888,-0.25836332620948343,-0.09116615550909125,-3.3961622067436905,-2.0485360089193687,-1.238753595132397,-0.24548289543323082,2010-01,2010Q1,current_smoothed
2009-11,0.4763966172628775,0.22965855277059835,-0.42215748831685806,-3.774176204094587,-2.543450404557529,0.5326670301469677,0.9214784735025295,2010-01,2010Q1,previous_vintage_smoothed
2010-01,0.44001448179406955,-0.1515031103017219,-0.32717756190051,-3.459540081222988,-1.758255031922357,0.39233948886667275,0.7811852568933219,2010-02,2010Q1,current_smoothed
2009-12,-0.20751482305923888,-0.25836332620948343,-0.09116615550909125,-3.3961622067436905,-2.0485360089193687,-1.238753595132397,-0.24548289543323082,2010-02,2010Q1,previous_vintage_smoothed
2010-02,-0.19301239366558273,-0.020928147061387233,0.04701907160393108,-3.17690289752811,-1.2491091380244241,-1.1094921230163806,-0.45565216571065037,2010-03,2010Q1,current_smoothed
2010-01,0.44001448179406955,-0.1515031103017219,-0.32717756190051,-3.459540081222988,-1.758255031922357,0.39233948886667275,0.7811852568933219,2010-03,2010Q1,previous_vintage_smoothed
2010-03,0.5304755061296496,0.6989219800657587,-0.24073848688541444,-3.183660168691239,-1.0296711015010778,0.31021918610406446,0.4480351515690044,2010-04,2010Q2,current_smoothed
2010-02,-0.19301239366558273,-0.020928147061387233,0.04701907160393108,-3.17690289752811,-1.2491091380244241,-1.1094921230163806,-0.45565216571065037,2010-04,2010Q2,previous_vintage_smoothed
2010-04,1.1089212682036074,-0.6535907837429628,-0.2693889530732018,-3.1938183912802223,-0.8684169953946752,-0.6819827934398843,0.023502572742550992,2010-05,2010Q2,current_smoothed
2010-03,0.5304755061296496,0.6989219800657587,-0.24073848688541444,-3.183660168691239,-1.0296711015010778,0.31021918610406446,0.4480351515690044,2010-05,2010Q2,previous_vintage_smoothed
2010-05,0.8326785297819317,-1.0181618029265909,-0.6897097286741004,-3.5276360232758326,-0.32010691750808096,-0.46825735355766596,0.5866257724021959,2010-06,2010Q2,current_smoothed
2010-04,1.1089212682036074,-0.6535907837429628,-0.2693889530732018,-3.1938183912802223,-0.8684169953946752,-0.6819827934398843,0.023502572742550992,2010-06,2010Q2,previous_vintage_smoothed
2010-06,-0.28678213096708444,-0.618401242649299,-0.20971584983822633,-3.1792123871780036,-0.399676670711006,0.20953920435630127,-0.7524524770152554,2010-07,2010Q3,current_smoothed
2010-05,0.8326785297819317,-1.0181618029265909,-0.6897097286741004,-3.5276360232758326,-0.32010691750808096,-0.46825735355766596,0.5866257724021959,2010-07,2010Q3,previous_vintage_smoothed
2010-07,0.013899462908304839,-0.06008499833035462,-0.5913029758542226,-3.3382824932341246,-0.48620974087525476,1.9097299696878274,1.6119460376062134,2010-08,2010Q3,current_smoothed
2010-06,-0.28678213096708444,-0.618401242649299,-0.20971584983822633,-3.1792123871780036,-0.399676670711006,0.20953920435630127,-0.7524524770152554,2010-08,2010Q3,previous_vintage_smoothed
2010-08,-0.23592361357946504,-0.011857197983608469,-0.7541211928193613,-2.8565797733350946,-0.3156270233712893,-0.14524909196934438,0.26315567601913004,2010-09,2010Q3,current_smoothed
2010-07,0.013899462908304839,-0.06008499833035462,-0.5913029758542226,-3.3382824932341246,-0.48620974087525476,1.9097299696878274,1.6119460376062134,2010-09,2010Q3,previous_vintage_smoothed
2010-09,-0.23468553085694568,0.24961192285680572,-0.37886147060425795,-2.8354453087876372,-0.6491420844176852,-0.657242237292793,-0.4509751157356671,2010-10,2010Q4,current_smoothed
2010-08,-0.23592361357946504,-0.011857197983608469,-0.7541211928193613,-2.8565797733350946,-0.3156270233712893,-0.14524909196934438,0.26315567601913004,2010-10,2010Q4,previous_vintage_smoothed
2010-10,-0.0438346008362769,0.3227382991680997,-0.36532129251323203,-3.4841919379276245,-0.47367238279085877,0.5299555425070926,0.5618901744229338,2010-11,2010Q4,current_smoothed
2010-09,-0.23468553085694568,0.24961192285680572,-0.37886147060425795,-2.8354453087876372,-0.6491420844176852,-0.657242237292793,-0.4509751157356671,2010-11,2010Q4,previous_vintage_smoothed
2010-11,0.09098309660841397,0.03005507846103867,0.1380986569313815,-3.3030085759521697,-0.6909328040126589,-0.49269211404581253,-0.027161387072963374,2010-12,2010Q4,current_smoothed
2010-10,-0.0438346008362769,0.3227382991680997,-0.36532129251323203,-3.4841919379276245,-0.47367238279085877,0.5299555425070926,0.5618901744229338,2010-12,2010Q4,previous_vintage_smoothed
2010-12,-0.10794803960084902,-0.01888693716036284,0.4176963343691512,-3.243336181042055,-0.435047960926237,1.531004771748175,0.48457891588017427,2011-01,2011Q1,current_smoothed
2010-11,0.09098309660841397,0.03005507846103867,0.1380986569313815,-3.3030085759521697,-0.6909328040126589,-0.49269211404581253,-0.027161387072963374,2011-01,2011Q1,previous_vintage_smoothed
2011-01,0.7555195448711659,-0.4929162300402655,-0.11176447671807341,-3.254029577421269,-0.913316166877106,-0.11671115902038626,-0.8887267121169226,2011-02,2011Q1,current_smoothed
2010-12,-0.10794803960084902,-0.01888693716036284,0.4176963343691512,-3.243336181042055,-0.435047960926237,1.531004771748175,0.48457891588017427,2011-02,2011Q1,previous_vintage_smoothed
2011-02,0.4317357941516332,-0.005176599155906243,-0.2372751666694651,-3.8069506271899076,-0.8594213072195201,0.5022146960432156,0.08153540979864511,2011-03,2011Q1,current_smoothed
2011-01,0.7555195448711659,-0.4929162300402655,-0.11176447671807341,-3.254029577421269,-0.913316166877106,-0.11671115902038626,-0.8887267121169226,2011-03,2011Q1,previous_vintage_smoothed
2011-03,0.4977716307567998,-0.00987006950869033,-0.5733751777576984,-3.333537809112454,-0.6020709493791475,0.0007097728346550902,0.24254092534262456,2011-04,2011Q2,current_smoothed
2011-02,0.4317357941516332,-0.005176599155906243,-0.2372751666694651,-3.8069506271899076,-0.8594213072195201,0.5022146960432156,0.08153540979864511,2011-04,2011Q2,previous_vintage_smoothed
2011-04,-0.4078598346795884,-0.26821246483378003,-0.314244466771445,-3.0321704895052966,0.6274073212851109,-0.4721398216564718,-0.7253632001792192,2011-05,2011Q2,current_smoothed
2011-03,0.4977716307567998,-0.00987006950869033,-0.5733751777576984,-3.333537809112454,-0.6020709493791475,0.0007097728346550902,0.24254092534262456,2011-05,2011Q2,previous_vintage_smoothed
2011-05,-0.300605208371008,-0.5073694789971469,-0.5704848826172215,-2.811955838587042,0.16706883732277616,-1.1333988969138011,0.7338936611102467,2011-06,2011Q2,current_smoothed
2011-04,-0.4078598346795884,-0.26821246483378003,-0.314244466771445,-3.0321704895052966,0.6274073212851109,-0.4721398216564718,-0.7253632001792192,2011-06,2011Q2,previous_vintage_smoothed
2011-06,-0.27527558988331263,-0.07100141606929472,-0.3293649353376189,-2.4271548530487075,-0.042980438846464186,-1.543221527545159,-0.07281907694022037,2011-07,2011Q3,current_smoothed
2011-05,-0.300605208371008,-0.5073694789971469,-0.5704848826172215,-2.811955838587042,0.16706883732277616,-1.1333988969138011,0.7338936611102467,2011-07,2011Q3,previous_vintage_smoothed
2011-07,0.06383991308293617,0.288040220796086,-0.30652670555516914,-2.7309118039055034,-0.20533466746543555,2.882060640043675,0.5986381195323277,2011-08,2011Q3,current_smoothed
2011-06,-0.27527558988331263,-0.07100141606929472,-0.3293649353376189,-2.4271548530487075,-0.042980438846464186,-1.543221527545159,-0.07281907694022037,2011-08,2011Q3,previous_vintage_smoothed
2011-08,-0.3457626906005164,-0.38243983775730195,-0.8591779123248651,-2.649150446603011,-0.21804213526844118,-0.5461978895658565,0.8463401658600854,2011-09,2011Q3,current_smoothed
2011-07,0.06383991308293617,0.288040220796086,-0.30652670555516914,-2.7309118039055034,-0.20533466746543555,2.882060640043675,0.5986381195323277,2011-09,2011Q3,previous_vintage_smoothed
2011-09,-0.11556646611607839,0.3651007885232721,-0.4499471407250431,-2.34378456767719,-0.16335129009499857,-0.2672480711992128,0.3635943882839624,2011-10,2011Q4,current_smoothed
2011-08,-0.3457626906005164,-0.38243983775730195,-0.8591779123248651,-2.649150446603011,-0.21804213526844118,-0.5461978895658565,0.8463401658600854,2011-10,2011Q4,previous_vintage_smoothed
2011-10,0.06664991645382842,-0.10746948933392987,-0.04073545477306811,-2.575320043686012,0.11913562400845365,-1.5674342622987498,0.3529385470443921,2011-11,2011Q4,current_smoothed
2011-09,-0.11556646611607839,0.3651007885232721,-0.4499471407250431,-2.34378456767719,-0.16335129009499857,-0.2672480711992128,0.3635943882839624,2011-11,2011Q4,previous_vintage_smoothed
2011-11,0.041225160104189015,-0.23014977487064717,-0.4563208930664947,-2.2659364094769257,-0.24539060594766876,0.27370578356991027,-1.1720907930406124,2011-12,2011Q4,current_smoothed
2011-10,0.06664991645382842,-0.10746948933392987,-0.04073545477306811,-2.575320043686012,0.11913562400845365,-1.5674342622987498,0.3529385470443921,2011-12,2011Q4,previous_vintage_smoothed
2011-12,0.5270737751056955,-0.5142789358422801,-0.14024802345927934,-2.643506668993948,-0.38422410074660357,0.07599573589920654,0.555308997325772,2012-01,2012Q1,current_smoothed
2011-11,0.041225160104189015,-0.23014977487064717,-0.4563208930664947,-2.2659364094769257,-0.24539060594766876,0.27370578356991027,-1.1720907930406124,2012-01,2012Q1,previous_vintage_smoothed
2012-01,0.7457902062944208,-0.3884338593402266,-0.3379064780734291,-2.563379638002406,0.03584266377023558,0.7848875261440321,-0.008330420436707077,2012-02,2012Q1,current_smoothed
2011-12,0.5270737751056955,-0.5142789358422801,-0.14024802345927934,-2.643506668993948,-0.38422410074660357,0.07599573589920654,0.555308997325772,2012-02,2012Q1,previous_vintage_smoothed
2012-02,0.3936653461084458,0.23639904746087181,-0.41289491778616355,-2.3514738937161885,0.2701372385695354,0.8262383498986142,-0.29768374039367856,2012-03,2012Q1,current_smoothed
2012-01,0.7457902062944208,-0.3884338593402266,-0.3379064780734291,-2.563379638002406,0.03584266377023558,0.7848875261440321,-0.008330420436707077,2012-03,2012Q1,previous_vintage_smoothed
2012-03,-0.1710358851105376,0.02937907179827904,0.01809367387101909,-2.193307032644787,0.4722851115591364,-0.6230166176254495,-0.6811004437352268,2012-04,2012Q2,current_smoothed
2012-02,0.3936653461084458,0.23639904746087181,-0.41289491778616355,-2.3514738937161885,0.2701372385695354,0.8262383498986142,-0.29768374039367856,2012-04,2012Q2,previous_vintage_smoothed
2012-04,-0.19459374177878547,-0.1926203076449713,-0.09489799652896634,-1.8926564362534295,0.7414372929963117,-1.1319174637787455,0.8744849642939923,2012-05,2012Q2,current_smoothed
2012-03,-0.1710358851105376,0.02937907179827904,0.01809367387101909,-2.193307032644787,0.4722851115591364,-0.6230166176254495,-0.6811004437352268,2012-05,2012Q2,previous_vintage_smoothed
2012-05,-0.51830956287786,-0.26232775086427956,-0.1543610730304347,-1.7358345123896457,0.2941984193649025,-1.3146550034044826,-0.5331163264124266,2012-06,2012Q2,current_smoothed
2012-04,-0.19459374177878547,-0.1926203076449713,-0.09489799652896634,-1.8926564362534295,0.7414372929963117,-1.1319174637787455,0.8744849642939923,2012-06,2012Q2,previous_vintage_smoothed
2012-06,0.027315718817810353,-0.7436060266946101,-0.10859080341543477,-1.7925410564775002,0.03865528652767636,1.4471141576510946,0.7854877668916238,2012-07,2012Q3,current_smoothed
2012-05,-0.51830956287786,-0.26232775086427956,-0.1543610730304347,-1.7358345123896457,0.2941984193649025,-1.3146550034044826,-0.5331163264124266,2012-07,2012Q3,previous_vintage_smoothed
2012-07,0.102109426087523,0.5339443986170244,-0.25797274414312726,-1.8531140256514311,0.11307070545334219,0.08674465208694468,0.2770792541324524,2012-08,2012Q3,current_smoothed
2012-06,0.027315718817810353,-0.7436060266946101,-0.10859080341543477,-1.7925410564775002,0.03865528652767636,1.4471141576510946,0.7854877668916238,2012-08,2012Q3,previous_vintage_smoothed
2012-08,-0.7668683195399496,-0.07898182796149601,0.0797974122815041,-1.3606734889441574,0.45634116338955,2.3711931038532748,-0.8762415466933285,2012-09,2012Q3,current_smoothed
2012-07,0.102109426087523,0.5339443986170244,-0.25797274414312726,-1.8531140256514311,0.11307070545334219,0.08674465208694468,0.2770792541324524,2012-09,2012Q3,previous_vintage_smoothed
2012-09,-0.2271054059655066,0.5521358966895438,-0.08811339967012458,-1.1492620183424163,0.2626178117736032,-0.18657868638379976,0.14795119643658544,2012-10,2012Q4,current_smoothed
2012-08,-0.7668683195399496,-0.07898182796149601,0.0797974122815041,-1.3606734889441574,0.45634116338955,2.3711931038532748,-0.8762415466933285,2012-10,2012Q4,previous_vintage_smoothed
2012-10,-0.4919697794054137,-0.487321134027049,-0.1499018300627704,-0.9603763950601449,0.5727430921733514,-1.7714174331219323,-1.4446242702488534,2012-11,2012Q4,current_smoothed
2012-09,-0.2271054059655066,0.5521358966895438,-0.08811339967012458,-1.1492620183424163,0.2626178117736032,-0.18657868638379976,0.14795119643658544,2012-11,2012Q4,previous_vintage_smoothed
2012-11,0.010035903030260841,0.14223567506652748,-0.15410605341177178,-1.3276125519582147,0.3774491044660338,-1.9684925605191248,1.5629557698449574,2012-12,2012Q4,current_smoothed
2012-10,-0.4919697794054137,-0.487321134027049,-0.1499018300627704,-0.9603763950601449,0.5727430921733514,-1.7714174331219323,-1.4446242702488534,2012-12,2012Q4,previous_vintage_smoothed
2012-12,1.6037555835969117,-0.43944938442969234,-0.22989910484244452,-1.8386388679203762,-0.9038544762298143,1.1367636943167994,-0.8991340836334649,2013-01,2013Q1,current_smoothed
2012-11,0.010035903030260841,0.14223567506652748,-0.15410605341177178,-1.3276125519582147,0.3774491044660338,-1.9684925605191248,1.5629557698449574,2013-01,2013Q1,previous_vintage_smoothed
2013-01,0.07622931692704703,-0.34806636828563026,-0.03085865663408617,-1.2664551131933905,-0.13218636718745816,0.040678165780132274,-1.3083358006705137,2013-02,2013Q1,current_smoothed
2012-12,1.6037555835969117,-0.43944938442969234,-0.22989910484244452,-1.8386388679203762,-0.9038544762298143,1.1367636943167994,-0.8991340836334649,2013-02,2013Q1,previous_vintage_smoothed
2013-02,-0.06989666985580777,0.46945346719732073,0.3022427726022962,-1.1213285005802236,0.6168477599035516,2.602195478816086,0.7996069330532011,2013-03,2013Q1,current_smoothed
2013-01,0.07622931692704703,-0.34806636828563026,-0.03085865663408617,-1.2664551131933905,-0.13218636718745816,0.040678165780132274,-1.3083358006705137,2013-03,2013Q1,previous_vintage_smoothed
2013-03,-0.25011277743297117,-0.4037191468735698,0.20885047372632642,-0.7208787349142984,0.4057756302183274,-3.432185829217517,-0.3475499209847662,2013-04,2013Q2,current_smoothed
2013-02,-0.06989666985580777,0.46945346719732073,0.3022427726022962,-1.1213285005802236,0.6168477599035516,2.602195478816086,0.7996069330532011,2013-04,2013Q2,previous_vintage_smoothed
2013-04,-0.6321462762472079,-0.13406903850267243,-0.21503734161406451,-1.035522561722595,0.6940681648023292,-0.8387584049827137,-0.3963480096766477,2013-05,2013Q2,current_smoothed
2013-03,-0.25011277743297117,-0.4037191468735698,0.20885047372632642,-0.7208787349142984,0.4057756302183274,-3.432185829217517,-0.3475499209847662,2013-05,2013Q2,previous_vintage_smoothed
2013-05,-0.18572190902051916,0.16550093759423043,0.20630104742760344,-0.9929616507522471,0.3330364095843446,2.1950015759479236,0.019566048397301545,2013-06,2013Q2,current_smoothed
2013-04,-0.6321462762472079,-0.13406903850267243,-0.21503734161406451,-1.035522561722595,0.6940681648023292,-0.8387584049827137,-0.3963480096766477,2013-06,2013Q2,previous_vintage_smoothed
2013-06,-0.04607603850057154,-0.05764964642105115,0.6873225559058608,-1.340104796048903,0.3033400969860531,1.4954174448760893,0.10570323302244272,2013-07,2013Q3,current_smoothed
2013-05,-0.18572190902051916,0.16550093759423043,0.20630104742760344,-0.9929616507522471,0.3330364095843446,2.1950015759479236,0.019566048397301545,2013-07,2013Q3,previous_vintage_smoothed
2013-07,-0.26083356819329007,-0.3732011490572987,0.6208055111262044,-1.0021271438192918,0.39258548691876866,-1.43107396042782,-0.3178304964699503,2013-08,2013Q3,current_smoothed
2013-06,-0.04607603850057154,-0.05764964642105115,0.6873225559058608,-1.340104796048903,0.3033400969860531,1.4954174448760893,0.10570323302244272,2013-08,2013Q3,previous_vintage_smoothed
2013-08,0.04026736584106709,-0.46087080263586305,0.3275437298184197,-1.1610567411150494,0.07438005136761877,-0.20080657847108568,0.7298408254338087,2013-09,2013Q3,current_smoothed
2013-07,-0.26083356819329007,-0.3732011490572987,0.6208055111262044,-1.0021271438192918,0.39258548691876866,-1.43107396042782,-0.3178304964699503,2013-09,2013Q3,previous_vintage_smoothed
2013-09,0.17440198833644838,-0.30798919629963306,0.16036841596162552,-1.1194554860019683,-0.1972881452579073,0.1948616469344307,-0.37603731354891573,2013-10,2013Q4,current_smoothed
2013-08,0.04026736584106709,-0.46087080263586305,0.3275437298184197,-1.1610567411150494,0.07438005136761877,-0.20080657847108568,0.7298408254338087,2013-10,2013Q4,previous_vintage_smoothed
2013-10,-0.10216057891079265,-0.026348191768014215,-0.18154710074673297,-0.7772387096166684,0.5208763341169292,-0.9156678396636769,0.2316539966666685,2013-11,2013Q4,current_smoothed
2013-09,0.17440198833644838,-0.30798919629963306,0.16036841596162552,-1.1194554860019683,-0.1972881452579073,0.1948616469344307,-0.37603731354891573,2013-11,2013Q4,previous_vintage_smoothed
2013-11,0.5329636013829282,0.20392395118157025,0.014106604149333854,-0.7288655067118648,0.10314911263644054,0.2887623060801676,0.13455786524788224,2013-12,2013Q4,current_smoothed
2013-10,-0.10216057891079265,-0.026348191768014215,-0.18154710074673297,-0.7772387096166684,0.5208763341169292,-0.9156678396636769,0.2316539966666685,2013-12,2013Q4,previous_vintage_smoothed
2013-12,-0.16841539083413035,-0.2971091436558963,0.06106452852554216,-0.7029496938535418,0.43433440702991505,1.231258175888804,0.5974500926227062,2014-01,2014Q1,current_smoothed
2013-11,0.5329636013829282,0.20392395118157025,0.014106604149333854,-0.7288655067118648,0.10314911263644054,0.2887623060801676,0.13455786524788224,2014-01,2014Q1,previous_vintage_smoothed
2014-01,-0.8905306112471404,-0.4734925980292273,-0.11868661281242747,-0.7648608132802133,0.8597117969513932,-0.5465737222936062,-0.9141298890138929,2014-02,2014Q1,current_smoothed
2013-12,-0.16841539083413035,-0.2971091436558963,0.06106452852554216,-0.7029496938535418,0.43433440702991505,1.231258175888804,0.5974500926227062,2014-02,2014Q1,previous_vintage_smoothed
2014-02,-0.32086301699510256,0.04653605069386287,-0.09071079504665083,-0.9072225064364895,0.3270238343298315,-0.10158626642466158,1.5905459653180718,2014-03,2014Q1,current_smoothed
2014-01,-0.8905306112471404,-0.4734925980292273,-0.11868661281242747,-0.7648608132802133,0.8597117969513932,-0.5465737222936062,-0.9141298890138929,2014-03,2014Q1,previous_vintage_smoothed
2014-03,0.44560206676328457,0.3804040863250344,-0.21764164495828764,-1.165857921281779,0.18684484648108482,0.17211157170204136,0.03090398578965679,2014-04,2014Q2,current_smoothed
2014-02,-0.32086301699510256,0.04653605069386287,-0.09071079504665083,-0.9072225064364895,0.3270238343298315,-0.10158626642466158,1.5905459653180718,2014-04,2014Q2,previous_vintage_smoothed
2014-04,0.3589063289169962,-0.5901751044539062,-0.4226250468092984,-0.7346261636221519,0.3876808858667534,0.43912818453317626,-1.5965711557198659,2014-05,2014Q2,current_smoothed
2014-03,0.44560206676328457,0.3804040863250344,-0.21764164495828764,-1.165857921281779,0.18684484648108482,0.17211157170204136,0.03090398578965679,2014-05,2014Q2,previous_vintage_smoothed
2014-05,0.19372700587829447,-0.4799153217595151,-0.543228046965556,-0.885197839245386,0.34363020921675663,0.0767180236884488,0.4197368059300631,2014-06,2014Q2,current_smoothed
2014-04,0.3589063289169962,-0.5901751044539062,-0.4226250468092984,-0.7346261636221519,0.3876808858667534,0.43912818453317626,-1.5965711557198659,2014-06,2014Q2,previous_vintage_smoothed
2014-06,0.10469235239219897,-0.17566237857383285,-0.224426265598515,-1.1960447663177498,0.6199363037038922,-0.025595420295217167,-0.3287421537896077,2014-07,2014Q3,current_smoothed
2014-05,0.19372700587829447,-0.4799153217595151,-0.543228046965556,-0.885197839245386,0.34363020921675663,0.0767180236884488,0.4197368059300631,2014-07,2014Q3,previous_vintage_smoothed
2014-07,0.953422608451235,-0.5615900484844029,-0.4626947889186077,-1.0082391734286376,-0.06094983767807493,-0.8863060356797018,0.19881976029618806,2014-08,2014Q3,current_smoothed
2014-06,0.10469235239219897,-0.17566237857383285,-0.224426265598515,-1.1960447663177498,0.6199363037038922,-0.025595420295217167,-0.3287421537896077,2014-08,2014Q3,previous_vintage_smoothed
2014-08,-0.34667776324897404,0.05421596656014726,-0.2602932612051594,-0.7745215152380754,0.43636844623265547,-1.107545643265063,-0.8053763443832834,2014-09,2014Q3,current_smoothed
2014-07,0.953422608451235,-0.5615900484844029,-0.4626947889186077,-1.0082391734286376,-0.06094983767807493,-0.8863060356797018,0.19881976029618806,2014-09,2014Q3,previous_vintage_smoothed
2014-09,-0.17820830038142427,-1.077941753471304,0.13432552104668688,-0.6620007173378576,0.65493410178278,1.0420492550448504,0.6199232223906422,2014-10,2014Q4,current_smoothed
2014-08,-0.34667776324897404,0.05421596656014726,-0.2602932612051594,-0.7745215152380754,0.43636844623265547,-1.107545643265063,-0.8053763443832834,2014-10,2014Q4,previous_vintage_smoothed
2014-10,-0.104353712316681,-0.194572765774913,-0.1915054913165847,-0.699397322623913,0.4251001736475689,-0.3254698444763611,-0.05129070448873822,2014-11,2014Q4,current_smoothed
2014-09,-0.17820830038142427,-1.077941753471304,0.13432552104668688,-0.6620007173378576,0.65493410178278,1.0420492550448504,0.6199232223906422,2014-11,2014Q4,previous_vintage_smoothed
2014-11,0.37586987358300955,0.3349295356042083,0.060181227578748483,-0.9032711733777137,0.44481259719564614,-1.2373604646659437,1.2041670835938603,2014-12,2014Q4,current_smoothed
2014-10,-0.104353712316681,-0.194572765774913,-0.1915054913165847,-0.699397322623913,0.4251001736475689,-0.3254698444763611,-0.05129070448873822,2014-12,2014Q4,previous_vintage_smoothed
2014-12,0.21288929201411774,-0.998351719483408,-0.06054392046196448,-0.6813592022873497,0.6467976815188702,-0.5496729607950028,-0.20655437427122772,2015-01,2015Q1,current_smoothed
2014-11,0.37586987358300955,0.3349295356042083,0.060181227578748483,-0.9032711733777137,0.44481259719564614,-1.2373604646659437,1.2041670835938603,2015-01,2015Q1,previous_vintage_smoothed
2015-01,-0.19421610877111617,-0.5931202938872027,-0.34509211715117466,-0.5349277254215544,1.0807843327055728,-1.576855858287622,0.09863415235432849,2015-02,2015Q1,current_smoothed
2014-12,0.21288929201411774,-0.998351719483408,-0.06054392046196448,-0.6813592022873497,0.6467976815188702,-0.5496729607950028,-0.20655437427122772,2015-02,2015Q1,previous_vintage_smoothed
2015-02,-0.8429499551881868,-0.38506747354482,0.1551472056316547,-0.6742506731860416,1.2914188743433328,4.080721136986752,0.10280452819313904,2015-03,2015Q1,current_smoothed
2015-01,-0.19421610877111617,-0.5931202938872027,-0.34509211715117466,-0.5349277254215544,1.0807843327055728,-1.576855858287622,0.09863415235432849,2015-03,2015Q1,previous_vintage_smoothed
2015-03,-0.35515076311207944,0.26807866131064056,0.2850385091416314,-0.7804167443194374,0.8191013741253159,0.18348982045809809,0.14289883862135924,2015-04,2015Q2,current_smoothed
2015-02,-0.8429499551881868,-0.38506747354482,0.1551472056316547,-0.6742506731860416,1.2914188743433328,4.080721136986752,0.10280452819313904,2015-04,2015Q2,previous_vintage_smoothed
2015-04,0.07645019258974926,-0.18868075449764748,-0.030565877337822022,-0.3534874217232175,0.5070504440201874,-0.7815727021909743,-0.5447629788380889,2015-05,2015Q2,current_smoothed
2015-03,-0.35515076311207944,0.26807866131064056,0.2850385091416314,-0.7804167443194374,0.8191013741253159,0.18348982045809809,0.14289883862135924,2015-05,2015Q2,previous_vintage_smoothed
2015-05,-0.3297009241621269,0.5175662533268907,0.5546087293420316,-0.3912656965181835,0.6572074782911824,1.7041815688637925,-0.4293892254483401,2015-06,2015Q2,current_smoothed
2015-04,0.07645019258974926,-0.18868075449764748,-0.030565877337822022,-0.3534874217232175,0.5070504440201874,-0.7815727021909743,-0.5447629788380889,2015-06,2015Q2,previous_vintage_smoothed
2015-06,-0.06874754014469696,-0.2945739073665676,0.5896176397294604,-0.09840312313933731,0.8219860329720309,-0.7013169737071958,-0.5284180562079894,2015-07,2015Q3,current_smoothed
2015-05,-0.3297009241621269,0.5175662533268907,0.5546087293420316,-0.3912656965181835,0.6572074782911824,1.7041815688637925,-0.4293892254483401,2015-07,2015Q3,previous_vintage_smoothed
2015-07,0.1520926883979377,0.10408160902949899,0.34224989887067886,-0.20448827133820388,0.47977685903510897,-0.8661475613766079,0.930453072712312,2015-08,2015Q3,current_smoothed
2015-06,-0.06874754014469696,-0.2945739073665676,0.5896176397294604,-0.09840312313933731,0.8219860329720309,-0.7013169737071958,-0.5284180562079894,2015-08,2015Q3,previous_vintage_smoothed
2015-08,-0.37391881097121793,0.1092995730563318,0.17389150686431157,-0.1533373154928147,0.49653821976289847,-0.78798446067577,-0.8998865313328099,2015-09,2015Q3,current_smoothed
2015-07,0.1520926883979377,0.10408160902949899,0.34224989887067886,-0.20448827133820388,0.47977685903510897,-0.8661475613766079,0.930453072712312,2015-09,2015Q3,previous_vintage_smoothed
2015-09,-0.44538553902768313,-0.10598655734096694,0.31035283358544785,0.03239414389570482,0.45452176659553833,-0.40453279030930434,-0.1480533195670592,2015-10,2015Q4,current_smoothed
2015-08,-0.37391881097121793,0.1092995730563318,0.17389150686431157,-0.1533373154928147,0.49653821976289847,-0.78798446067577,-0.8998865313328099,2015-10,2015Q4,previous_vintage_smoothed
2015-10,0.050417318394030755,-0.3446564057515084,0.018005086541240656,-0.6041151532234841,0.07563584810575424,1.3710609085442969,0.1929603526503473,2015-11,2015Q4,current_smoothed
2015-09,-0.44538553902768313,-0.10598655734096694,0.31035283358544785,0.03239414389570482,0.45452176659553833,-0.40453279030930434,-0.1480533195670592,2015-11,2015Q4,previous_vintage_smoothed
2015-11,0.052103267290847785,-0.0788956484175368,0.42550305473853467,-0.2378814417081019,0.17172665811390922,-0.5326301846282349,-0.44819432376426444,2015-12,2015Q4,current_smoothed
2015-10,0.050417318394030755,-0.3446564057515084,0.018005086541240656,-0.6041151532234841,0.07563584810575424,1.3710609085442969,0.1929603526503473,2015-12,2015Q4,previous_vintage_smoothed
2015-12,-0.2692423416978648,-0.5651162786900867,0.3708325001108306,-0.15296174578751687,0.6940192113902108,-0.6395413742973678,-0.28434193673224706,2016-01,2016Q1,current_smoothed
2015-11,0.052103267290847785,-0.0788956484175368,0.42550305473853467,-0.2378814417081019,0.17172665811390922,-0.5326301846282349,-0.44819432376426444,2016-01,2016Q1,previous_vintage_smoothed
2016-01,-0.1889730915289091,0.2068609770487757,0.2956753066777337,-0.31386393623640113,0.6915472335684726,0.6421414554483124,0.6843173501473917,2016-02,2016Q1,current_smoothed
2015-12,-0.2692423416978648,-0.5651162786900867,0.3708325001108306,-0.15296174578751687,0.6940192113902108,-0.6395413742973678,-0.28434193673224706,2016-02,2016Q1,previous_vintage_smoothed
2016-02,-0.02548179600572669,-0.3583432434352312,-0.07365643896401167,-0.19797207929759178,0.22116357048725918,-0.9412420740805938,-0.13791709580314812,2016-03,2016Q1,current_smoothed
2016-01,-0.1889730915289091,0.2068609770487757,0.2956753066777337,-0.31386393623640113,0.6915472335684726,0.6421414554483124,0.6843173501473917,2016-03,2016Q1,previous_vintage_smoothed
2016-03,-0.4627373548606514,-0.4879018189202548,-0.1392162782280556,-0.28430999603735124,0.3307033497716504,1.32199017967476,-0.4035784543734185,2016-04,2016Q2,current_smoothed
2016-02,-0.02548179600572669,-0.3583432434352312,-0.07365643896401167,-0.19797207929759178,0.22116357048725918,-0.9412420740805938,-0.13791709580314812,2016-04,2016Q2,previous_vintage_smoothed
2016-04,-0.04077827413883872,0.7050015206311891,-0.5676648191039335,-0.3074850392959504,0.27839159682403725,1.2657589261948803,0.20330524826058005,2016-05,2016Q2,current_smoothed
2016-03,-0.4627373548606514,-0.4879018189202548,-0.1392162782280556,-0.28430999603735124,0.3307033497716504,1.32199017967476,-0.4035784543734185,2016-05,2016Q2,previous_vintage_smoothed
2016-05,-0.5481445000688349,0.16917268048103837,-0.20847173488776105,-0.09266970753901703,0.5023782596901996,-0.7482235933577362,-0.5399773753565584,2016-06,2016Q2,current_smoothed
2016-04,-0.04077827413883872,0.7050015206311891,-0.5676648191039335,-0.3074850392959504,0.27839159682403725,1.2657589261948803,0.20330524826058005,2016-06,2016Q2,previous_vintage_smoothed
2016-06,-0.3816374343858833,-0.005567679769599556,-0.2936894865278278,-0.11335459555083069,0.39146041621993,0.05493089332284963,0.7823963221558098,2016-07,2016Q3,current_smoothed
2016-05,-0.5481445000688349,0.16917268048103837,-0.20847173488776105,-0.09266970753901703,0.5023782596901996,-0.7482235933577362,-0.5399773753565584,2016-07,2016Q3,previous_vintage_smoothed
2016-07,0.2429017702979013,-0.22338896299734803,-0.48286611069208185,-0.3965317438708172,0.21662321921849587,-1.1117462465607049,0.32337964914500467,2016-08,2016Q3,current_smoothed
2016-06,-0.3816374343858833,-0.005567679769599556,-0.2936894865278278,-0.11335459555083069,0.39146041621993,0.05493089332284963,0.7823963221558098,2016-08,2016Q3,previous_vintage_smoothed
2016-08,-0.46637499503135804,-0.49291898572336323,-0.12252759943133004,-0.23154954318620663,0.3913893529119458,0.9110992204367153,-0.7143084584843529,2016-09,2016Q3,current_smoothed
2016-07,0.2429017702979013,-0.22338896299734803,-0.48286611069208185,-0.3965317438708172,0.21662321921849587,-1.1117462465607049,0.32337964914500467,2016-09,2016Q3,previous_vintage_smoothed
2016-09,-0.617715954222291,0.21305041942596242,0.15997419989874373,-0.34707723370647026,0.2753329409970154,0.5942151714339511,0.6193609671763657,2016-10,2016Q4,current_smoothed
2016-08,-0.46637499503135804,-0.49291898572336323,-0.12252759943133004,-0.23154954318620663,0.3913893529119458,0.9110992204367153,-0.7143084584843529,2016-10,2016Q4,previous_vintage_smoothed
2016-10,0.3589802906061957,-0.010013058032700792,0.2796594718283811,-0.10749488240024181,-0.0035442077279226034,0.2696773540681331,-0.48866744774218407,2016-11,2016Q4,current_smoothed
2016-09,-0.617715954222291,0.21305041942596242,0.15997419989874373,-0.34707723370647026,0.2753329409970154,0.5942151714339511,0.6193609671763657,2016-11,2016Q4,previous_vintage_smoothed
2016-11,-0.43989357505899535,-0.3529803736123492,0.814270076405797,-0.29398547220956994,0.29654161242865434,-0.8997770404341207,-0.031209815832335747,2016-12,2016Q4,current_smoothed
2016-10,0.3589802906061957,-0.010013058032700792,0.2796594718283811,-0.10749488240024181,-0.0035442077279226034,0.2696773540681331,-0.48866744774218407,2016-12,2016Q4,previous_vintage_smoothed
2016-12,-0.2558894076386974,0.2632477264336803,0.8475663774813538,-0.01032095457298,0.49096537089058917,0.5414091848642214,0.18252277544963977,2017-01,2017Q1,current_smoothed
2016-11,-0.43989357505899535,-0.3529803736123492,0.814270076405797,-0.29398547220956994,0.29654161242865434,-0.8997770404341207,-0.031209815832335747,2017-01,2017Q1,previous_vintage_smoothed
2017-01,0.017491641185185727,-0.1799281644885425,0.1924298304529742,-0.12080461756956047,0.1875156515991584,1.2079870739119016,-0.12032067218749758,2017-02,2017Q1,current_smoothed
2016-12,-0.2558894076386974,0.2632477264336803,0.8475663774813538,-0.01032095457298,0.49096537089058917,0.5414091848642214,0.18252277544963977,2017-02,2017Q1,previous_vintage_smoothed
2017-02,0.30968532654514114,-0.4247526429317333,0.06083544506529502,-0.18501523741603199,0.24032402480835025,-1.9562021643295167,0.15133785117537485,2017-03,2017Q1,current_smoothed
2017-01,0.017491641185185727,-0.1799281644885425,0.1924298304529742,-0.12080461756956047,0.1875156515991584,1.2079870739119016,-0.12032067218749758,2017-03,2017Q1,previous_vintage_smoothed
2017-03,-0.4932552289281794,-0.2700571528237248,0.43793562275567005,0.046039522821929975,0.4902143364169115,-1.4905063444484337,-0.5347236442968425,2017-04,2017Q2,current_smoothed
2017-02,0.30968532654514114,-0.4247526429317333,0.06083544506529502,-0.18501523741603199,0.24032402480835025,-1.9562021643295167,0.15133785117537485,2017-04,2017Q2,previous_vintage_smoothed
2017-04,0.01483464476244906,-0.05821645793773155,0.15151026766828846,-0.2653781110740172,0.341734846510138,1.972757613613627,1.42909145860699,2017-05,2017Q2,current_smoothed
2017-03,-0.4932552289281794,-0.2700571528237248,0.43793562275567005,0.046039522821929975,0.4902143364169115,-1.4905063444484337,-0.5347236442968425,2017-05,2017Q2,previous_vintage_smoothed
2017-05,-0.3744358536229611,-0.38126829170219007,0.20236027436175236,-0.2739618472133918,0.28603874843801563,-1.367580637027572,-0.6625713593934769,2017-06,2017Q2,current_smoothed
2017-04,0.01483464476244906,-0.05821645793773155,0.15151026766828846,-0.2653781110740172,0.341734846510138,1.972757613613627,1.42909145860699,2017-06,2017Q2,previous_vintage_smoothed
2017-06,0.08643555059615435,-0.17824367668039373,-0.0053081898326392835,-0.1667142176719,0.1624824732257379,0.5315919431949871,-0.1826275614097314,2017-07,2017Q3,current_smoothed
2017-05,-0.3744358536229611,-0.38126829170219007,0.20236027436175236,-0.2739618472133918,0.28603874843801563,-1.367580637027572,-0.6625713593934769,2017-07,2017Q3,previous_vintage_smoothed
2017-07,-0.2975443722865688,0.08946027092278801,0.23569294078833866,-0.12521204869003835,0.5476304359154394,0.4916957508553851,-0.20076630371306214,2017-08,2017Q3,current_smoothed
2017-06,0.08643555059615435,-0.17824367668039373,-0.0053081898326392835,-0.1667142176719,0.1624824732257379,0.5315919431949871,-0.1826275614097314,2017-08,2017Q3,previous_vintage_smoothed
2017-08,-0.3719283490298856,-0.5955087122874955,-0.020829811980099974,-0.008588572367662022,0.7613350911709432,1.1207025177364045,-0.5379886116903292,2017-09,2017Q3,current_smoothed
2017-07,-0.2975443722865688,0.08946027092278801,0.23569294078833866,-0.12521204869003835,0.5476304359154394,0.4916957508553851,-0.20076630371306214,2017-09,2017Q3,previous_vintage_smoothed
2017-09,-0.626281835308695,1.0213297456298829,0.122198090345216,-0.011824507767328714,0.3517278012297462,0.8600028358080639,0.5011765833524902,2017-10,2017Q4,current_smoothed
2017-08,-0.3719283490298856,-0.5955087122874955,-0.020829811980099974,-0.008588572367662022,0.7613350911709432,1.1207025177364045,-0.5379886116903292,2017-10,2017Q4,previous_vintage_smoothed
2017-10,0.6966696100958683,-0.45814631322842214,0.11295064639125656,-0.24017312786117007,-0.23590666095142923,-1.9447161676375024,1.1277215431194223,2017-11,2017Q4,current_smoothed
2017-09,-0.626281835308695,1.0213297456298829,0.122198090345216,-0.011824507767328714,0.3517278012297462,0.8600028358080639,0.5011765833524902,2017-11,2017Q4,previous_vintage_smoothed
2017-11,0.29154431906133504,0.10141406264961117,0.023662059946093206,-0.01969623729920558,0.12495522889597772,1.1862872433304046,-0.41638003939079965,2017-12,2017Q4,current_smoothed
2017-10,0.6966696100958683,-0.45814631322842214,0.11295064639125656,-0.24017312786117007,-0.23590666095142923,-1.9447161676375024,1.1277215431194223,2017-12,2017Q4,previous_vintage_smoothed
2017-12,-0.10598316736127733,0.024172018274251913,0.13480731885958086,-0.0804701445474136,0.39276491384195744,-1.153176312979553,-0.115518828218627,2018-01,2018Q1,current_smoothed
2017-11,0.29154431906133504,0.10141406264961117,0.023662059946093206,-0.01969623729920558,0.12495522889597772,1.1862872433304046,-0.41638003939079965,2018-01,2018Q1,previous_vintage_smoothed
2018-01,-0.028605113835524963,-0.46403403957362954,0.2869674076138391,0.22902916831544623,0.2818074137349558,1.4960459724501678,-0.36589160594225395,2018-02,2018Q1,current_smoothed
2017-12,-0.10598316736127733,0.024172018274251913,0.13480731885958086,-0.0804701445474136,0.39276491384195744,-1.153176312979553,-0.115518828218627,2018-02,2018Q1,previous_vintage_smoothed
2018-02,0.4906214295376437,-0.5311211191472199,0.5679814151979068,-0.254115736271792,0.5753326725263662,-1.6713526657682993,1.3819310183842894,2018-03,2018Q1,current_smoothed
2018-01,-0.028605113835524963,-0.46403403957362954,0.2869674076138391,0.22902916831544623,0.2818074137349558,1.4960459724501678,-0.36589160594225395,2018-03,2018Q1,previous_vintage_smoothed
2018-03,0.19043990476226827,0.14304501784112747,0.5598208154019909,0.08930829850326738,0.227242936393294,-0.8679924659267682,-0.4870753120971201,2018-04,2018Q2,current_smoothed
2018-02,0.4906214295376437,-0.5311211191472199,0.5679814151979068,-0.254115736271792,0.5753326725263662,-1.6713526657682993,1.3819310183842894,2018-04,2018Q2,previous_vintage_smoothed
2018-04,0.012210108118537226,-0.1506512354891081,0.5616714375100614,0.1247900232713773,0.4843545408686453,1.2432939267492344,0.4884180696181424,2018-05,2018Q2,current_smoothed
2018-03,0.19043990476226827,0.14304501784112747,0.5598208154019909,0.08930829850326738,0.227242936393294,-0.8679924659267682,-0.4870753120971201,2018-05,2018Q2,previous_vintage_smoothed
2018-05,-0.26400838532747223,-0.04522473538596007,0.7391103247984807,0.3698279097322065,0.7849008642749252,-0.007568310672306207,-1.3488153087032344,2018-06,2018Q2,current_smoothed
2018-04,0.012210108118537226,-0.1506512354891081,0.5616714375100614,0.1247900232713773,0.4843545408686453,1.2432939267492344,0.4884180696181424,2018-06,2018Q2,previous_vintage_smoothed
2018-06,-0.22293944320526082,0.13214579929870504,0.5142655048713434,-0.07720068138086482,0.7659281913951654,-0.4033480825518259,1.306914684808572,2018-07,2018Q3,current_smoothed
2018-05,-0.26400838532747223,-0.04522473538596007,0.7391103247984807,0.3698279097322065,0.7849008642749252,-0.007568310672306207,-1.3488153087032344,2018-07,2018Q3,previous_vintage_smoothed
2018-07,0.07780854983000514,-0.1547995451273599,0.3299206566550953,-0.19569884253293,0.2891501535284327,0.13585033066325372,0.03359405035330537,2018-08,2018Q3,current_smoothed
2018-06,-0.22293944320526082,0.13214579929870504,0.5142655048713434,-0.07720068138086482,0.7659281913951654,-0.4033480825518259,1.306914684808572,2018-08,2018Q3,previous_vintage_smoothed
2018-08,0.14107801929689917,-0.11415788479801108,0.20292350103466747,0.029549072504810106,0.011311465037807654,0.11059086417947467,-0.1063944656906749,2018-09,2018Q3,current_smoothed
2018-07,0.07780854983000514,-0.1547995451273599,0.3299206566550953,-0.19569884253293,0.2891501535284327,0.13585033066325372,0.03359405035330537,2018-09,2018Q3,previous_vintage_smoothed
2018-09,0.0858427090516675,-0.19453538329902292,0.32638315956149433,-0.15851380034634083,-0.09583928802439713,-0.5333744828139558,-0.059096887774712184,2018-10,2018Q4,current_smoothed
2018-08,0.14107801929689917,-0.11415788479801108,0.20292350103466747,0.029549072504810106,0.011311465037807654,0.11059086417947467,-0.1063944656906749,2018-10,2018Q4,previous_vintage_smoothed
2018-10,0.06570759066788984,0.08464135819237482,0.7777569783923197,-0.08853417834352709,0.3416436437646611,1.0357767610149897,0.023413037223787445,2018-11,2018Q4,current_smoothed
2018-09,0.0858427090516675,-0.19453538329902292,0.32638315956149433,-0.15851380034634083,-0.09583928802439713,-0.5333744828139558,-0.059096887774712184,2018-11,2018Q4,previous_vintage_smoothed
2018-11,-0.3144305511978925,0.16886224070532938,0.7451735081666674,0.18250581909490868,0.7078208379151754,-1.3755282312247201,-0.06009790092173742,2018-12,2018Q4,current_smoothed
2018-10,0.06570759066788984,0.08464135819237482,0.7777569783923197,-0.08853417834352709,0.3416436437646611,1.0357767610149897,0.023413037223787445,2018-12,2018Q4,previous_vintage_smoothed
2018-12,0.31083553680032094,-0.024125655890120484,0.2394677948314955,0.04257521569511587,0.48665503664212056,-0.4660522002645853,1.1785116540653506,2019-01,2019Q1,current_smoothed
2018-11,-0.3144305511978925,0.16886224070532938,0.7451735081666674,0.18250581909490868,0.7078208379151754,-1.3755282312247201,-0.06009790092173742,2019-01,2019Q1,previous_vintage_smoothed
2019-01,-0.641313298920761,0.2131090802364796,0.3847039648808661,-0.22141579903751143,1.0297061806775045,0.18927023661613018,-1.3164140693666435,2019-02,2019Q1,current_smoothed
2018-12,0.31083553680032094,-0.024125655890120484,0.2394677948314955,0.04257521569511587,0.48665503664212056,-0.4660522002645853,1.1785116540653506,2019-02,2019Q1,previous_vintage_smoothed
2019-02,-0.6397005889188384,-0.029170866832334726,0.07150063976085733,0.171273772314179,0.525281947156567,1.020543592739666,-0.41543301869103255,2019-03,2019Q1,current_smoothed
2019-01,-0.641313298920761,0.2131090802364796,0.3847039648808661,-0.22141579903751143,1.0297061806775045,0.18927023661613018,-1.3164140693666435,2019-03,2019Q1,previous_vintage_smoothed
2019-03,-0.534164244203204,0.9405721617526315,0.07646267663985339,0.08086269729578151,0.3063778735482233,0.9767962931905034,0.17017534440191942,2019-04,2019Q2,current_smoothed
2019-02,-0.6397005889188384,-0.029170866832334726,0.07150063976085733,0.171273772314179,0.525281947156567,1.020543592739666,-0.41543301869103255,2019-04,2019Q2,previous_vintage_smoothed
2019-04,-0.3138692832831832,-0.5139794699423504,0.0017515072347184277,0.19664729925605615,0.4391855441377224,-0.21283337859721135,-1.0448623511517754,2019-05,2019Q2,current_smoothed
2019-03,-0.534164244203204,0.9405721617526315,0.07646267663985339,0.08086269729578151,0.3063778735482233,0.9767962931905034,0.17017534440191942,2019-05,2019Q2,previous_vintage_smoothed
2019-05,-0.43894703225742626,0.21777879456013363,-0.026973619033399156,0.30900481494935106,0.19832944833908817,-1.0092006315473987,0.44360535355841435,2019-06,2019Q2,current_smoothed
2019-04,-0.3138692832831832,-0.5139794699423504,0.0017515072347184277,0.19664729925605615,0.4391855441377224,-0.21283337859721135,-1.0448623511517754,2019-06,2019Q2,previous_vintage_smoothed
2019-06,-0.07867489368890625,0.04397340872756628,-0.4176213245580523,0.0501407412901163,0.38466817426142563,-0.1312323299099071,0.43258617167706653,2019-07,2019Q3,current_smoothed
2019-05,-0.43894703225742626,0.21777879456013363,-0.026973619033399156,0.30900481494935106,0.19832944833908817,-1.0092006315473987,0.44360535355841435,2019-07,2019Q3,previous_vintage_smoothed
2019-07,-0.4803965497536097,0.3817846960293886,-0.23823623137626126,0.11543562969954235,0.6726620516049735,1.1221974803564545,-0.5461260448021336,2019-08,2019Q3,current_smoothed
2019-06,-0.07867489368890625,0.04397340872756628,-0.4176213245580523,0.0501407412901163,0.38466817426142563,-0.1312323299099071,0.43258617167706653,2019-08,2019Q3,previous_vintage_smoothed
2019-08,0.017068586230849243,-0.1271516252610511,-1.0059793723300716,0.3175800552651719,0.06346820840303549,-1.249175726987471,0.5301672659609236,2019-09,2019Q3,current_smoothed
2019-07,-0.4803965497536097,0.3817846960293886,-0.23823623137626126,0.11543562969954235,0.6726620516049735,1.1221974803564545,-0.5461260448021336,2019-09,2019Q3,previous_vintage_smoothed
2019-09,-0.4183269576395861,-0.379537005656785,-0.3674432253839154,0.2842767215235184,0.14636194459197713,-0.1525887845932387,-0.797886770508226,2019-10,2019Q4,current_smoothed
2019-08,0.017068586230849243,-0.1271516252610511,-1.0059793723300716,0.3175800552651719,0.06346820840303549,-1.249175726987471,0.5301672659609236,2019-10,2019Q4,previous_vintage_smoothed
2019-10,-0.7983321874796532,-0.06250144199265999,-0.414157850860309,0.6581441295837576,0.3151430163321786,1.4919826270909955,-0.6994226548442175,2019-11,2019Q4,current_smoothed
2019-09,-0.4183269576395861,-0.379537005656785,-0.3674432253839154,0.2842767215235184,0.14636194459197713,-0.1525887845932387,-0.797886770508226,2019-11,2019Q4,previous_vintage_smoothed
2019-11,-0.07040136652922657,-0.052305257330562197,-0.3812210236753765,0.4305520514775353,0.6688762768554508,-0.4033335759617834,1.6855027214212464,2019-12,2019Q4,current_smoothed
2019-10,-0.7983321874796532,-0.06250144199265999,-0.414157850860309,0.6581441295837576,0.3151430163321786,1.4919826270909955,-0.6994226548442175,2019-12,2019Q4,previous_vintage_smoothed
2019-12,0.10183053433952957,-0.41913665655190313,-0.26355165041885226,0.7773213925396394,0.41320672559709803,0.09399133857559273,-0.24251972987213377,2020-01,2020Q1,current_smoothed
2019-11,-0.07040136652922657,-0.052305257330562197,-0.3812210236753765,0.4305520514775353,0.6688762768554508,-0.4033335759617834,1.6855027214212464,2020-01,2020Q1,previous_vintage_smoothed
2020-01,-0.17036060741559264,-0.0479683532111115,-0.2994722832006122,0.7960449265756826,0.033513663682914634,-0.6862776022268797,-0.3812883603331509,2020-02,2020Q1,current_smoothed
2019-12,0.10183053433952957,-0.41913665655190313,-0.26355165041885226,0.7773213925396394,0.41320672559709803,0.09399133857559273,-0.24251972987213377,2020-02,2020Q1,previous_vintage_smoothed
2020-02,-0.11351004715575559,-0.6519092428658284,-0.3461764056098065,0.7634038758270487,0.5389951636063514,-0.19867058541583976,-0.10619037631380067,2020-03,2020Q1,current_smoothed
2020-01,-0.17036060741559264,-0.0479683532111115,-0.2994722832006122,0.7960449265756826,0.033513663682914634,-0.6862776022268797,-0.3812883603331509,2020-03,2020Q1,previous_vintage_smoothed
2020-03,-7.344532276228902,-8.655542394152459,0.6303681393752592,3.465934263851015,6.444921622850324,-1.7401408086623587,-3.5714240221865934,2020-04,2020Q2,current_smoothed
2020-02,-0.11351004715575559,-0.6519092428658284,-0.3461764056098065,0.7634038758270487,0.5389951636063514,-0.19867058541583976,-0.10619037631380067,2020-04,2020Q2,previous_vintage_smoothed
2020-04,-16.039501838235253,-12.45070483644187,2.5866352756277737,7.378291223033652,-7.4419878451553005,-0.705764425169188,-2.853810960944122,2020-05,2020Q2,current_smoothed
2020-03,-7.344532276228902,-8.655542394152459,0.6303681393752592,3.465934263851015,6.444921622850324,-1.7401408086623587,-3.5714240221865934,2020-05,2020Q2,previous_vintage_smoothed
2020-05,-4.646901204690943,12.904707026119791,1.833995531557445,1.4014963375483809,-6.907827621974892,4.085672558098282,9.918988699581762,2020-06,2020Q2,current_smoothed
2020-04,-16.039501838235253,-12.45070483644187,2.5866352756277737,7.378291223033652,-7.4419878451553005,-0.705764425169188,-2.853810960944122,2020-06,2020Q2,previous_vintage_smoothed
2020-06,4.966606693166817,4.57279905462907,-0.46233352078262335,-2.702163035077179,-2.288907374993064,1.7276780594701457,4.978414586770278,2020-07,2020Q3,current_smoothed
2020-05,-4.646901204690943,12.904707026119791,1.833995531557445,1.4014963375483809,-6.907827621974892,4.085672558098282,9.918988699581762,2020-07,2020Q3,previous_vintage_smoothed
2020-07,3.5832669242072717,-0.06521124626133121,-1.2789483089988853,-1.266152004809214,-1.213125979100336,-0.4276204063594655,0.6104999247182006,2020-08,2020Q3,current_smoothed
2020-06,4.966606693166817,4.57279905462907,-0.46233352078262335,-2.702163035077179,-2.288907374993064,1.7276780594701457,4.978414586770278,2020-08,2020Q3,previous_vintage_smoothed
2020-08,2.2252930245754916,-0.6083360753101416,-1.1877315510360418,-0.7401886362348181,-1.55202155210102,-0.7525729842522791,-1.966634003491544,2020-09,2020Q3,current_smoothed
2020-07,3.5832669242072717,-0.06521124626133121,-1.2789483089988853,-1.266152004809214,-1.213125979100336,-0.4276204063594655,0.6104999247182006,2020-09,2020Q3,previous_vintage_smoothed
2020-09,0.9095004053950995,0.9169594057899145,-0.6742741494901188,-0.0248377941734258,-0.46431754826044475,-0.8079531257325707,-2.4407817440839215,2020-10,2020Q4,current_smoothed
2020-08,2.2252930245754916,-0.6083360753101416,-1.1877315510360418,-0.7401886362348181,-1.55202155210102,-0.7525729842522791,-1.966634003491544,2020-10,2020Q4,previous_vintage_smoothed
2020-10,0.8901228452841285,-0.08464179020681024,-0.5192389416158757,0.23204088270196568,-0.3849555498090765,-0.7959686282122275,0.05669910034356481,2020-11,2020Q4,current_smoothed
2020-09,0.9095004053950995,0.9169594057899145,-0.6742741494901188,-0.0248377941734258,-0.46431754826044475,-0.8079531257325707,-2.4407817440839215,2020-11,2020Q4,previous_vintage_smoothed
2020-11,0.5060746368153618,-1.2492274317971352,-0.6138661490567614,0.481150116627015,-0.5249881973043827,0.31377842092844116,0.20367135219787208,2020-12,2020Q4,current_smoothed
2020-10,0.8901228452841285,-0.08464179020681024,-0.5192389416158757,0.23204088270196568,-0.3849555498090765,-0.7959686282122275,0.05669910034356481,2020-12,2020Q4,previous_vintage_smoothed
2020-12,0.15964863713545105,-1.0456310269328997,-0.569383871814664,0.8905156907617463,0.21862327610825893,1.3319217394193614,1.1998042227434391,2021-01,2021Q1,current_smoothed
2020-11,0.5060746368153618,-1.2492274317971352,-0.6138661490567614,0.481150116627015,-0.5249881973043827,0.31377842092844116,0.20367135219787208,2021-01,2021Q1,previous_vintage_smoothed
2021-01,1.1159809672746137,2.5919737972303794,-0.37475592547644565,0.29368545890378417,-1.2654311737474884,-0.02829466509912424,-0.3235828805591137,2021-02,2021Q1,current_smoothed
2020-12,0.15964863713545105,-1.0456310269328997,-0.569383871814664,0.8905156907617463,0.21862327610825893,1.3319217394193614,1.1998042227434391,2021-02,2021Q1,previous_vintage_smoothed
2021-02,-1.8861809461526506,-1.5682712177235476,0.41211696679327453,1.5278910066171267,0.8025708626809375,0.23169261713610464,-3.209832011765056,2021-03,2021Q1,current_smoothed
2021-01,1.1159809672746137,2.5919737972303794,-0.37475592547644565,0.29368545890378417,-1.2654311737474884,-0.02829466509912424,-0.3235828805591137,2021-03,2021Q1,previous_vintage_smoothed
2021-03,2.6928534884700905,4.578527244704021,0.2972766592321876,-0.18208285125765658,-1.245353545995661,0.922348704713865,0.2633561335507654,2021-04,2021Q2,current_smoothed
2021-02,-1.8861809461526506,-1.5682712177235476,0.41211696679327453,1.5278910066171267,0.8025708626809375,0.23169261713610464,-3.209832011765056,2021-04,2021Q2,previous_vintage_smoothed
2021-04,0.23468193621404368,-0.134443738800846,-0.2966664446154535,0.7974288115450526,-0.6695317208117091,0.38228358791734623,-0.37287686521694047,2021-05,2021Q2,current_smoothed
2021-03,2.6928534884700905,4.578527244704021,0.2972766592321876,-0.18208285125765658,-1.245353545995661,0.922348704713865,0.2633561335507654,2021-05,2021Q2,previous_vintage_smoothed
2021-05,0.0778823722457003,-1.1536172257013433,-0.13045699291007012,0.8777790680916325,-0.40316246144239154,-0.4313294994940376,1.2149757776870798,2021-06,2021Q2,current_smoothed
2021-04,0.23468193621404368,-0.134443738800846,-0.2966664446154535,0.7974288115450526,-0.6695317208117091,0.38228358791734623,-0.37287686521694047,2021-06,2021Q2,previous_vintage_smoothed
2021-06,0.009102974432219387,0.1503390771873155,-0.28528507433530736,1.005990236773123,0.04421666351310427,0.830041539975655,-0.49423471453513185,2021-07,2021Q3,current_smoothed
2021-05,0.0778823722457003,-1.1536172257013433,-0.13045699291007012,0.8777790680916325,-0.40316246144239154,-0.4313294994940376,1.2149757776870798,2021-07,2021Q3,previous_vintage_smoothed
2021-07,0.4878511295860608,-1.0468846661077151,-0.45095105779502015,0.5274376162455039,0.5807867518138802,-1.630605230399105,1.426964271269305,2021-08,2021Q3,current_smoothed
2021-06,0.009102974432219387,0.1503390771873155,-0.28528507433530736,1.005990236773123,0.04421666351310427,0.830041539975655,-0.49423471453513185,2021-08,2021Q3,previous_vintage_smoothed
2021-08,0.5783813083450781,-0.23965639367178018,-0.3297842255256257,0.6389928295464358,0.4827065901514742,-0.7820256094130918,-0.9735443791135072,2021-09,2021Q3,current_smoothed
2021-07,0.4878511295860608,-1.0468846661077151,-0.45095105779502015,0.5274376162455039,0.5807867518138802,-1.630605230399105,1.426964271269305,2021-09,2021Q3,previous_vintage_smoothed
2021-09,-0.23540101436561825,0.27293204641431157,-0.04968210698342201,0.9066271016897177,1.2182268867039612,0.3419349744613005,-1.5087092905091484,2021-10,2021Q4,current_smoothed
2021-08,0.5783813083450781,-0.23965639367178018,-0.3297842255256257,0.6389928295464358,0.4827065901514742,-0.7820256094130918,-0.9735443791135072,2021-10,2021Q4,previous_vintage_smoothed
2021-10,0.3839640310098754,0.6241167448577738,0.17437882953654554,0.5372430646624453,1.275617258781673,1.9614142180277168,1.407860509537509,2021-11,2021Q4,current_smoothed
2021-09,-0.23540101436561825,0.27293204641431157,-0.04968210698342201,0.9066271016897177,1.2182268867039612,0.3419349744613005,-1.5087092905091484,2021-11,2021Q4,previous_vintage_smoothed
2021-11,0.5398780447591666,-0.36625830687582245,-0.08750558041616137,0.7765162869821779,0.4451915897783218,-0.5908804218493922,0.06769015542499957,2021-12,2021Q4,current_smoothed
2021-10,0.3839640310098754,0.6241167448577738,0.17437882953654554,0.5372430646624453,1.275617258781673,1.9614142180277168,1.407860509537509,2021-12,2021Q4,previous_vintage_smoothed
2021-12,0.12431163662538901,-1.6815325800484588,0.0007414736889085853,1.0332944914202824,0.5919986857097832,-1.3139313032554174,-1.1578281071798253,2022-01,2022Q1,current_smoothed
2021-11,0.5398780447591666,-0.36625830687582245,-0.08750558041616137,0.7765162869821779,0.4451915897783218,-0.5908804218493922,0.06769015542499957,2022-01,2022Q1,previous_vintage_smoothed
2022-01,-0.41767799400655237,2.122663436055637,0.49189108399757187,1.2130230046612949,1.6421818247082813,0.2707924014739119,0.8291002675669078,2022-02,2022Q1,current_smoothed
2021-12,0.12431163662538901,-1.6815325800484588,0.0007414736889085853,1.0332944914202824,0.5919986857097832,-1.3139313032554174,-1.1578281071798253,2022-02,2022Q1,previous_vintage_smoothed
2022-02,0.61331907889431,-0.5697542027377741,0.7614892344309271,0.9278845307640603,1.1200003373091343,0.5949785329184167,0.8627353701697321,2022-03,2022Q1,current_smoothed
2022-01,-0.41767799400655237,2.122663436055637,0.49189108399757187,1.2130230046612949,1.6421818247082813,0.2707924014739119,0.8291002675669078,2022-03,2022Q1,previous_vintage_smoothed
2022-03,0.6519782447624206,0.011991861664528312,0.9067516096547066,0.9224711506943006,0.9454629068668042,1.6964024968277949,0.25243665167131135,2022-04,2022Q2,current_smoothed
2022-02,0.61331907889431,-0.5697542027377741,0.7614892344309271,0.9278845307640603,1.1200003373091343,0.5949785329184167,0.8627353701697321,2022-04,2022Q2,previous_vintage_smoothed
2022-04,0.4218938160837668,0.3300832266474928,1.4094783507683122,0.9397424233975568,0.9085825224908383,-3.914891934709397,0.42809998566596086,2022-05,2022Q2,current_smoothed
2022-03,0.6519782447624206,0.011991861664528312,0.9067516096547066,0.9224711506943006,0.9454629068668042,1.6964024968277949,0.25243665167131135,2022-05,2022Q2,previous_vintage_smoothed
2022-05,-0.1479013392646607,-0.5315074756141414,1.8394666310995382,0.8566345585653162,1.5747800908579355,2.5623725044437373,-0.6046628660092452,2022-06,2022Q2,current_smoothed
2022-04,0.4218938160837668,0.3300832266474928,1.4094783507683122,0.9397424233975568,0.9085825224908383,-3.914891934709397,0.42809998566596086,2022-06,2022Q2,previous_vintage_smoothed
2022-06,-0.4933755971808446,0.30157754216551275,1.9679485474646385,1.0444695269692186,1.7606929681239591,1.7043887949902417,-0.6376874314725866,2022-07,2022Q3,current_smoothed
2022-05,-0.1479013392646607,-0.5315074756141414,1.8394666310995382,0.8566345585653162,1.5747800908579355,2.5623725044437373,-0.6046628660092452,2022-07,2022Q3,previous_vintage_smoothed
2022-07,-0.01288234648437178,-0.162951508632231,1.7474798759730683,0.5781678809333527,1.7000166397257448,-5.619917616285433,1.0507383342312575,2022-08,2022Q3,current_smoothed
2022-06,-0.4933755971808446,0.30157754216551275,1.9679485474646385,1.0444695269692186,1.7606929681239591,1.7043887949902417,-0.6376874314725866,2022-08,2022Q3,previous_vintage_smoothed
2022-08,-0.029168740623682073,-0.16337106114065075,1.7110466414005707,0.8484486128141769,1.3533905743650876,0.7135371724911179,-0.2120471948344577,2022-09,2022Q3,current_smoothed
2022-07,-0.01288234648437178,-0.162951508632231,1.7474798759730683,0.5781678809333527,1.7000166397257448,-5.619917616285433,1.0507383342312575,2022-09,2022Q3,previous_vintage_smoothed
2022-09,0.21726117836881423,-0.24592244291973722,2.512380297266429,0.4371613699232216,1.0545570617086117,0.9938492536861454,0.051256227947108074,2022-10,2022Q4,current_smoothed
