haminh109/Nowcasting-GDP-Growth/outputs/layer1_dfm/dfm_diagnostics.csv
vintage_period,vintage_timestamp_start,target_quarter,within_quarter_origin,n_monthly_series,n_monthly_obs,factor_order,llf_final,em_iterations,llf_path_json,converged_flag,sample_end_period
2000-01,2000-01-01,2000Q1,1,44,492,1,-19773.90765439637,100,"[-21226.812019803943, -20922.90562114491, -20734.191259127027, -20596.63512592654, -20487.13526081253, -20394.47335031638, -20313.57744745979, -20242.301428180977, -20179.443067650063, -20123.767130516328, -20074.221644727764, -20030.92073541994, -19994.63141514493, -19965.08951739912, -19941.098050740296, -19921.35337262599, -19904.777517151015, -19890.572320190746, -19878.18742830228, -19867.256764809397, -19857.53265450729, -19848.8394754172, -19841.053029312705, -19834.09316316404, -19827.91198645313, -19822.472960054154, -19817.731049283135, -19813.62448781907, -19810.078362067838, -19807.013292068525, -19804.35328668508, -19802.030513171667, -19799.987189220872, -19798.175579170595, -19796.556995725707, -19795.100415316487, -19793.78105654542, -19792.579095040965, -19791.47858148723, -19790.466570875495, -19789.532442430187, -19788.66737881983, -19787.86397205833, -19787.115926895465, -19786.417837559395, -19785.765018891972, -19785.153377491984, -19784.57931221238, -19784.039636248934, -19783.531515221184, -19783.052417226147, -19782.600071978366, -19782.1724369531, -19781.76766901554, -19781.384100417028, -19781.020218320173, -19780.674647213906, -19780.34613372339, -19780.033533423917, -19779.73579934575, -19779.451971915456, -19779.18117012465, -19778.922583752472, -19778.675466496396, -19778.43912988901, -19778.212937896908, -19777.996302113545, -19777.78867747063, -19777.589558403357, -19777.398475414077, -19777.21499198644, -19777.03870180866, -19776.869226270075, -19776.706212199882, -19776.549329820904, -19776.398270894748, -19776.25274703776, -19776.112488189523, -19775.977241217985, -19775.846768647305, -19775.720847495897, -19775.599268213744, -19775.481833709367, -19775.368358457697, -19775.25866768132, -19775.152596598058, -19775.049989729, -19774.95070026129, -19774.854589460978, -19774.761526131264, -19774.671386112477, -19774.584051819897, -19774.49941181644, -19774.417360417145, -19774.337797322827, -19774.26062728059, -19774.185759768876, -19774.11310870521, -19774.042592174756, -19773.974132178046, -19773.90765439637]",False,1999-12
2000-02,2000-02-01,2000Q1,2,44,493,1,-19550.508033864775,100,"[-21316.648849507987, -20981.57076500261, -20761.67924504996, -20592.91070305969, -20453.305540331632, -20333.306600591353, -20228.844115250933, -20137.882965099965, -20058.655517261635, -19989.263814851103, -19928.522374683565, -19876.354336203836, -19832.45810871417, -19795.69259364285, -19764.698428339576, -19738.29669514194, -19715.563281984352, -19695.811763236597, -19678.551134323327, -19663.4320706389, -19650.19292817461, -19638.618151029925, -19628.516793792427, -19619.71837476389, -19612.075110282516, -19605.460484204985, -19599.762023998126, -19594.872962312398, -19590.687919967808, -19587.103767561202, -19584.023395612105, -19581.359555349616, -19579.03717328574, -19576.993882171053, -19575.179216929606, -19573.55307556446, -19572.083929901215, -19570.747093383703, -19569.52320239082, -19568.396965572872, -19567.35617687706, -19566.390959607492, -19565.493199362303, -19564.65612442574, -19563.87399761352, -19563.141890442796, -19562.45551714451, -19561.811111732037, -19561.205335889546, -19560.63520891219, -19560.098053489826, -19559.591452969875, -19559.11321703977, -19558.661353681637, -19558.234045883426, -19557.8296320267, -19557.446589171646, -19557.08351866731, -19556.739133659674, -19556.41224817188, -19556.101767503278, -19555.80667974682, -19555.526048263182, -19555.259004979434, -19555.004744402708, -19554.762518257263, -19554.531630667283, -19554.311433819585, -19554.101324049534, -19553.900738301643, -19553.7091509226, -19553.52607075016, -19553.351038466106, -19553.183624185156, -19553.02342525554, -19552.87006424964, -19552.72318712563, -19552.58246154338, -19552.447575319744, -19552.318235009865, -19552.194164602883, -19552.075104321375, -19551.96080951514, -19551.85104964098, -19551.74560732077, -19551.644277471052, -19551.54686649814, -19551.453191552893, -19551.36307984049, -19551.27636798037, -19551.1929014125, -19551.112533845968, -19551.035126746694, -19550.960548861072, -19550.88867577279, -19550.8193894902, -19550.752578061874, -19550.688135218297, -19550.625960037607, -19550.565956633676, -19550.508033864775]",False,2000-01
2000-03,2000-03-01,2000Q1,3,44,494,1,-20043.73656261375,100,"[-21485.517912857475, -21125.279190521545, -20914.328777056555, -20771.209659622, -20663.196552773352, -20574.522630405812, -20498.056408959812, -20431.002287012874, -20372.55948759546, -20322.590557569976, -20280.888671649547, -20246.860962423398, -20219.510397000315, -20197.595990018493, -20179.84907912707, -20165.152055884755, -20152.63551517246, -20141.693983429082, -20131.944025611487, -20123.15548116263, -20115.186156802025, -20107.942088855252, -20101.3651314525, -20095.428806996017, -20090.124035665045, -20085.43697865696, -20081.334068623302, -20077.761454089108, -20074.6536249322, -20071.943153047116, -20069.56739932906, -20067.471759984237, -20065.610474478777, -20063.946086045114, -20062.44831468521, -20061.092785012468, -20059.859834044208, -20058.73349330772, -20057.700667294866, -20056.750494255448, -20055.873860595515, -20055.063037104712, -20054.31140790892, -20053.613267938417, -20052.96366993644, -20052.35830672575, -20051.793418287958, -20051.265716180653, -20050.7723200404, -20050.310702554863, -20049.87864048776, -20049.474170229016, -20049.095547009154, -20048.741207418032, -20048.409735233923, -20048.099830811723, -20047.810284401978, -20047.539953778687, -20047.287746453778, -20047.05260657125, -20046.83350633671, -20046.62944158787, -20046.439430888895, -20046.262517369752, -20046.097772451114, -20045.944300601976, -20045.80124436085, -20045.66778899206, -20045.54316632088, -20045.426657469146, -20045.317594375676, -20045.21536011911, -20045.119388158317, -20045.02916066555, -20044.944206156375, -20044.864096622576, -20044.788444359077, -20044.716898649283, -20044.649142442133, -20044.584889122067, -20044.523879443695, -20044.465878677165, -20044.41067398983, -20044.358072073308, -20044.307897013518, -20044.259988393092, -20044.21419961044, -20044.17039639693, -20044.128455512553, -20044.088263600443, -20044.049716181642, -20044.012716772646, -20043.97717610995, -20043.943011467636, -20043.910146055343, -20043.87850848596, -20043.84803230354, -20043.818655563293, -20043.790320456814, -20043.76297297644, -20043.73656261375]",False,2000-02
2000-04,2000-04-01,2000Q2,1,44,495,1,-19811.062015038322,100,"[-21431.6489409177, -21053.807528708217, -20839.58554512178, -20690.740956305603, -20573.278245633883, -20473.31424696544, -20385.594316708022, -20307.979590590083, -20238.867943377405, -20177.451526750985, -20125.052589620416, -20082.47824080102, -20048.13811712273, -20019.876075703098, -19995.973681599913, -19975.252402397444, -19956.9773100287, -19940.719328475192, -19926.228876629313, -19913.3467493567, -19901.955413249718, -19891.956063313388, -19883.253887733557, -19875.745519685905, -19869.31272589631, -19863.825148433385, -19859.14895190251, -19855.15610462203, -19851.731002278717, -19848.77372605888, -19846.200620028016, -19843.943196217784, -19841.94621345511, -19840.165502542448, -19838.5658724502, -19837.119262754255, -19835.803200142494, -19834.599555633366, -19833.493569031783, -19832.473096171707, -19831.528034218558, -19830.649885216288, -19829.83142484956, -19829.06645024445, -19828.349586699558, -19827.676138230294, -19827.041970723443, -19826.443419471347, -19825.87721506167, -19825.340423212238, -19824.830395308734, -19824.34472724526, -19823.88122477428, -19823.437874011535, -19823.01281606134, -19822.604324964184, -19822.210788346816, -19821.83069029333, -19821.46259606758, -19821.1051384137, -19820.757005250514, -19820.416928666324, -19820.083675220627, -19819.756037678155, -19819.432828448327, -19819.11287519188, -19818.795019298446, -19818.47811824596, -19818.16105323266, -19817.842743919417, -19817.522172603716, -19817.198420588647, -19816.870719752824, -19816.53852209367, -19816.201588875636, -19815.86009837727, -19815.51476644825, -19815.16696673057, -19814.81882782159, -19814.473274800246, -19814.133976628866, -19813.805165252477, -19813.49131275887, -19813.196690771245, -19812.924882306663, -19812.678351051964, -19812.458174626747, -19812.264007938044, -19812.09427416182, -19811.946515408865, -19811.8178015782, -19811.7051031696, -19811.605569174673, -19811.516692753718, -19811.436378430433, -19811.36293921244, -19811.29505324261, -19811.23170342818, -19811.17211532139, -19811.115701414117, -19811.062015038322]",False,2000-03
2000-05,2000-05-01,2000Q2,2,44,496,1,-20198.54814535705,100,"[-21574.87027738841, -21250.933711192993, -21049.412282160818, -20902.402615950086, -20786.898232347252, -20692.2136017976, -20613.05184594454, -20546.473154178595, -20490.6523532731, -20444.31258927054, -20406.38227924089, -20375.78258406366, -20351.349242139833, -20331.870694519617, -20316.18844999407, -20303.298282941974, -20292.411911897565, -20282.967907737948, -20274.601076744566, -20267.08889641188, -20260.2959894399, -20254.133846487694, -20248.541698348618, -20243.48094095919, -20238.930384375417, -20234.876068322057, -20231.29910387015, -20228.168245909757, -20225.439881016573, -20223.06307751749, -20220.98578482913, -20219.159608046422, -20217.542425292835, -20216.09919699222, -20214.801628277164, -20213.62726528509, -20212.558417082357, -20211.581123837965, -20210.68427201165, -20209.858885037364, -20209.09758004772, -20208.39416496045, -20207.743346328876, -20207.14052056435, -20206.581625778064, -20206.063036563748, -20205.581488609907, -20205.134023749924, -20204.717948903868, -20204.33080444823, -20203.970339022544, -20203.634488796364, -20203.32135990252, -20203.02921319358, -20202.756450771012, -20202.50160392394, -20202.26332223309, -20202.040363669756, -20201.831585566157, -20201.63593636289, -20201.452448057513, -20201.28022929062, -20201.118459014146, -20200.966380692444, -20200.823296991697, -20200.688564916716, -20200.561591357928, -20200.44182901399, -20200.328772658453, -20200.22195572132, -20200.120947158728, -20200.02534858618, -20199.934791652726, -20199.848935635495, -20199.767465235625, -20199.69008855822, -20199.616535260586, -20199.546554854274, -20199.47991514761, -20199.416400816815, -20199.35581209455, -20199.29796356591, -20199.242683062726, -20199.189810647687, -20199.13919768078, -20199.090705960993, -20199.04420693698, -20198.999580980828, -20198.95671671967, -20198.915510420302, -20198.875865422408, -20198.837691616296, -20198.800904961558, -20198.76542704319, -20198.731184662207, -20198.69810945783, -20198.66613755873, -20198.635209261003, -20198.605268730662, -20198.576263728726, -20198.54814535705]",False,2000-04
2000-06,2000-06-01,2000Q2,3,44,497,1,-20420.68200031678,100,"[-21731.52447743344, -21367.796675493828, -21180.131451644127, -21052.450454413185, -20954.73442357036, -20874.547692895263, -20805.99484872667, -20746.37550775491, -20694.657125811667, -20650.519042757045, -20613.73829453199, -20583.860944464977, -20560.1094396469, -20541.457587491546, -20526.78923684351, -20515.060432431, -20505.411315377743, -20497.209655936233, -20490.035156838283, -20483.627260908477, -20477.824060602296, -20472.517700381242, -20467.6378865059, -20463.153182777824, -20459.067584782646, -20455.400787757782, -20452.16242999081, -20449.337605282715, -20446.88855156062, -20444.764948997516, -20442.9142139977, -20441.288080927872, -20439.8455273244, -20438.553310194795, -20437.385273412525, -20436.321177038793, -20435.345459502318, -20434.44612672648, -20433.613838717793, -20432.84119955549, -20432.122227008058, -20431.451967825746, -20430.82622470938, -20430.2413654532, -20429.69419067418, -20429.18184228031, -20428.701739712335, -20428.251534837254, -20427.82907924205, -20427.432399736594, -20427.05967930766, -20426.70924173672, -20426.3795387371, -20426.069138882656, -20425.776717866487, -20425.501049793686, -20425.240999315807, -20424.99551447671, -20424.76362017808, -20424.54441219563, -20424.337051691364, -20424.140760176295, -20423.95481488408, -20423.77854452031, -20423.611325355654, -20423.452577633838, -20423.301762267925, -20423.15837780063, -20423.021957606335, -20422.892067314548, -20422.76830243608, -20422.65028617507, -20422.537667411252, -20422.430118838292, -20422.327335245416, -20422.229031930343, -20422.13494323302, -20422.044821180156, -20421.958434231703, -20421.875566121118, -20421.79601478192, -20421.71959135369, -20421.646119261288, -20421.575433361624, -20421.507379152634, -20421.441812039786, -20421.378596655544, -20421.31760622799, -20421.25872199462, -20421.201832658116, -20421.146833880786, -20421.093627814982, -20421.042122666597, -20420.99223228937, -20420.943875807676, -20420.89697726573, -20420.851465301195, -20420.807272841612, -20420.76433682176, -20420.722597920696, -20420.68200031678]",False,2000-05
2000-07,2000-07-01,2000Q3,1,44,498,1,-20243.768396551903,100,"[-22039.108803530817, -21530.501110371057, -21307.256963051583, -21157.922616163454, -21040.83838835852, -20941.512456168417, -20854.099783261212, -20776.524010151476, -20708.412391610575, -20649.85759668371, -20600.678659896508, -20560.133053316247, -20526.982167414135, -20499.741590507827, -20476.952329914053, -20457.37325410524, -20440.06694781109, -20424.397443243055, -20409.97390798656, -20396.572023484412, -20384.059007494983, -20372.34261208467, -20361.35257822828, -20351.044214175163, -20341.40163639354, -20332.425970408378, -20324.114306020507, -20316.445671722766, -20309.381565778185, -20302.875654087347, -20296.88398811926, -20291.37113403627, -20286.311751386438, -20281.68893888072, -20277.490893978444, -20273.707149755366, -20270.32529305368, -20267.328718581404, -20264.69564008061, -20262.399285254887, -20260.408987026804, -20258.691780346555, -20257.21412070296, -20255.943426891845, -20254.84927158246, -20253.90415861806, -20253.0839115732, -20252.36774687748, -20251.738121830535, -20251.180443333706, -20250.682707473832, -20250.23512100779, -20249.82973801576, -20249.46013067045, -20249.12110268723, -20248.808447162333, -20248.518746414313, -20248.249209328635, -20247.997540894492, -20247.761838605144, -20247.540510808783, -20247.332212711073, -20247.13579639868, -20246.950271894413, -20246.774776828734, -20246.608552803944, -20246.450926936108, -20246.301297391627, -20246.159122001158, -20246.0239092429, -20245.895211051477, -20245.772617035436, -20245.65574978478, -20245.5442610248, -20245.437828430364, -20245.336152958404, -20245.238956589852, -20245.14598039756, -20245.0569828761, -20244.971738483873, -20244.890036359127, -20244.811679179864, -20244.73648214422, -20244.664272052636, -20244.594886477043, -20244.528173005117, -20244.46398854995, -20244.402198717176, -20244.34267722304, -20244.2853053578, -20244.22997148993, -20244.17657060708, -20244.125003890353, -20244.075178319006, -20244.027006302866, -20243.980405340204, -20243.935297699005, -20243.891610119797, -20243.849273538348, -20243.80822282681, -20243.768396551903]",False,2000-06
2000-08,2000-08-01,2000Q3,2,47,499,1,-22322.472758734806,100,"[-23925.767417979976, -23361.73866847349, -23139.86895656048, -22999.768201624574, -22894.943856723246, -22809.557038810475, -22736.771686778462, -22673.52499722778, -22618.59641798337, -22571.57533020136, -22532.222951061834, -22500.11088008672, -22474.489979988793, -22454.337796882108, -22438.509376584356, -22425.90773526001, -22415.610499330218, -22406.92631115232, -22399.38661365847, -22392.695649189118, -22386.667630413725, -22381.177999399693, -22376.142410942848, -22371.51567282101, -22367.289534028594, -22363.47596029902, -22360.082574045296, -22357.096328063286, -22354.482367842946, -22352.192597903602, -22350.175597815374, -22348.383488991152, -22346.775243389, -22345.31749162957, -22343.983976367683, -22342.754442023357, -22341.613409964655, -22340.549058025495, -22339.552288759092, -22338.615999462316, -22337.73453347667, -22336.903280064536, -22336.118389082993, -22335.37657069428, -22334.674956079787, -22334.011000828188, -22333.382417589, -22332.78712849555, -22332.223230808268, -22331.68897136258, -22331.18272690108, -22330.702988392084, -22330.248348118257, -22329.81748876522, -22329.409174025423, -22329.022240411137, -22328.655590080107, -22328.308184542242, -22327.979039153077, -22327.66721831993, -22327.371831356915, -22327.092028929506, -22326.827000031037, -22326.575969433958, -22326.33819555908, -22326.112968706533, -22325.899609593922, -22325.69746814915, -22325.50592250866, -22325.324378175694, -22325.152267297508, -22324.989048025433, -22324.834203926723, -22324.68724342243, -22324.547699230374, -22324.415127797274, -22324.289108708548, -22324.169244068216, -22324.055157844734, -22323.946495181917, -22323.84292167595, -22323.74412262192, -22323.649802234235, -22323.559682846622, -22323.47350409766, -22323.391022108128, -22323.31200865651, -22323.23625035855, -22323.163547856384, -22323.093715022325, -22323.026578181685, -22322.961975358266, -22322.899755545797, -22322.83977800761, -22322.781911606442, -22322.72603416572, -22322.672031862952, -22322.61979865573, -22322.569235740128, -22322.520251041195, -22322.472758734806]",False,2000-07
2000-09,2000-09-01,2000Q3,3,47,500,1,-21857.165722958754,100,"[-23486.654670487704, -23114.03727524517, -22877.8176793668, -22702.775728675406, -22564.281123954494, -22450.129465282505, -22354.287084989548, -22273.751387299, -22206.77532438267, -22151.911916763587, -22107.603292980868, -22072.117422812233, -22043.66762034735, -22020.584772954913, -22001.457092249613, -21985.199086750912, -21971.049028746525, -21958.514879309158, -21947.2950414716, -21937.200653837233, -21928.10212066735, -21919.908066300988, -21912.562690436593, -21906.037693066522, -21900.310403715397, -21895.34158834193, -21891.067775439402, -21887.408006086036, -21884.27562880585, -21881.587858310737, -21879.271051495707, -21877.262535415375, -21875.510390110965, -21873.97226153495, -21872.61385253484, -21871.40743179871, -21870.330514099227, -21869.36476155256, -21868.495102633755, -21867.709042140024, -21866.996127982442, -21866.347541619292, -21865.755783444634, -21865.21442994705, -21864.71794468221, -21864.26152953587, -21863.841006272505, -21863.452721039725, -21863.09346647547, -21862.76041749748, -21862.451077881393, -21862.163235466196, -21861.894924348202, -21861.644392801027, -21861.410075931843, -21861.190572286436, -21860.98462376723, -21860.79109834486, -21860.608975135015, -21860.437331484456, -21860.275331768473, -21860.122217649845, -21859.97729958845, -21859.839949423385, -21859.70959387677, -21859.585708851035, -21859.467814410807, -21859.355470356684, -21859.2482723116, -21859.145848252396, -21859.047855428413, -21858.953977617763, -21858.86392267839, -21858.77742035742, -21858.69422032701, -21858.614090419407, -21858.536815037598, -21858.46219372088, -21858.390039847567, -21858.32017945931, -21858.252450193293, -21858.186700310533, -21858.12278780974, -21858.060579617646, -21857.999950847603, -21857.940784119328, -21857.882968933496, -21857.826401095474, -21857.770982183203, -21857.71661905478, -21857.663223391635, -21857.610711273883, -21857.559002784343, -21857.50802163856, -21857.457694838064, -21857.407952344387, -21857.35872677186, -21857.309953097025, -21857.26156838294, -21857.213511516715, -21857.165722958754]",False,2000-08
2000-10,2000-10-01,2000Q4,1,47,501,1,-22244.20327918229,100,"[-23524.857361198858, -23135.695407473555, -22912.039844581854, -22768.296759231136, -22668.68367575647, -22594.15686191876, -22534.94781978998, -22486.305318551185, -22445.994484405495, -22412.867665907073, -22386.097550365488, -22364.831182330472, -22348.109256801392, -22334.930354385637, -22324.36234032745, -22315.63412444585, -22308.17770005739, -22301.619636096024, -22295.737495139245, -22290.404196238524, -22285.54399382273, -22281.112636839032, -22277.093910813084, -22273.49351327026, -22270.321770953946, -22267.574656111716, -22265.225602332575, -22263.22970311337, -22261.533448011265, -22260.083535693695, -22258.832272534317, -22257.739812889737, -22256.774346693368, -22255.91123257177, -22255.131737081327, -22254.421749505356, -22253.770647404126, -22253.170373651978, -22252.61472502744, -22252.098824822835, -22251.618743168834, -22251.17122970387, -22250.753528370613, -22250.363250439732, -22249.99828782227, -22249.656753721378, -22249.336941556627, -22249.037295970254, -22248.756391775605, -22248.492918128402, -22248.245666160434, -22248.013518948967, -22247.795443106275, -22247.590481535586, -22247.397747064246, -22247.216416767056, -22247.045726855136, -22246.884968044014, -22246.733481338117, -22246.590654183212, -22246.455916947772, -22246.328739700366, -22246.208629254546, -22246.095126456283, -22245.98780369138, -22245.88626259295, -22245.79013193072, -22245.699065666107, -22245.612741158202, -22245.530857507605, -22245.45313402609, -22245.37930882151, -22245.30913748809, -22245.24239189344, -22245.178859054453, -22245.11834009475, -22245.06064927735, -22245.00561310656, -22244.95306949371, -22244.902866981938, -22244.854864025514, -22244.808928319504, -22244.764936176274, -22244.72277194513, -22244.6823274722, -22244.643501597457, -22244.606199686343, -22244.570333193464, -22244.535819256103, -22244.50258031548, -22244.470543763742, -22244.43964161499, -22244.409810198547, -22244.380989873076, -22244.353124759942, -22244.326162494654, -22244.30005399503, -22244.27475324499, -22244.250217092896, -22244.226405063466, -22244.20327918229]",False,2000-09
2000-11,2000-11-01,2000Q4,2,47,502,1,-22180.885669161053,100,"[-23788.178782100204, -23317.33851596259, -23060.639545787188, -22892.53903771312, -22770.213205485226, -22674.25479010153, -22595.49479192708, -22529.51196370438, -22474.09642417768, -22427.97927381733, -22390.1707769239, -22359.64585608665, -22335.25585480843, -22315.782900400365, -22300.05797181137, -22287.073767912803, -22276.050196373984, -22266.442035509386, -22257.900631818084, -22250.212253232665, -22243.238962873835, -22236.882506052963, -22231.075336983355, -22225.784109132062, -22221.00555280094, -22216.74772313259, -22213.00732337465, -22209.757644572208, -22206.950796942718, -22204.527624536033, -22202.42767785567, -22200.59571592112, -22198.984628263683, -22197.55593036506, -22196.278980397725, -22195.129696127944, -22194.08920882466, -22193.142661013382, -22192.278221010773, -22191.48631747173, -22190.75906601796, -22190.0898502174, -22189.473020111793, -22188.903676951108, -22188.377519442296, -22187.89073304006, -22187.439908968736, -22187.02198365144, -22186.63419215643, -22186.274031352143, -22185.939229899, -22185.62772317459, -22185.33763187043, -22185.067243417114, -22184.814995664863, -22184.57946241976, -22184.359340546976, -22184.153438424215, -22183.960665575294, -22183.780023345833, -22183.610596505045, -22183.45154567412, -22183.30210049428, -22183.161553457645, -22183.029254333043, -22182.904605125583, -22182.787055515968, -22182.6760987308, -22182.571267800362, -22182.472132164996, -22182.37829459518, -22182.289388394125, -22182.205074854963, -22182.12504094745, -22182.048997211918, -22181.976675840262, -22181.90782892605, -22181.8422268676, -22181.779656909515, -22181.719921809738, -22181.662838620305, -22181.60823757146, -22181.555961049453, -22181.505862659687, -22181.457806367413, -22181.411665709034, -22181.367323067832, -22181.32466900837, -22181.28360166441, -22181.24402617591, -22181.205854170596, -22181.169003286523, -22181.13339673209, -22181.098962880333, -22181.065634894643, -22181.033350383328, -22181.002051080708, -22180.971682552346, -22180.942193922798, -22180.913537623735, -22180.885669161053]",False,2000-10
2000-12,2000-12-01,2000Q4,3,47,503,1,-22083.900233251054,100,"[-23541.65312748126, -23137.63296532874, -22910.583643810198, -22756.848753638315, -22642.912844812265, -22553.369388525567, -22480.66579637226, -22420.91779737792, -22371.91019503354, -22332.065869475235, -22299.96069250309, -22274.173297668734, -22253.31756858805, -22236.141115783063, -22221.612199553427, -22208.959300133745, -22197.66026503889, -22187.39514499678, -22177.982678249227, -22169.320986149418, -22161.347990755596, -22154.024487359562, -22147.329409734015, -22141.253889502816, -22135.78961022647, -22130.916884161546, -22126.59927718471, -22122.786095531108, -22119.419181617614, -22116.439855203465, -22113.79376670937, -22111.43332858901, -22109.3183126025, -22107.415366100373, -22105.697040754254, -22104.140707941795, -22102.727557844853, -22101.441762810675, -22100.26981909276, -22099.200048723313, -22098.22223140489, -22097.32733541144, -22096.50732056885, -22095.754992035345, -22095.063889097135, -22094.428197812533, -22093.842679900306, -22093.302612857286, -22092.803738085073, -22092.342215001314, -22091.9145798768, -22091.517708613, -22091.14878295469, -22090.80525979158, -22090.484843288265, -22090.185459625663, -22089.905234158097, -22089.64247080067, -22089.395633467793, -22089.16332938929, -22088.944294136716, -22088.73737820025, -22088.541534965403, -22088.355809948465, -22088.179331160056, -22088.011300476704, -22087.850985910718, -22087.69771467871, -22087.550866978825, -22087.409870395462, -22087.27419485869, -22087.14334809317, -22087.016871498086, -22086.894336406058, -22086.775340674478, -22086.6595055678, -22086.546472893948, -22086.435902362166, -22086.327469133408, -22086.220861538004, -22086.115778938933, -22086.0119297222, -22085.909029399758, -22085.806798813923, -22085.704962437143, -22085.60324676564, -22085.501378812252, -22085.39908471138, -22085.296088458974, -22085.19211082302, -22085.086868476214, -22084.98007342246, -22084.871432815067, -22084.76064929611, -22084.647422026344, -22084.531448622532, -22084.412428275016, -22084.290066381105, -22084.16408109623, -22084.034212266393, -22083.900233251054]",False,2000-11
2001-01,2001-01-01,2001Q1,1,47,504,1,-21856.154220104712,100,"[-23729.531349346762, -23317.07624438498, -23055.362992861683, -22856.561813072134, -22695.048447676716, -22560.187242609973, -22447.064823517307, -22352.823583952195, -22275.217627249385, -22212.031892814357, -22160.91893007014, -22119.50968265096, -22085.623494868363, -22057.42463599752, -22033.47743434943, -22012.72577878027, -21994.436476569135, -21978.131490239663, -21963.51891798065, -21950.426415713933, -21938.742812574543, -21928.37688906501, -21919.23848824188, -21911.23669264011, -21904.282879992035, -21898.289972016133, -21893.1680049293, -21888.820952865164, -21885.147971997758, -21882.048252216693, -21879.426719076306, -21877.198379594567, -21875.29051989606, -21873.642998677955, -21872.207279672686, -21870.944832113888, -21869.825355616107, -21868.82510125033, -21867.925418868374, -21867.111569521334, -21866.371791244255, -21865.696583411464, -21865.078168237524, -21864.510090004052, -21863.986918329087, -21863.50402848931, -21863.057438069234, -21862.64368448498, -21862.25973209826, -21861.902900795798, -21861.570810235244, -21861.261335635052, -21860.972572176866, -21860.702805926907, -21860.450489769493, -21860.214223255967, -21859.992735559867, -21859.784870932293, -21859.589576196024, -21859.40588992147, -21859.23293300403, -21859.069900419436, -21858.91605397682, -21858.770715922376, -21858.63326327251, -21858.503122775863, -21858.379766419992, -21858.262707411974, -21858.151496572907, -21858.045719095335, -21857.94499162012, -21857.84895959523, -21857.75729488441, -21857.66969359774, -21857.58587412004, -21857.5055753159, -21857.428554893042, -21857.354587907925, -21857.283465399127, -21857.214993136236, -21857.14899047301, -21857.085289294933, -21857.023733052414, -21856.964175871813, -21856.90648173718, -21856.85052373653, -21856.796183366903, -21856.743349893055, -21856.691919755325, -21856.641796022326, -21856.592887884755, -21856.545110186904, -21856.49838299264, -21856.452631183078, -21856.407784083316, -21856.363775115853, -21856.320541478453, -21856.27802384453, -21856.23616608414, -21856.194915003984, -21856.154220104712]",False,2000-12
2001-02,2001-02-01,2001Q1,2,47,505,1,-22279.2439989383,100,"[-23992.257187629675, -23589.593494243654, -23353.396824677577, -23181.24555237011, -23042.57635651272, -22924.83689032246, -22822.90835731045, -22734.903747679127, -22660.103180295675, -22597.859078827783, -22547.146992555306, -22506.532880488223, -22474.332981005136, -22448.816899001496, -22428.38423927955, -22411.685733718667, -22397.678481037223, -22385.6205874341, -22375.022109383885, -22365.573629063056, -22357.07408043842, -22349.376944234056, -22342.365280817252, -22335.951644448083, -22330.08685635442, -22324.759843571825, -22319.98081124398, -22315.755695398904, -22312.06770324815, -22308.87441913834, -22306.116478953223, -22303.729068883546, -22301.650596410826, -22299.827250049228, -22298.214396685282, -22296.776158103545, -22295.484179181185, -22294.316188951776, -22293.254655552584, -22292.285655118474, -22291.397977972174, -22290.582450197464, -22289.83143222809, -22289.138454374715, -22288.497954055834, -22287.905086439663, -22287.35558704222, -22286.84567064732, -22286.371955481685, -22285.93140497724, -22285.521281887144, -22285.139111217322, -22284.782649589077, -22284.44985942123, -22284.13888683115, -22283.848042489262, -22283.575784881505, -22283.32070557867, -22283.081516207712, -22282.857036885674, -22282.646185922586, -22282.44797063279, -22282.26147911935, -22282.085872915413, -22281.92038038247, -22281.764290778297, -22281.616948918538, -22281.47775036537, -22281.34613708466, -22281.22159352037, -22281.103643040973, -22280.9918447182, -22280.885790402786, -22280.785102066588, -22280.689429383434, -22280.59844752464, -22280.511855147717, -22280.429372559178, -22280.350740034584, -22280.275716280757, -22280.20407702667, -22280.135613731105, -22280.070132396297, -22280.007452477937, -22279.947405882966, -22279.8898360473, -22279.834597086647, -22279.781553013916, -22279.73057701774, -22279.68155079676, -22279.634363945184, -22279.58891338524, -22279.545102842785, -22279.50284236249, -22279.462047859466, -22279.4226407044, -22279.38454733954, -22279.347698923153, -22279.312031000132, -22279.277483196853, -22279.2439989383]",False,2001-01
2001-03,2001-03-01,2001Q1,3,47,506,1,-22269.45713594348,100,"[-24052.831478948094, -23601.618196658674, -23332.97430062291, -23143.37701447674, -22998.051791627197, -22880.58366074482, -22782.772045050315, -22700.418209022428, -22631.23736016173, -22573.725358708747, -22526.58010275873, -22488.462825731443, -22457.94930876141, -22433.581173422397, -22413.965816397147, -22397.88234421062, -22384.35567988237, -22372.67818052509, -22362.37964571078, -22353.16249738345, -22344.828946036727, -22337.229616622597, -22330.25036404078, -22323.826886043895, -22317.95477537544, -22312.668822795582, -22307.99972638869, -22303.941453233467, -22300.447800389215, -22297.448226627144, -22294.865665643607, -22292.628066844078, -22290.67351577506, -22288.951311143697, -22287.42106194742, -22286.05104432473, -22284.816451711173, -22283.6978220671, -22282.679740996296, -22281.749827702508, -22280.897969946676, -22280.11576079338, -22279.396090370657, -22278.73285232607, -22278.120732876865, -22277.55505820253, -22277.03168253716, -22276.54690448524, -22276.097402923846, -22275.680186604754, -22275.292553485357, -22274.93205712142, -22274.596478327658, -22274.28380088825, -22273.99219047666, -22273.719976190034, -22273.465634264176, -22273.227773641283, -22273.00512313393, -22272.796519978237, -22272.600899604462, -22272.417286479853, -22272.24478589886, -22272.082576612724, -22271.92990420367, -22271.78607512109, -22271.650451306647, -22271.522445344155, -22271.40151607758, -22271.287164647143, -22271.178930899263, -22271.0763901313, -22270.979150136423, -22270.88684851794, -22270.79915024588, -22270.715745431575, -22270.636347298856, -22270.560690332495, -22270.488528587124, -22270.419634141035, -22270.3537956815, -22270.29081720919, -22270.23051685086, -22270.172725770466, -22270.117287169705, -22270.064055370232, -22270.01289497019, -22269.963680068653, -22269.916293552065, -22269.87062643742, -22269.826577267264, -22269.784051552288, -22269.742961257416, -22269.703224327823, -22269.664764251665, -22269.627509656362, -22269.591393935865, -22269.55635490637, -22269.522334488076, -22269.489278411085, -22269.45713594348]",False,2001-02
2001-04,2001-04-01,2001Q2,1,47,507,1,-22234.19178318913,100,"[-24005.305401926216, -23566.812497666477, -23301.429106253952, -23111.601062319754, -22964.442371027057, -22844.520652825817, -22744.530279912076, -22660.90061672512, -22591.54295314932, -22534.764165424054, -22488.854274032357, -22452.02607459276, -22422.50080218919, -22398.629631319447, -22378.9979343502, -22362.485887865183, -22348.276571220445, -22335.817785861833, -22324.753819681544, -22314.849635363295, -22305.933201676133, -22297.873689199445, -22290.5886186386, -22284.048988189137, -22278.25728551292, -22273.208369255288, -22268.86393606481, -22265.153452559083, -22261.989837721114, -22259.284935359377, -22256.958813446618, -22254.94346765216, -22253.183166478288, -22251.63321158884, -22250.25814839886, -22249.02994966551, -22247.92640299689, -22246.92977873528, -22246.02577768997, -22245.202724118317, -22244.450958512654, -22243.762385695933, -22243.13013982878, -22242.54833552237, -22242.011881496062, -22241.51633935098, -22241.05781486738, -22240.632872872953, -22240.238469377407, -22239.871896549033, -22239.530737420784, -22239.21282811783, -22238.9162260181, -22238.63918268166, -22238.380120676942, -22238.137613635052, -22237.910369007714, -22237.69721310887, -22237.497078097676, -22237.30899061998, -22237.132061871947, -22236.9654788868, -22236.80849687602, -22236.660432481563, -22236.52065781668, -22236.38859519076, -22236.263712428474, -22236.145518706402, -22236.033560841075, -22235.927419971675, -22235.826708588404, -22235.731067864523, -22235.640165255383, -22235.553692333226, -22235.471362830263, -22235.392910866365, -22235.31808934086, -22235.246668470307, -22235.178434456724, -22235.11318827245, -22235.050744549557, -22234.99093056341, -22234.933585300812, -22234.878558604665, -22234.82571038779, -22234.774909909444, -22234.72603510877, -22234.678971990073, -22234.633614055303, -22234.589861779634, -22234.547622126553, -22234.506808098937, -22234.46733832334, -22234.42913666467, -22234.392131868804, -22234.356257231004, -22234.32145028802, -22234.287652532075, -22234.254809145106, -22234.222868751676, -22234.19178318913]",False,2001-03
2001-05,2001-05-01,2001Q2,2,48,508,1,-22499.237969385922,100,"[-24201.355248230037, -23741.672831349137, -23474.141114845403, -23288.4231352731, -23147.233339568436, -23033.82820028769, -22940.29765018081, -22862.6471758827, -22798.605651957878, -22746.567821580044, -22705.064448703477, -22672.54124252863, -22647.34446475656, -22627.82930293691, -22612.504996591513, -22600.146592754103, -22589.839754038454, -22580.960991532636, -22573.115389350016, -22566.05916499791, -22559.63258220927, -22553.720766383485, -22548.244737007084, -22543.168440257923, -22538.50022908533, -22534.275427093053, -22530.526020279918, -22527.25665028584, -22524.439312795887, -22522.02303722392, -22519.94767198194, -22518.154460627302, -22516.59170336811, -22515.216654676165, -22513.99527562737, -22512.901033669496, -22511.913442145473, -22511.016681120647, -22510.19843586812, -22509.44898174382, -22508.76049414775, -22508.126543858772, -22507.541735693685, -22507.001453284658, -22506.50167998192, -22506.03887308574, -22505.60987478673, -22505.211848067982, -22504.842229468588, -22504.498693229914, -22504.17912317655, -22503.88158993068, -22503.60433189143, -22503.345738957247, -22503.104338323134, -22502.878781910516, -22502.66783513072, -22502.47036677316, -22502.285339866125, -22502.111803394095, -22501.94888477881, -22501.795783046775, -22501.651762616846, -22501.516147649345, -22501.388316904762, -22501.267699064723, -22501.153768473, -22501.04604125765, -22500.944071799353, -22500.847449513945, -22500.755795920275, -22500.668761967005, -22500.586025594544, -22500.507289510548, -22500.432279159268, -22500.360740867156, -22500.29244014853, -22500.22716015681, -22500.164700268117, -22500.104874785346, -22500.04751175184, -22499.992451864877, -22499.939547480182, -22499.888661699253, -22499.839667532393, -22499.79244713068, -22499.74689108088, -22499.702897757983, -22499.660372730177, -22499.619228211992, -22499.579382561307, -22499.540759816646, -22499.50328927125, -22499.46690508096, -22499.43154590293, -22499.397154562776, -22499.363677747642, -22499.331065723265, -22499.29927207278, -22499.268253455793, -22499.237969385922]",False,2001-04
2001-06,2001-06-01,2001Q2,3,48,509,1,-22572.436148294557,100,"[-24127.124154129153, -23701.603018888753, -23451.75439557749, -23274.72094173338, -23140.48394441436, -23035.168698354006, -22950.805071338997, -22882.28913913842, -22826.328440401867, -22780.80870402194, -22744.248695045986, -22715.395974879513, -22693.01266435039, -22675.8315583167, -22662.62158220624, -22652.287678434117, -22643.94618831214, -22636.950252915187, -22630.868550346546, -22625.434883077036, -22620.489546129756, -22615.93111306092, -22611.68975376028, -22607.72150631813, -22604.012639901164, -22600.58017141955, -22597.4603277313, -22594.687942945307, -22592.27806188064, -22590.21901416908, -22588.47713101931, -22587.006880206427, -22585.76038867965, -22584.693664204176, -22583.769501461473, -22582.958097666084, -22582.236424944316, -22581.58709553799, -22580.99714495752, -22580.456939155792, -22579.959280711602, -22579.498719819905, -22579.07104471255, -22578.67291615521, -22578.3016113017, -22577.954847286997, -22577.630661217554, -22577.327329102118, -22577.043311153673, -22576.777214673308, -22576.52776851395, -22576.29380510516, -22576.074247392855, -22575.86809897689, -22575.674436345635, -22575.49240250908, -22575.321201590417, -22575.160094099865, -22575.008392716845, -22574.865458470384, -22574.730697245956, -22574.603556570895, -22574.483522644838, -22574.370117589893, -22574.262896901062, -22574.16144708047, -22574.06538344124, -22573.974348068437, -22573.888007925623, -22573.806053096527, -22573.728195152085, -22573.65416563394, -22573.58371464593, -22573.516609545943, -22573.45263373083, -22573.3915855078, -22573.333277046007, -22573.27753340266, -22573.22419161825, -22573.17309987597, -22573.124116720777, -22573.077110333787, -22573.031957858042, -22572.98854477205, -22572.946764307595, -22572.906516908766, -22572.867709729206, -22572.830256164867, -22572.79407541976, -22572.759092102347, -22572.725235850423, -22572.692440982424, -22572.6606461733, -22572.629794153225, -22572.599831427513, -22572.570708016225, -22572.54237721209, -22572.51479535543, -22572.487921624903, -22572.46171784289, -22572.436148294557]",False,2001-05
2001-07,2001-07-01,2001Q3,1,48,510,1,-22737.631604657556,100,"[-24218.859970900652, -23816.65200788663, -23587.140868563343, -23423.35197933763, -23296.09704773513, -23193.597523732562, -23109.970074129906, -23041.565715967838, -22985.828871000514, -22940.856627217614, -22905.098980206494, -22877.141930614765, -22855.601298282672, -22839.121975573325, -22826.44355255735, -22816.480121334433, -22808.373720525804, -22801.50553227517, -22795.469181035645, -22790.020019255466, -22785.017408921198, -22780.37719309954, -22776.04624489894, -22771.99846724842, -22768.238630254276, -22764.79775979813, -22761.714823236172, -22759.01438193309, -22756.693841302484, -22754.724738177636, -22753.06250403184, -22751.657171745504, -22750.460981522152, -22749.432330600022, -22748.537043422126, -22747.748105233437, -22747.044692756852, -22746.410999280954, -22745.835110976866, -22745.308044676658, -22744.822976452968, -22744.37465016309, -22743.958938492247, -22743.572525109703, -22743.212678818745, -22742.877095310254, -22742.563787333725, -22742.271008837088, -22741.997202543265, -22741.7409634814, -22741.50101326803, -22741.276181581172, -22741.06539243253, -22740.867653646732, -22740.682048501378, -22740.50772884646, -22740.343909261635, -22740.189861966166, -22740.044912296955, -22739.908434633835, -22739.77984869191, -22739.65861612581, -22739.544237406695, -22739.436248942642, -22739.33422041927, -22739.237752341654, -22739.14647376105, -22739.060040172073, -22738.978131567284, -22738.900450637186, -22738.82672110485, -22738.756686184955, -22738.69010715789, -22738.626762050324, -22738.56644441418, -22738.50896219658, -22738.45413669399, -22738.40180158403, -22738.351802029345, -22738.30399384778, -22738.25824274422, -22738.214423599104, -22738.1724198096, -22738.13212267937, -22738.093430853223, -22738.056249793455, -22738.02049129458, -22737.986073033684, -22737.95291815367, -22737.920954877038, -22737.89011614775, -22737.860339299306, -22737.831565746932, -22737.803740702046, -22737.776812907618, -22737.750734392463, -22737.72546024348, -22737.700948394202, -22737.677159428633, -22737.65405639917, -22737.631604657556]",False,2001-06
2001-08,2001-08-01,2001Q3,2,48,511,1,-22990.648299704026,100,"[-24326.179017729388, -23927.043705850316, -23706.579896147152, -23563.815518203664, -23462.63246668056, -23385.121656960404, -23322.17896325044, -23269.29578602486, -23224.387307227196, -23186.529051478028, -23155.202008778768, -23129.873236504238, -23109.820941599963, -23094.138515623916, -23081.84442029962, -23072.018792669067, -23063.906037330355, -23056.95735660181, -23050.81675559007, -23045.270082648753, -23040.184551646325, -23035.46747514513, -23031.05922384358, -23026.947071996023, -23023.167075216432, -23019.775836968194, -23016.810537241086, -23014.26796080558, -23012.109764814908, -23010.27954679405, -23008.717893488465, -23007.371011884134, -23006.19410576679, -23005.15172403392, -23004.21671302151, -23003.368699881372, -23002.592569203272, -23001.8771337419, -23001.214062149695, -23000.59705823628, -23000.02125662947, -22999.48279105881, -22998.978493379134, -22998.505687830388, -22998.062052552006, -22997.64552738403, -22997.254252831226, -22996.88652960911, -22996.540791557723, -22996.215587112743, -22995.909566191367, -22995.621470478047, -22995.35012584139, -22995.09443609728, -22994.85337764094, -22994.625994662383, -22994.411394777264, -22994.208744975305, -22994.017267829633, -22993.83623793393, -22993.664978547007, -22993.50285843145, -22993.349288876336, -22993.203720895537, -22993.06564259402, -22992.934576694326, -22992.810078216055, -22992.69173230059, -22992.57915217389, -22992.471977239846, -22992.3698712971, -22992.272520872437, -22992.179633663756, -22992.09093708647, -22992.00617691678, -22991.92511602612, -22991.847533200984, -22991.773222042804, -22991.701989942794, -22991.633657126935, -22991.568055766526, -22991.50502915007, -22991.44443091236, -22991.386124317083, -22991.329981589264, -22991.275883294198, -22991.223717759876, -22991.173380539665, -22991.124773912834, -22991.077806419995, -22991.032392431323, -22990.988451745077, -22990.94590921449, -22990.90469440089, -22990.864741251356, -22990.825987799086, -22990.788375884946, -22990.75185089868, -22990.716361538354, -22990.681859586843, -22990.648299704026]",False,2001-07
2001-09,2001-09-01,2001Q3,3,48,512,1,-22895.739544185166,95,"[-24587.7603229262, -24059.461611865576, -23804.403160624795, -23633.741032918853, -23503.425490353333, -23398.02874446196, -23310.59015173523, -23237.273521924548, -23175.781752237865, -23124.681387222518, -23082.93514706989, -23049.570263442773, -23023.50050935436, -23003.494867078985, -22988.258343727288, -22976.563379314874, -22967.365916205905, -22959.86632931515, -22953.50981566109, -22947.942764822554, -22942.94925831636, -22938.391677330503, -22934.173271802927, -22930.227630151203, -22926.524996772787, -22923.077051140885, -22919.925818571242, -22917.117618374425, -22914.67747107734, -22912.598506059647, -22910.847326427, -22909.376461936514, -22908.13568804135, -22907.0790398374, -22906.167871919974, -22905.37138549303, -22904.66587338892, -22904.0334837674, -22903.460934061928, -22902.93837259257, -22902.458454183463, -22902.01562991608, -22901.605622392624, -22901.225049315035, -22900.871159536877, -22900.541651196156, -22900.23454800221, -22899.948115755396, -22899.68080616181, -22899.431218867256, -22899.198075492353, -22898.980201492777, -22898.776513088524, -22898.58600747062, -22898.40775513724, -22898.240893631628, -22898.084622225928, -22897.938197267013, -22897.800928008226, -22897.672172817227, -22897.55133569082, -22897.43786303168, -22897.331240656615, -22897.230991014134, -22897.13667059446, -22897.04786751799, -22896.964199289825, -22896.885310709535, -22896.810871925918, -22896.74057662728, -22896.674140358286, -22896.61129895503, -22896.5518070903, -22896.49543692174, -22896.44197683575, -22896.391230280693, -22896.34301468315, -22896.297160441554, -22896.253509991737, -22896.21191693944, -22896.17224525502, -22896.134368526047, -22896.09816926365, -22896.06353825882, -22896.030373985177, -22895.998582044816, -22895.96807465423, -22895.938770167417, -22895.910592633518, -22895.88347138649, -22895.857340664577, -22895.832139257334, -22895.807810178347, -22895.784300361658, -22895.761560380277, -22895.739544185166]",False,2001-08
2001-10,2001-10-01,2001Q4,1,48,513,1,-22671.588371064347,85,"[-24518.773895402388, -23982.749434088662, -23738.18076581818, -23572.554235414846, -23442.96058170264, -23334.00716575986, -23238.3933857012, -23152.30122832996, -23074.005563269777, -23003.12206180298, -22939.989393195134, -22885.17549365559, -22839.09622979342, -22801.74642978407, -22772.58361443432, -22750.58375314, -22734.42760314925, -22722.731664882747, -22714.23977911509, -22707.931739270178, -22703.05108552474, -22699.079657306276, -22695.688800198386, -22692.687562324958, -22689.9775789778, -22687.517412964287, -22685.29604591693, -22683.3144082333, -22681.573779244172, -22680.069812398837, -22678.790750363525, -22677.71829921578, -22676.829779819116, -22676.100533206525, -22675.505980550603, -22675.023095546858, -22674.631280077596, -22674.312749669167, -22674.05256941379, -22673.83847085376, -22673.66055242806, -22673.510935593953, -22673.38342252547, -22673.27318142935, -22673.176471753464, -22673.09041275196, -22673.01279371474, -22672.941921515958, -22672.876500088805, -22672.815536342234, -22672.758267457884, -22672.704105160155, -22672.652593269388, -22672.60337553325, -22672.55617133998, -22672.510757432723, -22672.466954166768, -22672.424615190772, -22672.383619699616, -22672.34386661381, -22672.305270199806, -22672.2677567667, -22672.231262166817, -22672.195729896783, -22672.161109647688, -22672.127356191275, -22672.09442851857, -22672.062289168254, -22672.030903698516, -22672.000240267516, -22671.97026929686, -22671.940963198533, -22671.91229615088, -22671.88424391281, -22671.856783667732, -22671.829893891325, -22671.80355423803, -22671.77774544289, -22671.752449235715, -22671.727648265525, -22671.703326033483, -22671.67946683292, -22671.656055695585, -22671.633078342868, -22671.61052114172, -22671.588371064347]",False,2001-09
2001-11,2001-11-01,2001Q4,2,48,514,1,-22897.00943634365,77,"[-25221.911552705897, -24490.120865786314, -24164.91568799297, -23958.468469340336, -23810.84794297159, -23696.76659142722, -23602.299650418652, -23519.386745373442, -23443.87011472479, -23374.070808058244, -23309.6784192784, -23251.06905151561, -23198.88627923159, -23153.707882338553, -23115.77486222002, -23084.833778550998, -23060.132363142962, -23040.56012170737, -23024.870034907235, -23011.892449446503, -23000.676034144304, -22990.53989070645, -22981.058747950672, -22972.01410241276, -22963.33642979755, -22955.05151348181, -22947.235602290628, -22939.98049053404, -22933.36856002033, -22927.457338660304, -22922.272483444292, -22917.807450046857, -22914.027774280075, -22910.877933913336, -22908.289068158807, -22906.186268057314, -22904.49462011494, -22903.143624001168, -22902.069961659523, -22901.21883634295, -22900.54422040658, -22900.008371189084, -22899.580930029042, -22899.237845373937, -22898.960283159333, -22898.73362107407, -22898.546573609114, -22898.390461645955, -22898.258620704346, -22898.145932043793, -22898.04845718639, -22897.96315647922, -22897.887674238333, -22897.8201756773, -22897.759223573263, -22897.703685132925, -22897.65266165814, -22897.60543535182, -22897.56142898076, -22897.520175177855, -22897.481292976907, -22897.444469786074, -22897.40944746301, -22897.376011495824, -22897.34398254638, -22897.31320979972, -22897.283565701888, -22897.25494177143, -22897.22724524593, -22897.20039638202, -22897.17432626986, -22897.148975054984, -22897.12429048459, -22897.100226713646, -22897.076743320165, -22897.05380448977, -22897.03137833778, -22897.00943634365]",False,2001-10
2001-12,2001-12-01,2001Q4,3,48,515,1,-23419.314458199056,100,"[-25072.708036091706, -24571.854924762552, -24350.840657367393, -24212.266788032655, -24109.355713944602, -24024.210865425943, -23948.971168128282, -23880.21619828364, -23816.78916587148, -23758.725771031786, -23706.620298185633, -23661.184488279465, -23622.909414162612, -23591.835097955736, -23567.46879192834, -23548.865972783704, -23534.82978913195, -23524.14140775689, -23515.738527760222, -23508.804245719053, -23502.775940054136, -23497.306566194788, -23492.20890631619, -23487.401303063532, -23482.862764921432, -23478.5995503701, -23474.623000826512, -23470.937311466736, -23467.535100900634, -23464.39813559048, -23461.500649315174, -23458.813304445677, -23456.306639878738, -23453.953534913373, -23451.7306587249, -23449.61908743137, -23447.60433020118, -23445.675985556383, -23443.82719867219, -23442.05403718211, -23440.35485866139, -23438.729710891886, -23437.179785357042, -23435.70693268337, -23434.313243123925, -23433.00069315787, -23431.77085888961, -23430.6246968035, -23429.562391769603, -23428.583270702336, -23427.68577804239, -23426.867506619936, -23426.12527494393, -23425.45524001198, -23424.853033685547, -23424.31391067761, -23423.832897204804, -23423.404931154797, -23423.024986906377, -23422.688180384797, -23422.389852250028, -23422.125629088023, -23421.891463986965, -23421.68365890017, -23421.4988717584, -23421.334111475662, -23421.186723887666, -23421.054371368486, -23420.935008472643, -23420.82685551202, -23420.728371549274, -23420.63822790071, -23420.5552829071, -23420.478558458413, -23420.407218543856, -23420.34054993754, -23420.27794501432, -23420.21888661194, -23420.162934804954, -23420.10971542891, -23420.05891018054, -23420.01024811898, -23419.963498399637, -23419.918464083377, -23419.874976876865, -23419.832892674953, -23419.792087790247, -23419.752455769227, -23419.713904707303, -23419.67635498698, -23419.639737374164, -23419.603991416796, -23419.569064098545, -23419.5349087071, -23419.501483883112, -23419.468752820776, -23419.436682595922, -23419.405243600908, -23419.37440906933, -23419.344154675837, -23419.314458199056]",False,2001-11
2002-01,2002-01-01,2002Q1,1,48,516,1,-23266.133290817495,100,"[-24812.55193812841, -24365.587283663, -24147.428107792988, -24005.14865045828, -23898.73607214525, -23811.581389231247, -23735.655619550213, -23667.132260120197, -23604.476613932202, -23547.370121384523, -23496.110413989823, -23451.229265292866, -23413.176218889203, -23382.070228444973, -23357.577390016657, -23338.938987023914, -23325.118334196053, -23314.99543099801, -23307.53583698264, -23301.891915422737, -23297.434205475605, -23293.734500990922, -23290.526079428575, -23287.659295864778, -23285.06186286744, -23282.707069363965, -23280.590302796816, -23278.713221156217, -23277.07453159966, -23275.666013818136, -23274.472186017847, -23273.47201730108, -23272.641380036697, -23271.95538366434, -23271.390167954723, -23270.92405221364, -23270.538115396386, -23270.216351114297, -23269.945545136146, -23269.71499698065, -23269.516173517277, -23269.342351844534, -23269.188284864023, -23269.04990617962, -23268.924080070377, -23268.808395820408, -23268.70100227185, -23268.600477016545, -23268.505724371345, -23268.415896656723, -23268.3303339727, -23268.248518434866, -23268.170039579265, -23268.094568312263, -23268.021837348962, -23267.951626549024, -23267.88375193183, -23267.818057446293, -23267.754408797315, -23267.69268880512, -23267.632793906338, -23267.57463150469, -23267.5181179546, -23267.46317701678, -23267.40973866616, -23267.357738163853, -23267.307115327523, -23267.257813951324, -23267.209781339432, -23267.162967926153, -23267.117326962554, -23267.072814254683, -23267.02938794197, -23266.987008307475, -23266.94563761343, -23266.905239957232, -23266.865781144108, -23266.82722857351, -23266.789551137113, -23266.752719126383, -23266.716704148603, -23266.681479049956, -23266.64701784496, -23266.61329565133, -23266.580288629746, -23266.547973928016, -23266.516329629092, -23266.485334702644, -23266.454968959835, -23266.425213011105, -23266.39604822649, -23266.367456698474, -23266.339421207194, -23266.31192518752, -23266.284952698268, -23266.25848839309, -23266.23251749309, -23266.207025760905, -23266.18199947633, -23266.157425413192, -23266.133290817495]",False,2001-12
2002-02,2002-02-01,2002Q1,2,48,517,1,-23550.562072778594,100,"[-25005.115413187854, -24646.048504664413, -24447.641238352622, -24312.235512620467, -24209.224116385572, -24123.91084371758, -24048.588900241342, -23979.521455515263, -23915.352334657255, -23856.034309412407, -23802.162040262145, -23754.546288860536, -23713.879674750693, -23680.470469809654, -23654.096346531187, -23634.018365984542, -23619.138841620203, -23608.230206591037, -23600.144535768497, -23593.94436010327, -23588.94566362595, -23584.698376835542, -23580.937268444613, -23577.527158405843, -23574.414483194003, -23571.589294345056, -23569.058168479998, -23566.827181765675, -23564.8933787661, -23563.242567924808, -23561.85101652547, -23560.688871826824, -23559.72376295515, -23558.923742986968, -23558.259286776207, -23557.704394498145, -23557.236997735476, -23556.838893284006, -23556.49540001229, -23556.194884890516, -23555.92825591917, -23555.68848037316, -23555.470158305998, -23555.269162463148, -23555.082344461603, -23554.907301098036, -23554.742192101716, -23554.58560016952, -23554.436424754123, -23554.293802213215, -23554.15704620207, -23554.025603408725, -23553.89902079827, -23553.776921421588, -23553.658986557835, -23553.544942519347, -23553.434550877373, -23553.327601192545, -23553.22390557754, -23553.123294600315, -23553.025614169474, -23552.930723141, -23552.83849145665, -23552.74879867644, -23552.66153280483, -23552.576589337757, -23552.493870477243, -23552.41328447445, -23552.334745072578, -23552.25817102818, -23552.183485695252, -23552.110616659917, -23552.039495416917, -23551.970057080773, -23551.90224012626, -23551.83598615409, -23551.771239678164, -23551.707947931773, -23551.646060690615, -23551.585530110417, -23551.526310577905, -23551.46835857354, -23551.411632545, -23551.35609279028, -23551.30170134951, -23551.248421904824, -23551.196219687456, -23551.145061391388, -23551.0949150932, -23551.045750177378, -23550.997537266747, -23550.950248157536, -23550.903855758857, -23550.858334036, -23550.813657957493, -23550.769803445444, -23550.726747329023, -23550.684467300835, -23550.642941875856, -23550.602150352963, -23550.562072778594]",False,2002-01
2002-03,2002-03-01,2002Q1,3,48,518,1,-23190.548806069888,100,"[-24902.615441130958, -24518.14282020038, -24283.578317213716, -24118.524805382232, -23990.16704170319, -23882.552977034742, -23788.51675508174, -23705.135741361628, -23631.35078965223, -23566.771312931218, -23510.979766112912, -23463.02343148738, -23421.192233651687, -23383.735368419635, -23350.603497457178, -23323.11341385291, -23301.455732475384, -23284.646461411066, -23271.516540949247, -23261.075881844947, -23252.57762344894, -23245.500007321018, -23239.49916424865, -23234.355540376946, -23229.92689124371, -23226.113601289955, -23222.836899726673, -23220.027526546208, -23217.6213289827, -23215.558565497988, -23213.784638138677, -23212.25097113695, -23210.915497457743, -23209.74265038922, -23208.702955284884, -23207.77237253788, -23206.931530419824, -23206.164949909093, -23205.460325332995, -23204.807893539146, -23204.19990248035, -23203.630176562445, -23203.093768867173, -23202.586687395382, -23202.105682122146, -23201.648080714687, -23201.21166244631, -23200.794561670413, -23200.395193941236, -23200.012199366385, -23199.644399016943, -23199.290761214066, -23198.950375287277, -23198.62243099646, -23198.306202261938, -23198.001034187448, -23197.706332615267, -23197.42155564196, -23197.146206664016, -23196.879828627054, -23196.621999230112, -23196.37232689429, -23196.13044734859, -23195.896020718184, -23195.668729025183, -23195.448274030572, -23195.23437536048, -23195.026768870914, -23194.825205213914, -23194.62944857466, -23194.4392755546, -23194.25447417982, -23194.074843017366, -23193.900190385044, -23193.730333642416, -23193.565098552637, -23193.404318706307, -23193.247834999744, -23193.095495161226, -23192.9471533196, -23192.802669610435, -23192.66190981546, -23192.524745031795, -23192.391051367584, -23192.260709661437, -23192.133605223084, -23192.009627593256, -23191.888670320663, -23191.770630754712, -23191.65540985213, -23191.5429119965, -23191.43304482927, -23191.325719091346, -23191.22084847433, -23191.118349480457, -23191.018141290584, -23190.920145639495, -23190.82428669798, -23190.730490960985, -23190.638687141545, -23190.548806069888]",False,2002-02
2002-04,2002-04-01,2002Q2,1,48,519,1,-23487.75134717101,100,"[-25318.462136145397, -24962.47123835755, -24740.358417305863, -24573.92509809987, -24436.726036795168, -24316.043932986613, -24205.995514104867, -24104.469600619625, -24011.230171329087, -23926.73299107548, -23851.55362718168, -23786.143058491776, -23730.667439016048, -23684.87110074438, -23648.014812168614, -23618.94080772425, -23596.25235568308, -23578.53464066435, -23564.533497411554, -23553.248051954208, -23543.94276734497, -23536.11050329348, -23529.417893046553, -23523.652155090036, -23518.677159282408, -23514.400423730298, -23510.75046716625, -23507.663200951152, -23505.075526652807, -23502.923903364244, -23501.14564226007, -23499.681130002693, -23498.47585262079, -23497.481714250738, -23496.65757212693, -23495.969128790402, -23495.38839253707, -23494.89290461339, -23494.464885773865, -23494.09040372946, -23493.758619588014, -23493.461139492258, -23493.19147675697, -23492.94461764954, -23492.716678003537, -23492.504635898993, -23492.306126012976, -23492.119282789015, -23491.942621567483, -23491.774948840368, -23491.615294629453, -23491.462861549317, -23491.316986392314, -23491.177111083427, -23491.04276063719, -23490.913526348184, -23490.789052898752, -23490.669028406264, -23490.55317668423, -23490.441251177996, -23490.333030173966, -23490.22831298286, -23490.126916872934, -23490.028674584362, -23489.933432297577, -23489.841047958307, -23489.75138988557, -23489.66433560534, -23489.57977086578, -23489.4975887996, -23489.41768920651, -23489.33997793418, -23489.264366340998, -23489.190770826597, -23489.11911241951, -23489.049316412773, -23488.981312040258, -23488.91503218783, -23488.85041313431, -23488.787394318155, -23488.725918126434, -23488.66592970334, -23488.60737677559, -23488.550209492972, -23488.49438028204, -23488.439843711618, -23488.38655636881, -23488.33447674436, -23488.283565126527, -23488.233783502525, -23488.18509546689, -23488.13746613609, -23488.090862068864, -23488.04525119176, -23488.00060272947, -23487.95688713951, -23487.914076050973, -23487.872142207016, -23487.83105941074, -23487.790802474316, -23487.75134717101]",False,2002-03
2002-05,2002-05-01,2002Q2,2,48,520,1,-23525.301688391653,100,"[-25071.80040746264, -24521.49683869315, -24313.77827822419, -24190.404782710728, -24099.74633601653, -24023.98715418234, -23955.9621814186, -23892.941261421576, -23834.32388507837, -23780.55205015132, -23732.479454170927, -23690.934018795608, -23656.40009436192, -23628.836261275723, -23607.65795960476, -23591.87260428268, -23580.300811688452, -23571.793813572735, -23565.38109331188, -23560.330815427737, -23556.143219391208, -23552.50886924737, -23549.25707082522, -23546.308271853213, -23543.635674273613, -23541.237002711783, -23539.115774360882, -23537.270757753253, -23535.691817854953, -23534.360041610096, -23533.25011791389, -23532.33339548994, -23531.580648915708, -23530.96412421502, -23530.458799685504, -23530.04298403682, -23529.69843472353, -23529.410171480802, -23529.166124292507, -23528.95671425578, -23528.77443034567, -23528.613438086704, -23528.469237381316, -23528.33837472015, -23528.218207951544, -23528.10671815543, -23528.002361722585, -23527.90395559591, -23527.810589181496, -23527.721557298853, -23527.63630948118, -23527.554411832443, -23527.475518437914, -23527.39934998947, -23527.32567782792, -23527.25431203402, -23527.18509253564, -23527.11788245644, -23527.052563127807, -23526.989030334513, -23526.92719147537, -23526.866963403325, -23526.808270770794, -23526.751044751865, -23526.69522204635, -23526.640744095566, -23526.587556458126, -23526.535608307135, -23526.484852020327, -23526.4352428418, -23526.38673859948, -23526.339299466294, -23526.292887755975, -23526.247467746678, -23526.20300552708, -23526.159468860973, -23526.116827067075, -23526.075050911673, -23526.03411251206, -23525.99398524931, -23525.95464368895, -23525.916063508597, -23525.878221431758, -23525.84109516686, -23525.804663351224, -23525.76890549917, -23525.73380195405, -23525.69933384365, -23525.665483038792, -23525.632232114756, -23525.59956431528, -23525.567463518913, -23525.535914207634, -23525.504901437303, -23525.474410810122, -23525.444428448656, -23525.414940971496, -23525.38593547033, -23525.35739948837, -23525.329320999997, -23525.301688391653]",False,2002-04
2002-06,2002-06-01,2002Q2,3,48,521,1,-23487.216276510546,100,"[-25362.561784340334, -24941.102012483545, -24691.9028396191, -24517.44990159802, -24380.337669753942, -24262.753285147952, -24156.780714667708, -24059.49328604776, -23970.317978609444, -23889.6531918166, -23818.183840839552, -23756.492583795593, -23704.782902490228, -23662.709374303584, -23629.36403023789, -23603.42380262886, -23583.393409896966, -23567.843552823186, -23555.56929951616, -23545.64979822187, -23537.433963031897, -23530.48918037543, -23524.541247694448, -23519.42025014522, -23515.017764126264, -23511.25637037776, -23508.070592483517, -23505.39726022039, -23503.172555430403, -23501.33287195512, -23499.817142317916, -23498.56913443677, -23497.539024271708, -23496.68410105643, -23495.968744995756, -23495.363910334043, -23494.84633667101, -23494.3976604285, -23494.00354090517, -23493.652866576438, -23493.337071599002, -23493.049569157396, -23492.785294751666, -23492.54034589014, -23492.311702445844, -23492.09701229721, -23491.894428528136, -23491.702486607435, -23491.520012142886, -23491.34605177687, -23491.179821465594, -23491.020667747413, -23490.86803868367, -23490.721461989364, -23490.5805285059, -23490.444879646344, -23490.314197800184, -23490.188198949185, -23490.066626941276, -23489.94924901326, -23489.83585225895, -23489.726240817083, -23489.62023361069, -23489.517662511764, -23489.4183708362, -23489.3222120972, -23489.229048962363, -23489.138752372794, -23489.051200791735, -23488.96627955801, -23488.883880324756, -23488.803900568088, -23488.726243153757, -23488.650815952205, -23488.577531494237, -23488.506306661333, -23488.437062405406, -23488.369723494063, -23488.304218277877, -23488.240478477055, -23488.178438985007, -23488.118037687058, -23488.059215292495, -23488.001915178662, -23487.94608324594, -23487.89166778243, -23487.838619337606, -23487.786890604097, -23487.736436306906, -23487.687213099463, -23487.63917946605, -23487.59229562995, -23487.546523467106, -23487.50182642472, -23487.45816944458, -23487.415518890648, -23487.37384248081, -23487.33310922232, -23487.293289350815, -23487.254354272693, -23487.216276510546]",False,2002-05
2002-07,2002-07-01,2002Q3,1,48,522,1,-23597.701198448667,100,"[-25129.37943161144, -24783.97252103344, -24580.017139015414, -24436.100351496465, -24322.986115801057, -24226.74338207457, -24140.880665489844, -24062.66665762473, -23991.31482156631, -23927.00882407593, -23870.309414353087, -23821.724334295803, -23781.390719298197, -23748.912443908528, -23723.386062042962, -23703.582033705796, -23688.188409325696, -23676.017513543506, -23666.120943948263, -23657.81425318274, -23650.64423073234, -23644.333641762878, -23638.725625733852, -23633.737212405078, -23629.324156329916, -23625.456623805072, -23622.104531927096, -23619.230847980954, -23616.790629193863, -23614.733380748905, -23613.006637445982, -23611.55935802454, -23610.34443944746, -23609.32019219365, -23608.450914429945, -23607.706813530753, -23607.063524150028, -23606.50142407108, -23606.004889386742, -23605.561577143617, -23605.161782716066, -23604.79789116531, -23604.46392449073, -23604.155177160508, -23603.86792802605, -23603.599215649836, -23603.346664767607, -23603.10835312498, -23602.882709707294, -23602.66843711107, -23602.464452336706, -23602.26984156674, -23602.08382553016, -23601.905732871288, -23601.73497957307, -23601.571052967607, -23601.413499231698, -23601.26191353959, -23601.115932250952, -23600.975226665167, -23600.839497988032, -23600.708473242397, -23600.581901918373, -23600.45955320661, -23600.341213694697, -23600.22668543345, -23600.11578430107, -23600.008338608593, -23599.904187902288, -23599.803181927862, -23599.705179728513, -23599.610048854596, -23599.517664666768, -23599.42790971815, -23599.340673203675, -23599.255850466772, -23599.173342555598, -23599.093055821984, -23599.014901557708, -23598.938795663456, -23598.864658346487, -23598.792413843847, -23598.72199016806, -23598.653318873196, -23598.58633483899, -23598.52097607127, -23598.457183517225, -23598.39490089391, -23598.33407452906, -23598.27465321288, -23598.216588060015, -23598.159832380825, -23598.104341561186, -23598.050072950085, -23597.996985754555, -23597.945040941187, -23597.89420114389, -23597.84443057734, -23597.795694955752, -23597.747961416564, -23597.701198448667]",False,2002-06
2002-08,2002-08-01,2002Q3,2,48,523,1,-23727.426198920453,100,"[-25275.30576420727, -24922.279170754286, -24719.1162457255, -24578.72453230762, -24470.08614054914, -24378.042302883776, -24295.172597632627, -24218.345182423403, -24146.76612095032, -24080.791666014098, -24021.25979249907, -23969.067195326563, -23924.833441101266, -23888.655815052003, -23860.02082958698, -23837.901067472507, -23820.987849729372, -23807.955257022033, -23797.65868678605, -23789.227262676966, -23782.065666454168, -23775.805282463072, -23770.239868096112, -23765.26588628622, -23760.83537315178, -23756.92284727407, -23753.505155504263, -23750.55191126281, -23748.02344814767, -23745.87307779063, -23744.050977553467, -23742.50795826573, -23741.198273326583, -23740.081280311904, -23739.122114122933, -23738.291653163476, -23737.566055293697, -23736.92608244105, -23736.356364456686, -23735.844693607338, -23735.38139704854, -23734.958805270348, -23734.570816889078, -23734.212550887307, -23733.880073543318, -23733.570186626705, -23733.280264451925, -23733.00812912063, -23732.751955191063, -23732.510196801923, -23732.28153182234, -23732.064818867566, -23731.859064026386, -23731.66339492679, -23731.477040361304, -23731.2993141424, -23731.12960219346, -23730.96735213066, -23730.81206477649, -23730.663287182444, -23730.520606841124, -23730.383646843067, -23730.252061790823, -23730.125534324783, -23730.003772147797, -23729.886505459282, -23729.773484728605, -23729.664478751383, -23729.559272943618, -23729.457667837058, -23729.35947774582, -23729.264529579992, -23729.17266178573, -23729.083723395168, -23728.997573171775, -23728.914078839585, -23728.833116385922, -23728.75456942919, -23728.678328644306, -23728.604291239462, -23728.53236047873, -23728.462445245677, -23728.394459643918, -23728.32832263086, -23728.263957681473, -23728.201292479243, -23728.14025863167, -23728.080791408272, -23728.0228294988, -23727.96631479018, -23727.91119216029, -23727.857409287277, -23727.80491647306, -23727.753666479777, -23727.703614378246, -23727.654717407226, -23727.606934842875, -23727.560227877373, -23727.514559506068, -23727.469894422466, -23727.426198920453]",False,2002-07
2002-09,2002-09-01,2002Q3,3,48,524,1,-23319.08093040959,100,"[-25456.9075379509, -24958.026289557387, -24636.999384028466, -24403.073544556082, -24222.47397654761, -24076.443336431807, -23953.826866797084, -23848.150239829847, -23756.053494113905, -23676.091683896644, -23607.742604652576, -23550.671231714263, -23504.290911112843, -23467.60361228447, -23439.25146976034, -23417.687101083324, -23401.371030816797, -23388.928911200106, -23379.239097158625, -23371.454548816044, -23364.980018856324, -23359.426834293026, -23354.56120828971, -23350.255079411087, -23346.444064373947, -23343.09494044708, -23340.183649674535, -23337.68324185191, -23335.559660944502, -23333.772484586898, -23332.27789851706, -23331.03199603562, -23329.99341219428, -23329.124991927965, -23328.394572139903, -23327.775102613195, -23327.244343107268, -23326.784331136965, -23326.380759316362, -23326.022351348085, -23325.700287477524, -23325.407703534307, -23325.139270519838, -23324.890851629218, -23324.659228422213, -23324.441885836553, -23324.236845594503, -23324.0425384151, -23323.85770674902, -23323.68133116456, -23323.512574846834, -23323.350741843642, -23323.19524567134, -23323.04558568797, -23322.901329268727, -23322.762098305964, -23322.627558929675, -23322.497413626552, -23322.371395148548, -23322.24926175984, -23322.130793489072, -23322.015789140296, -23321.90406388029, -23321.795447267024, -23321.68978161877, -23321.586920648704, -23321.48672830877, -23321.38907780014, -23321.293850718037, -23321.200936306122, -23321.110230801238, -23321.02163685357, -23320.935063010416, -23320.850423254098, -23320.767636586483, -23320.686626653835, -23320.607321406856, -23320.529652791854, -23320.453556469132, -23320.37897155578, -23320.305840390236, -23320.234108316225, -23320.163723484242, -23320.094636668822, -23320.026801100117, -23319.960172308332, -23319.89470798004, -23319.830367825045, -23319.76711345322, -23319.704908260068, -23319.64371732057, -23319.58350729047, -23319.524246314402, -23319.465903940392, -23319.40845104004, -23319.35185973418, -23319.296103323362, -23319.241156222895, -23319.18699390214, -23319.133592827573, -23319.08093040959]",False,2002-08
2002-10,2002-10-01,2002Q4,1,48,525,1,-23836.83062119931,100,"[-25236.182042521046, -24906.27107314032, -24717.011052004793, -24584.162389659436, -24480.363492191856, -24392.682223764747, -24314.799997037848, -24243.86244529651, -24178.93008186972, -24120.10137529455, -24067.959169446865, -24023.1493252343, -23986.0360128853, -23956.479138269962, -23933.788156357878, -23916.85039542817, -23904.363987455323, -23895.07357426246, -23887.931421392477, -23882.161774082473, -23877.250224122792, -23872.89385784311, -23868.94056112829, -23865.33298771464, -23862.063447745804, -23859.141462396485, -23856.573685122028, -23854.35446473012, -23852.464200011484, -23850.872224554365, -23849.541406888697, -23848.43260176542, -23847.50805480925, -23846.733553694085, -23846.079487901294, -23845.521110140045, -23845.038290759105, -23844.61499922851, -23844.23867775397, -23843.899611216435, -23843.590351333838, -23843.305221160306, -23843.039906150203, -23842.791126837692, -23842.556382855433, -23842.333756307773, -23842.121762839408, -23841.919240058694, -23841.72526465057, -23841.539091193208, -23841.360107200377, -23841.187800182503, -23841.02173354628, -23840.86152895842, -23840.7068534178, -23840.557409747827, -23840.41292956888, -23840.27316806824, -23840.137900073652, -23840.006917073628, -23839.880024927377, -23839.75704207915, -23839.63779814334, -23839.52213276425, -23839.409894680768, -23839.300940945745, -23839.195136263326, -23839.092352417676, -23838.992467773245, -23838.895366832305, -23838.800939838748, -23838.709082420173, -23838.619695261947, -23838.532683808575, -23838.447957988603, -23838.3654319601, -23838.285023874407, -23838.206655656148, -23838.130252797946, -23838.055744168487, -23837.98306183274, -23837.91214088338, -23837.8429192825, -23837.775337712847, -23837.709339437977, -23837.644870170505, -23837.581877948076, -23837.52031301651, -23837.460127719572, -23837.401276394972, -23837.343715276256, -23837.28740240013, -23837.23229751894, -23837.178362017992, -23837.12555883731, -23837.07385239776, -23837.023208531085, -23836.973594413703, -23836.924978504074, -23836.877330483396, -23836.83062119931]",False,2002-09
2002-11,2002-11-01,2002Q4,2,48,526,1,-23544.402447674318,100,"[-25113.864637524315, -24700.320166938032, -24470.63240053262, -24311.543034850358, -24189.951745100432, -24091.556644535372, -24008.711932048667, -23936.83835269889, -23873.33765893659, -23817.01933081524, -23767.550369761437, -23724.968357565434, -23689.29785541955, -23660.300394790636, -23637.392258306885, -23619.711968585452, -23606.2666284784, -23596.079938432948, -23588.295193387465, -23582.22302716994, -23577.346091322444, -23573.29892561727, -23569.837896283054, -23566.81021027099, -23564.126285415106, -23561.737010557576, -23559.616193692655, -23557.74801426713, -23556.11902053888, -23554.713935805492, -23553.514301028983, -23552.498899581817, -23551.645025635673, -23550.92991296773, -23550.331931044533, -23549.831395401983, -23549.410994040885, -23549.055906487603, -23548.753711969726, -23548.494173457133, -23548.268963583567, -23548.071377065495, -23547.896056616628, -23547.738746558894, -23547.59607984306, -23547.46539901174, -23547.344608771553, -23547.23205648758, -23547.126436486356, -23547.02671415423, -23546.932066189664, -23546.841833850343, -23546.75548653768, -23546.672593532705, -23546.592802114155, -23546.515820646026, -23546.441405517155, -23546.369351056415, -23546.299481740432, -23546.231646164277, -23546.16571236609, -23546.101564191096, -23546.03909845333, -23545.978222710113, -23545.918853507636, -23545.860914989462, -23545.804337785306, -23545.74905811674, -23545.6950170717, -23545.64216001056, -23545.590436075745, -23545.53979778263, -23545.490200675416, -23545.4416030347, -23545.393965626787, -23545.34725148688, -23545.301425730144, -23545.25645538557, -23545.212309249117, -23545.168957752834, -23545.126372847695, -23545.084527898074, -23545.04339758632, -23545.002957826026, -23544.963185682995, -23544.92405930289, -23544.885557844907, -23544.847661420703, -23544.8103510381, -23544.773608549047, -23544.737416601434, -23544.7017585944, -23544.66661863679, -23544.631981508515, -23544.59783262451, -23544.564158001147, -23544.53094422481, -23544.498178422527, -23544.465848234468, -23544.43394178817, -23544.402447674318]",False,2002-10
2002-12,2002-12-01,2002Q4,3,49,527,1,-24360.872362685026,100,"[-25738.092720493078, -25382.458902308153, -25196.85431597688, -25076.596701846, -24987.208178898414, -24913.186603996055, -24847.13819295705, -24785.5665559743, -24727.134843681157, -24671.80612083402, -24620.299923108752, -24573.661169345178, -24532.888916525884, -24498.64092320582, -24471.051840095857, -24449.69834676077, -24433.711501863938, -24421.984787546888, -24413.393964930787, -24406.958401739346, -24401.917895093684, -24397.73912383448, -24394.08212674447, -24390.75332970631, -24387.6604080988, -24384.774786213275, -24382.102583940145, -24379.663292669276, -24377.475422305855, -24375.54839848214, -24373.87966384189, -24372.455498077743, -24371.253900010084, -24370.248100523208, -24369.40975161725, -24368.7113350317, -24368.127703691986, -24367.63687484444, -24367.220269563233, -24366.862591963512, -24366.55150566819, -24366.277220965545, -24366.032066377084, -24365.810087511312, -24365.60669438169, -24365.418364344736, -24365.242399541825, -24365.07673342603, -24364.919779200398, -24364.770312749508, -24364.627383207095, -24364.490245221758, -24364.35830799509, -24364.231097127755, -24364.10822615325, -24363.989375345533, -24363.874275956336, -24363.762698488576, -24363.654443960546, -24363.54933738187, -24363.44722286335, -24363.347959933733, -24363.251420748482, -24363.15748795901, -24363.06605307184, -24362.977015172648, -24362.890279922995, -24362.80575876192, -24362.723368262417, -24362.643029605777, -24362.564668146362, -24362.488213046374, -24362.413596965383, -24362.340755793062, -24362.269628416478, -24362.200156515428, -24362.13228438047, -24362.06595875005, -24362.00112866344, -24361.93774532714, -24361.87576199287, -24361.815133845488, -24361.755817899713, -24361.6977729045, -24361.6409592543, -24361.58533890641, -24361.53087530388, -24361.477533303325, -24361.425279107363, -24361.374080201153, -24361.323905292753, -24361.27472425691, -24361.22650808215, -24361.179228820813, -24361.132859541805, -24361.08737428607, -24361.04274802423, -24360.99895661661, -24360.95597677534, -24360.913786028308, -24360.872362685026]",False,2002-11
2003-01,2003-01-01,2003Q1,1,49,528,1,-24544.952371549873,100,"[-26020.155169655165, -25677.68588512314, -25485.549271480624, -25353.277371851153, -25251.875975646726, -25167.697115639097, -25093.58526128104, -25025.71552010676, -24962.24602255298, -24902.614387376612, -24847.093497820548, -24796.42699610147, -24751.481062342482, -24712.9355899441, -24681.06465212522, -24655.645205517383, -24636.004541017264, -24621.174295454388, -24610.084116465907, -24601.727504558497, -24595.26300340849, -24590.049899867525, -24585.638427017235, -24581.737577890628, -24578.177087517117, -24574.87206478053, -24571.793154218376, -24568.942537534054, -24566.335511043053, -24563.98750006331, -24561.906324148942, -24560.089096238058, -24558.522601447607, -24557.18572239502, -24556.052595616336, -24555.095576583313, -24554.28754199446, -24553.603410937463, -24553.020971925947, -24552.521184595942, -24552.088130519063, -24551.70875817357, -24551.372528306183, -24551.07103030484, -24550.797612240385, -24550.547047290373, -24550.315246066595, -24550.09901627281, -24549.895866594423, -24549.703849554786, -24549.521437364907, -24549.34742492708, -24549.18085471576, -24549.020959000183, -24548.867115638604, -24548.718814388238, -24548.57563129822, -24548.437209277767, -24548.303243358678, -24548.173469513917, -24548.047656162715, -24547.925597701975, -24547.807109564186, -24547.692024425716, -24547.58018928187, -24547.471463176324, -24547.365715425123, -24547.262824215726, -24547.16267549118, -24547.065162052077, -24546.970182825487, -24546.877642262894, -24546.787449838095, -24546.699519623413, -24546.61376992757, -24546.53012298269, -24546.448504670592, -24546.36884428128, -24546.291074297365, -24546.21513020045, -24546.14095029568, -24546.06847555174, -24545.997649454137, -24545.92841786991, -24545.860728922515, -24545.794532875447, -24545.729782023827, -24545.666430593148, -24545.604434644287, -24545.543751984485, -24545.484342083575, -24545.426165995115, -24545.369186282063, -24545.313366946586, -24545.258673363805, -24545.205072219032, -24545.152531448508, -24545.101020183167, -24545.050508695458, -24545.000968348842, -24544.952371549873]",False,2002-12
2003-02,2003-02-01,2003Q1,2,49,529,1,-24405.58666436035,100,"[-26358.612455990424, -25927.339622185027, -25656.040604716647, -25466.878289755015, -25324.74114659279, -25208.991775295293, -25107.59568672595, -25013.975430275663, -24925.730105852643, -24843.78444688063, -24770.063016183976, -24705.724051776957, -24651.182888232248, -24606.33487788555, -24570.56746071211, -24542.798974374677, -24521.62897607586, -24505.560784073576, -24493.21286747187, -24483.453479272568, -24475.44291239149, -24468.608304370497, -24462.58754994947, -24457.16951474949, -24452.243302997864, -24447.75925426443, -24443.700185956997, -24440.060961974035, -24436.835176796598, -24434.008088880204, -24431.554651682534, -24429.441037587967, -24427.627917297606, -24426.074061581603, -24424.73937507853, -24423.58699654516, -24422.584462720508, -24421.70411642608, -24420.92299190994, -24420.22239026914, -24419.587308783997, -24419.00583551331, -24418.468576151918, -24417.968147386542, -24417.49874916566, -24417.05581519397, -24416.635734073636, -24416.2356306782, -24415.85319691668, -24415.48656189195, -24415.134192855603, -24414.794819888404, -24414.46737866915, -24414.150966935682, -24413.84481126491, -24413.548241613098, -24413.26067169142, -24412.981583736204, -24412.71051659932, -24412.447056357865, -24412.190828846033, -24411.94149366317, -24411.698739323467, -24411.462279295545, -24411.23184874118, -24411.007201807945, -24410.788109364137, -24410.574357089972, -24410.365743857725, -24410.162080348247, -24409.963187861948, -24409.768897291116, -24409.57904822673, -24409.393488178062, -24409.2120718875, -24409.034660726105, -24408.86112215781, -24408.69132926246, -24408.525160309397, -24408.36249837456, -24408.203230995372, -24408.047249858253, -24407.89445051481, -24407.744732122894, -24407.597997209527, -24407.454151453047, -24407.313103482196, -24407.174764690124, -24407.0390490616, -24406.905873012023, -24406.775155236668, -24406.646816569322, -24406.520779849037, -24406.39696979425, -24406.2753128833, -24406.155737240886, -24406.03817252953, -24405.922549845684, -24405.80880161986, -24405.696861520395, -24405.58666436035]",False,2003-01
2003-03,2003-03-01,2003Q1,3,49,530,1,-24570.078193742997,100,"[-26299.242573023108, -25858.83849513152, -25613.08902825542, -25443.93875070206, -25314.84753659075, -25209.241081727392, -25118.702423760107, -25038.717734102527, -24966.898849472993, -24902.15349470937, -24844.211376037078, -24793.241553026084, -24749.500957537886, -24713.057427394182, -24683.633543446696, -24660.584108937495, -24642.9852469559, -24629.78375303776, -24619.946323838765, -24612.566020352784, -24606.913155521448, -24602.44064037921, -24598.762300955208, -24595.620525578557, -24592.85352244557, -24590.366922383357, -24588.110988833472, -24586.06312224138, -24584.21493514879, -24582.56323587344, -24581.104358685123, -24579.83126118371, -24578.73271663984, -24577.793871282203, -24576.997486238055, -24576.325335742586, -24575.75943026422, -24575.28291397988, -24574.880615204853, -24574.53930022254, -24574.247707810835, -24573.99644102805, -24573.77777916635, -24573.585455694505, -24573.414432398557, -24573.260687637594, -24573.121027855348, -24572.99292570035, -24572.874384583687, -24572.76382756924, -24572.660007601655, -24572.561935833153, -24572.46882493495, -24572.38004459071, -24572.295086755348, -24572.213538656157, -24572.135061878893, -24572.0593762037, -24571.986247128036, -24571.915476239963, -24571.846893787537, -24571.780352936243, -24571.715725322207, -24571.652897598684, -24571.591768744325, -24571.532247955445, -24571.474252986867, -24571.417708837616, -24571.36254670243, -24571.308703128863, -24571.256119333826, -24571.20474064437, -24571.154516035884, -24571.105397746887, -24571.057340954612, -24571.0103034992, -24570.964245646792, -24570.9191298845, -24570.87492074116, -24570.831584629555, -24570.789089706446, -24570.747405747625, -24570.706504035734, -24570.666357258946, -24570.62693941897, -24570.588225747426, -24570.550192629165, -24570.512817532144, -24570.476078942673, -24570.43995630588, -24570.40442997054, -24570.369481138012, -24570.335091814828, -24570.301244768594, -24570.26792348693, -24570.235112139213, -24570.20279554078, -24570.170959119536, -24570.139588884645, -24570.10867139726, -24570.078193742997]",False,2003-02
2003-04,2003-04-01,2003Q2,1,49,531,1,-24652.20395544031,100,"[-26169.245484528576, -25816.58425762682, -25603.542719729536, -25453.19356758766, -25338.922883643998, -25246.252791507814, -25166.84545296977, -25096.00289379499, -25031.32766046064, -24971.906642113092, -24917.76720742604, -24869.431262511967, -24827.509836029152, -24792.378409667108, -24763.98635471344, -24741.82273464761, -24725.018692225683, -24712.52630699201, -24703.298863600005, -24696.418591483074, -24691.156131052274, -24686.975248597166, -24683.506533593132, -24680.510250838626, -24677.8403442355, -24675.41457536752, -24673.191639431792, -24671.154372472527, -24669.297826280366, -24667.621193730854, -24666.12282392744, -24664.797691248972, -24663.63669409385, -24662.627153120164, -24661.7539298962, -24661.000709051066, -24660.35114672911, -24659.789740049633, -24659.30238605893, -24658.8766661871, -24658.501920957504, -24658.169182962334, -24657.871026269593, -24657.601376098464, -24657.35530865616, -24657.12885958395, -24656.918851010792, -24656.72274146708, -24656.538499298986, -24656.36449815458, -24656.199432088164, -24656.042247464695, -24655.892088873465, -24655.748256494113, -24655.610172684443, -24655.477355907355, -24655.34940044563, -24655.225960648615, -24655.106738708066, -24654.99147517077, -24654.879941566975, -24654.7719346711, -24654.66727202029, -24654.565788401545, -24654.46733308516, -24654.37176763355, -24654.278964154488, -24654.18880389832, -24654.101176122156, -24654.015977162257, -24653.933109669124, -24653.852481970625, -24653.7740075364, -24653.69760452282, -24653.62319538254, -24653.55070652629, -24653.480068027086, -24653.411213359377, -24653.344079167193, -24653.278605056403, -24653.2147334075, -24653.152409205813, -24653.091579886663, -24653.032195193617, -24652.97420704797, -24652.917569428464, -24652.862238259688, -24652.808171308614, -24652.755328088177, -24652.70366976738, -24652.65315908722, -24652.603760281996, -24652.55543900551, -24652.508162261794, -24652.46189833995, -24652.416616752813, -24652.372288179235, -24652.32888440956, -24652.28637829423, -24652.244743695268, -24652.20395544031]",False,2003-03
2003-05,2003-05-01,2003Q2,2,49,532,1,-24847.42814096871,100,"[-26668.822792420695, -26160.641401895286, -25888.58992099863, -25712.445478648493, -25587.06729924116, -25489.547532554396, -25407.4438385846, -25334.233636801757, -25266.845279806323, -25204.220369365255, -25146.460197865832, -25094.245623638337, -25048.38151992989, -25009.446526426487, -24977.573884951515, -24952.38523194496, -24933.070721695578, -24918.56610085653, -24907.750956994823, -24899.60421832602, -24893.29003196639, -24888.181103881478, -24883.842086749275, -24879.994953817728, -24876.4806634291, -24873.2238757448, -24870.202856776636, -24867.424924322204, -24864.907594296077, -24862.66566657439, -24860.704137401095, -24859.01608685001, -24857.58403632664, -24856.383083189998, -24855.384415378237, -24854.558342813172, -24853.876489522612, -24853.31313339703, -24852.84584916552, -24852.455656304883, -24852.12685535659, -24851.846694431533, -24851.60496441478, -24851.39358543733, -24851.20622056577, -24851.037934440606, -24850.884902945465, -24850.744173084306, -24850.61346856507, -24850.491034986982, -24850.3755181843, -24850.26586963546, -24850.161273543024, -24850.061091004547, -24849.964817501135, -24849.872050663882, -24849.782465910554, -24849.69579807104, -24849.61182754725, -24849.530369892454, -24849.45126796175, -24849.374385990992, -24849.29960512083, -24849.226820001917, -24849.155936209645, -24849.086868265018, -24849.019538110082, -24848.953873924816, -24848.8898092013, -24848.827282012353, -24848.7662344279, -24848.706612043876, -24848.648363597717, -24848.59144065068, -24848.535797322238, -24848.481390065404, -24848.42817747448, -24848.376120118774, -24848.3251803974, -24848.2753224113, -24848.22651184935, -24848.178715886505, -24848.131903091973, -24848.086043345877, -24848.04110776331, -24847.997068624907, -24847.95389931292, -24847.911574252263, -24847.870068856006, -24847.82935947477, -24847.789423349655, -24847.75023856838, -24847.711784024286, -24847.67403937799, -24847.63698502146, -24847.600602044236, -24847.564872201743, -24847.52977788543, -24847.49530209464, -24847.461428410075, -24847.42814096871]",False,2003-04
2003-06,2003-06-01,2003Q2,3,49,533,1,-24996.36023446231,100,"[-26463.61834851076, -26119.181391816466, -25924.980468957856, -25791.8617898583, -25689.636714976674, -25604.09920755072, -25528.09589939164, -25458.023055305137, -25392.346383620075, -25330.83546683295, -25274.06339383038, -25222.98696022544, -25178.559051720367, -25141.403050778543, -25111.60212909046, -25088.647991715698, -25071.55536072647, -25059.08787187845, -25050.00051189979, -25043.21684639904, -25037.91055295217, -25033.508080659587, -25029.6480793719, -25026.12791635954, -25022.85385849628, -25019.800398982836, -25016.97881627574, -25014.413849310993, -25012.127777816255, -25010.13141696186, -25008.42108196346, -25006.979890087365, -25005.78143881084, -25004.794130661932, -25003.985001635738, -25003.322531163758, -25002.778365493134, -25002.328129963193, -25001.95158730965, -25001.632387442227, -25001.357602931785, -25001.117185733765, -25000.90342959467, -25000.71048406638, -25000.53393985937, -25000.37048909611, -25000.217655128807, -25000.073582518206, -24999.936876645363, -24999.806482920845, -24999.68159680761, -24999.56159737055, -24999.445998524305, -24999.33441344173, -24999.226528658783, -24999.12208527307, -24999.020865302806, -24998.92268178412, -24998.827371568645, -24998.73479006753, -24998.644807397402, -24998.55730553587, -24998.472176205018, -24998.38931928057, -24998.30864158199, -24998.230055939788, -24998.15348046546, -24998.078837970774, -24998.006055497874, -24997.935063932502, -24997.865797680195, -24997.798194390823, -24997.732194720873, -24997.667742125323, -24997.60478267356, -24997.543264884633, -24997.48313957863, -24997.424359741737, -24997.366880402624, -24997.310658518974, -24997.25565287265, -24997.20182397255, -24997.149133964336, -24997.097546546218, -24997.047026890414, -24996.997541569563, -24996.94905848773, -24996.901546815705, -24996.85497693008, -24996.80932035598, -24996.7645497131, -24996.72063866478, -24996.67756186996, -24996.635294937732, -24996.593814384505, -24996.55309759331, -24996.51312277545, -24996.473868933947, -24996.435315829134, -24996.397443945832, -24996.36023446231]",False,2003-05
2003-07,2003-07-01,2003Q3,1,49,534,1,-24876.507173708018,100,"[-26323.724238739756, -25971.841266113664, -25778.44234952661, -25649.592485960566, -25552.76061693164, -25472.762022954183, -25401.914662713472, -25336.297648244166, -25274.261469018227, -25215.64121796124, -25161.17168006647, -25111.97125217418, -25069.091246374148, -25033.171954954574, -25004.25430673697, -24981.77684761333, -24964.737949899136, -24951.943954548064, -24942.242055320457, -24934.669772917452, -24928.509182016158, -24923.272999807363, -24918.658434908317, -24914.4948595247, -24910.698052996366, -24907.23465558574, -24904.09639628354, -24901.28264994281, -24898.789931838503, -24896.60698502152, -24894.713974327853, -24893.08420411083, -24891.68692592114, -24890.49018433442, -24889.46310896602, -24888.577448095435, -24887.80838646629, -24887.134804440342, -24886.539159841814, -24886.00715083253, -24885.527278533842, -24885.0903886838, -24884.689239487434, -24884.318119576714, -24883.972524690827, -24883.648892514742, -24883.344390251765, -24883.05674744722, -24882.784126200626, -24882.52502143543, -24882.27818484141, -24882.042567171353, -24881.81727459784, -24881.601535741505, -24881.394676742864, -24881.196102366277, -24881.005281612794, -24880.821736696886, -24880.645034532372, -24880.474780091623, -24880.310611167035, -24880.152194186536, -24879.999220825383, -24879.85140522418, -24879.708481672275, -24879.570202651998, -24879.436337166087, -24879.306669290076, -24879.180996905925, -24879.059130583653, -24878.94089258561, -24878.82611597368, -24878.714643804193, -24878.606328398204, -24878.50103067752, -24878.398619558382, -24878.298971396354, -24878.201969476788, -24878.107503546304, -24878.015469381182, -24877.925768389272, -24877.838307242295, -24877.752997535892, -24877.669755475006, -24877.588501582424, -24877.509160428624, -24877.431660381095, -24877.35593337159, -24877.281914679912, -24877.209542732893, -24877.138758917292, -24877.06950740571, -24877.00173499438, -24876.935390951927, -24876.870426878326, -24876.806796573277, -24876.744455913213, -24876.683362736443, -24876.62347673566, -24876.564759357418, -24876.507173708018]",False,2003-06
2003-08,2003-08-01,2003Q3,2,49,535,1,-24806.310377745187,100,"[-27077.67017365709, -26581.950274335362, -26277.23162368824, -26055.150520265914, -25876.592008045925, -25724.436957840237, -25591.09720049178, -25472.77268668209, -25367.202010888275, -25273.045368587875, -25189.742873591185, -25117.290454462174, -25055.849925584032, -25005.33744564705, -24965.154001916933, -24934.141924542833, -24910.746845981685, -24893.28314295574, -24880.181961748054, -24870.14545001277, -24862.196031473097, -24855.65195503472, -24850.068887428286, -24845.17593531457, -24840.819758751815, -24836.92053736709, -24833.43924767851, -24830.354755445773, -24827.649325494465, -24825.30110626775, -24823.28183864335, -24821.55783861094, -24820.092475630674, -24818.848858277175, -24817.792014494567, -24816.890319388844, -24816.11620721507, -24815.44632946881, -24814.861345133955, -24814.345503769386, -24813.88614058111, -24813.473162111957, -24813.09856851975, -24812.756034951897, -24812.44055917656, -24812.14817352805, -24811.875714505346, -24811.620641482383, -24811.380895798367, -24811.154792204998, -24810.940935749066, -24810.73815836387, -24810.54547056847, -24810.36202465781, -24810.187086585265, -24810.020014399066, -24809.860241612438, -24809.707264288794, -24809.560630928987, -24809.419934478577, -24809.28480594652, -24809.154909255703, -24809.029937041632, -24808.909607187026, -24808.79365993218, -24808.681855440813, -24808.57397172915, -24808.469802888285, -24808.36915754546, -24808.271857522202, -24808.177736656104, -24808.086639760073, -24807.998421698074, -24807.912946560376, -24807.83008692435, -24807.7497231897, -24807.67174297831, -24807.596040590965, -24807.5225165142, -24807.4510769715, -24807.381633514004, -24807.3141026464, -24807.248405484468, -24807.184467440922, -24807.122217936874, -24807.061590136287, -24807.002520701426, -24806.944949567227, -24806.888819732896, -24806.834077069154, -24806.78067013993, -24806.72855003702, -24806.677670226687, -24806.6279864074, -24806.579456377418, -24806.53203991176, -24806.485698647615, -24806.44039597758, -24806.396096950146, -24806.352768176785, -24806.310377745187]",False,2003-07
2003-09,2003-09-01,2003Q3,3,49,536,1,-24936.64890878642,100,"[-26979.42664081771, -26561.313103595494, -26308.421542414122, -26121.416542459323, -25966.18713340763, -25828.549895557982, -25703.110261074296, -25588.32193426961, -25484.103626296215, -25390.72423488205, -25308.43576451141, -25237.40857693728, -25177.650639867912, -25128.842557115022, -25090.19347672206, -25060.435491599103, -25037.980887689268, -25021.16657641728, -25008.477232400954, -24998.678079612557, -24990.850251712414, -24984.36015856432, -24978.800063779116, -24973.92523077175, -24969.59938997893, -24965.75178542599, -24962.3455962989, -24959.35664205422, -24956.76096460734, -24954.529429986356, -24952.627106320626, -24951.01520181219, -24949.653818559047, -24948.504451306468, -24947.53176493802, -24946.70458664942, -24945.996248528947, -24945.384476372714, -24944.85100705586, -24944.38107537727, -24943.962866619804, -24943.586993512014, -24943.246028554793, -24942.93410405136, -24942.646580739547, -24942.379779636383, -24942.130768835657, -24941.897196234066, -24941.67715957693, -24941.469106202894, -24941.271756057162, -24941.084042722312, -24940.90506828077, -24940.734068729605, -24940.570387413292, -24940.41345453483, -24940.262771271537, -24940.117897381886, -24939.978441464835, -24939.8440532408, -24939.71441738073, -24939.589248526976, -24939.468287237512, -24939.35129665082, -24939.23805971763, -24939.128376882225, -24939.022064123583, -24938.918951286803, -24938.818880651303, -24938.721705693315, -24938.627290009616, -24938.5355063759, -24938.446235918615, -24938.359367383066, -24938.27479648376, -24938.19242532537, -24938.112161884925, -24938.03391954703, -24937.957616685584, -24937.88317628613, -24937.81052560413, -24937.739595854924, -24937.67032193184, -24937.602642149363, -24937.536498008612, -24937.471833982887, -24937.40859732112, -24937.346737867523, -24937.286207895748, -24937.226961956207, -24937.168956735368, -24937.112150925695, -24937.056505105553, -24937.00198162794, -24936.948544517323, -24936.89615937404, -24936.844793285287, -24936.794414742515, -24936.74499356432, -24936.696500824793, -24936.64890878642]",False,2003-08
2003-10,2003-10-01,2003Q4,1,49,537,1,-25072.378337204806,100,"[-26840.58008537795, -26381.30511294546, -26117.503973067112, -25946.154804243568, -25823.096882478185, -25725.706315831165, -25642.341043484957, -25567.26840052067, -25498.098662880704, -25434.34299975273, -25376.495999255785, -25325.378112642342, -25281.646522728508, -25245.479479089063, -25216.46529831691, -25193.692171226536, -25175.971250708248, -25162.08521853877, -25150.97161082716, -25141.80706692565, -25134.01008951782, -25127.199944438376, -25121.143421852747, -25115.706584610427, -25110.81698026083, -25106.436039919856, -25102.53986951797, -25099.10687701973, -25096.111047804436, -25093.51966605715, -25091.294080968317, -25089.39207656553, -25087.770651412568, -25086.388439923812, -25085.20742965502, -25084.19393316012, -25083.31893657674, -25082.558002755868, -25081.89089961337, -25081.301090013767, -25080.775179357566, -25080.302381518406, -25079.874036475972, -25079.48319401984, -25079.124265880502, -25078.792741808615, -25078.484961834394, -25078.19793589041, -25077.929202221334, -25077.676716895665, -25077.438767876483, -25077.2139082705, -25077.00090443734, -25076.798695555237, -25076.606361994254, -25076.423100454642, -25076.248204305804, -25076.081047931864, -25075.921074175047, -25075.76778418472, -25075.62072914533, -25075.479503480507, -25075.34373922512, -25075.213101328016, -25075.087283701872, -25074.966005877628, -25074.84901015151, -25074.736059136896, -25074.62693365097, -25074.521430880326, -25074.41936278069, -25074.32055467418, -25074.224844014323, -25074.132079294493, -25074.04211907934, -25073.954831142382, -25073.870091695768, -25073.78778470003, -25073.707801243967, -25073.630038985957, -25073.554401649373, -25073.480798565804, -25073.409144260575, -25073.339358075973, -25073.271363827927, -25073.205089492716, -25073.140466920446, -25073.077431572616, -25073.015922281462, -25072.955881028643, -25072.89725274177, -25072.839985106766, -25072.784028394788, -25072.72933530233, -25072.67586080318, -25072.62356201148, -25072.57239805454, -25072.522329954954, -25072.473320520854, -25072.42533424401, -25072.378337204806]",False,2003-09
