haminh109/Nowcasting-GDP-Growth/outputs/layer1_dfm/dfm_news_series.csv
vintage_period,target_quarter,update_date,updated_variable,observed,forecast_(prev),impact_date,impacted_variable,news,weight,impact,block,block_label,factor_name
2000-01,2000Q1,,,,,,,,,,,,
2000-02,2000Q1,1999-12,BUSINVx,0.005332411996201714,0.0073253011986307934,2000-03,gdp_growth,-0.0019928892024290803,4.991214366086206,-0.009946937217182107,demand_orders_inventories,Demand / orders / inventories,demand
2000-02,2000Q1,1999-12,CMRMTSPLx,0.008455223126899725,0.0029814657462366527,2000-03,gdp_growth,0.005473757380663072,6.0655492838395215,0.03320134516019219,demand_orders_inventories,Demand / orders / inventories,demand
2000-02,2000Q1,1999-12,ISRATIOx,-0.01000000000000001,-0.006367261204793676,2000-03,gdp_growth,-0.0036327387952063343,-2.293011945122025,0.008329913450916318,demand_orders_inventories,Demand / orders / inventories,demand
2000-02,2000Q1,1999-12,NONREVSL,-0.005648526945737586,-0.0035318460470392045,2000-03,gdp_growth,-0.002116680898698382,1.6064616333967825,-0.003400366653902772,financial_conditions,Financial conditions,financial
2000-02,2000Q1,1999-12,gdp_growth,5.636127272434405,3.824649762449013,2000-03,gdp_growth,1.8114775099853924,-0.08112883309814206,-0.14696305656864286,,,
2000-02,2000Q1,2000-01,AMDMNOx,-0.012778204719948505,-0.008222225625917762,2000-03,gdp_growth,-0.004555979094030744,2.8041586582403344,-0.012775688223288265,demand_orders_inventories,Demand / orders / inventories,demand
2000-02,2000Q1,2000-01,AMDMUOx,0.005720390663997321,0.015864204421588413,2000-03,gdp_growth,-0.010143813757591092,4.823127037950311,-0.048924902402169936,demand_orders_inventories,Demand / orders / inventories,demand
2000-02,2000Q1,2000-01,ANDENOx,0.05809319406824365,-0.03425220934420121,2000-03,gdp_growth,0.09234540341244485,0.4433289742850422,0.04093939297477761,demand_orders_inventories,Demand / orders / inventories,demand
2000-02,2000Q1,2000-01,AWHMAN,41.7,41.53989366339798,2000-03,gdp_growth,0.16010633660201828,0.14340345207286276,0.02295980136746916,labor_market,Labor market,labor
2000-02,2000Q1,2000-01,BAA,0.14000000000000057,0.01721695099366577,2000-03,gdp_growth,0.12278304900633479,0.1300373332600678,0.015966380262323995,financial_conditions,Financial conditions,financial
2000-02,2000Q1,2000-01,BAAFFM,2.88,2.8522071329111647,2000-03,gdp_growth,0.027792867088835136,-0.057312353341441746,-0.0015928746189670467,financial_conditions,Financial conditions,financial
2000-02,2000Q1,2000-01,BUSLOANS,0.0012801232252543926,0.00418245661787601,2000-03,gdp_growth,-0.0029023333926216175,1.7760358477254543,-0.005154648147346628,financial_conditions,Financial conditions,financial
2000-02,2000Q1,2000-01,CES3000000008,0.002123381619163034,-0.0007600044192916136,2000-03,gdp_growth,0.002883386038454648,6.269909984082155,0.01807857091046989,labor_market,Labor market,labor
2000-02,2000Q1,2000-01,CLAIMSx,-0.010619568827460846,-0.01584493761392834,2000-03,gdp_growth,0.005225368786467493,-2.9942704974667507,-0.01564616759570325,labor_market,Labor market,labor
2000-02,2000Q1,2000-01,CLF16OV,0.005707834924363553,0.0014603044958746982,2000-03,gdp_growth,0.004247530428488855,5.129276298219686,0.021786757152814792,labor_market,Labor market,labor
2000-02,2000Q1,2000-01,CPIAUCSL,-0.0005968066109529602,-3.486344992876748e-05,2000-03,gdp_growth,-0.0005619431610241926,7.632233785375925,-0.004288881579029786,prices_inflation,Prices & inflation,prices
2000-02,2000Q1,2000-01,CPIULFSL,-5.588824585345265e-06,-7.369491027025472e-05,2000-03,gdp_growth,6.810608568490945e-05,4.386571953011219,0.00029875224529480265,prices_inflation,Prices & inflation,prices
2000-02,2000Q1,2000-01,CUMFNS,0.39999999999999153,0.2805922348603256,2000-03,gdp_growth,0.11940776513966594,-0.07168481621271586,-0.008559723698408093,real_activity_income,Real activity & income,real_activity
2000-02,2000Q1,2000-01,CUSR0000SAC,-0.003421611932953539,-0.002186239028595846,2000-03,gdp_growth,-0.0012353729043576925,-3.261779509161378,0.0040295140256071,prices_inflation,Prices & inflation,prices
2000-02,2000Q1,2000-01,CUSR0000SAS,0.0010419220584916289,0.0011491779699009316,2000-03,gdp_growth,-0.00010725591140930285,7.391566135914177,-0.000792789162649614,prices_inflation,Prices & inflation,prices
2000-02,2000Q1,2000-01,FEDFUNDS,0.15000000000000036,-0.034617734182003396,2000-03,gdp_growth,0.18461773418200375,0.11335543010454943,0.020927422663128414,financial_conditions,Financial conditions,financial
2000-02,2000Q1,2000-01,GS10,0.3799999999999999,0.09711588206476073,2000-03,gdp_growth,0.28288411793523915,0.11333664971647993,0.032061138184781596,financial_conditions,Financial conditions,financial
2000-02,2000Q1,2000-01,HOUST,7.4815557019095165,7.437343333302122,2000-03,gdp_growth,0.04421236860739406,1.6170873960872414,0.07149526402618016,housing_construction,Housing & construction,housing
2000-02,2000Q1,2000-01,HOUSTMW,6.021023349349527,5.967499417538308,2000-03,gdp_growth,0.05352393181121895,0.18332329330607133,0.009812183450322254,housing_construction,Housing & construction,housing
2000-02,2000Q1,2000-01,HOUSTNE,5.0106352940962555,5.089148663939535,2000-03,gdp_growth,-0.07851336984327942,0.026826649220162396,-0.0021062506318785335,housing_construction,Housing & construction,housing
2000-02,2000Q1,2000-01,HOUSTS,6.720220155135295,6.671232885654103,2000-03,gdp_growth,0.04898726948119274,-0.1822328268354911,-0.008927088596509735,housing_construction,Housing & construction,housing
2000-02,2000Q1,2000-01,HOUSTW,5.950642552587727,5.908780859483465,2000-03,gdp_growth,0.04186169310426204,-0.14759973711324934,-0.0061787748973046,housing_construction,Housing & construction,housing
2000-02,2000Q1,2000-01,INDPRO,0.009730190404086512,0.00565401753679568,2000-03,gdp_growth,0.004076172867290833,1.4587056176164928,0.005945936259893065,real_activity_income,Real activity & income,real_activity
2000-02,2000Q1,2000-01,IPCONGD,0.009820184024651013,0.0054926512399428255,2000-03,gdp_growth,0.004327532784708187,-9.861638668470844,-0.042676564648753565,real_activity_income,Real activity & income,real_activity
2000-02,2000Q1,2000-01,IPFINAL,0.01208661007054257,0.005694089665317696,2000-03,gdp_growth,0.006392520405224873,-5.812804980503891,-0.037158474449463894,real_activity_income,Real activity & income,real_activity
2000-02,2000Q1,2000-01,IPMANSICS,0.00909449191686118,0.006826949096589764,2000-03,gdp_growth,0.0022675428202714163,81.89883127982554,0.1857091068571885,real_activity_income,Real activity & income,real_activity
2000-02,2000Q1,2000-01,MANEMP,0.0007080031883575089,0.0010878538972111653,2000-03,gdp_growth,-0.00037985070885365664,37.52446389307711,-0.014253694209138785,labor_market,Labor market,labor
2000-02,2000Q1,2000-01,OILPRICEx,-0.0021809611022249875,0.02184996833437864,2000-03,gdp_growth,-0.024030929436603624,-0.05150775813294986,0.0012377793011305645,prices_inflation,Prices & inflation,prices
2000-02,2000Q1,2000-01,PAYEMS,0.002974671386445138,0.0020440422229433732,2000-03,gdp_growth,0.0009306291635017646,89.51103447144912,0.08330157913434232,labor_market,Labor market,labor
2000-02,2000Q1,2000-01,PERMIT,7.4798641311650265,7.40391173647241,2000-03,gdp_growth,0.0759523946926165,-0.01563028959777791,-0.0011871579246903257,housing_construction,Housing & construction,housing
2000-02,2000Q1,2000-01,REALLN,-0.012801845769600638,-0.004183416858481677,2000-03,gdp_growth,-0.00861842891111896,7.96648751287765,-0.06865860630105292,financial_conditions,Financial conditions,financial
2000-02,2000Q1,2000-01,RETAILx,0.0033464522959398835,0.005147185220892583,2000-03,gdp_growth,-0.0018007329249526997,4.406494147749773,-0.007934919095464402,demand_orders_inventories,Demand / orders / inventories,demand
2000-02,2000Q1,2000-01,RPI,0.004926409553561939,0.004789416396971443,2000-03,gdp_growth,0.00013699315659049623,29.734248856501935,0.004073388609699553,real_activity_income,Real activity & income,real_activity
2000-02,2000Q1,2000-01,T10YFFM,1.21,0.9341825603538318,2000-03,gdp_growth,0.27581743964616817,0.2518774267293508,0.06947218694515486,financial_conditions,Financial conditions,financial
2000-02,2000Q1,2000-01,TB3MS,0.1200000000000001,0.06248399591349816,2000-03,gdp_growth,0.057516004086501954,0.10704884840690604,0.006157022002426936,financial_conditions,Financial conditions,financial
2000-02,2000Q1,2000-01,TWEXAFEGSMTHx,-0.0009658207543710162,0.0007324604080486335,2000-03,gdp_growth,-0.0016982811624196498,0.2557740800968092,-0.00043437630206362573,financial_conditions,Financial conditions,financial
2000-02,2000Q1,2000-01,UEMPMEAN,0.3999999999999986,0.09915338741141838,2000-03,gdp_growth,0.3008466125885802,0.07926661959146661,0.023847093995440317,labor_market,Labor market,labor
2000-02,2000Q1,2000-01,UNRATE,-0.09999999999999964,-0.04840455993632813,2000-03,gdp_growth,-0.051595440063671505,-0.6358156699938712,0.03280518929271192,labor_market,Labor market,labor
2000-02,2000Q1,2000-01,W875RX1,0.004633166305886505,0.004872296652492685,2000-03,gdp_growth,-0.00023913034660617984,33.04654051900885,-0.007902430688445752,real_activity_income,Real activity & income,real_activity
2000-02,2000Q1,2000-01,WPSFD49207,-0.0007410152247198099,0.0007593523345277902,2000-03,gdp_growth,-0.0015003675592476,-2.0606844872032375,0.0030917841544445134,prices_inflation,Prices & inflation,prices
2000-03,2000Q1,2000-01,BUSINVx,0.005487579643391527,0.005325307452545925,2000-03,gdp_growth,0.00016227219084560175,5.143313516962561,0.0008346167526033119,demand_orders_inventories,Demand / orders / inventories,demand
2000-03,2000Q1,2000-01,CMRMTSPLx,0.008436774885030474,0.006044090066402347,2000-03,gdp_growth,0.002392684818628127,7.456548101716678,0.017841169442347874,demand_orders_inventories,Demand / orders / inventories,demand
2000-03,2000Q1,2000-01,ISRATIOx,-0.010000000000000007,-0.006992688850570437,2000-03,gdp_growth,-0.0030073111494295706,-2.9622469249656316,0.008908398204812604,demand_orders_inventories,Demand / orders / inventories,demand
2000-03,2000Q1,2000-01,NONREVSL,0.006546062811824349,0.003367474923814877,2000-03,gdp_growth,0.003178587888009473,1.9436086868904692,0.006177931031180041,financial_conditions,Financial conditions,financial
2000-03,2000Q1,2000-02,AMDMNOx,-0.027301488912240046,0.024919166792392207,2000-03,gdp_growth,-0.05222065570463225,2.12395384232732,-0.11091426233270577,demand_orders_inventories,Demand / orders / inventories,demand
2000-03,2000Q1,2000-02,AMDMUOx,0.005179234886886874,0.007960006544163938,2000-03,gdp_growth,-0.002780771657277064,1.7261142333145858,-0.0047999295372237296,demand_orders_inventories,Demand / orders / inventories,demand
2000-03,2000Q1,2000-02,ANDENOx,-0.100182329393947,0.013709980112658702,2000-03,gdp_growth,-0.11389230950660569,0.3483633864108684,-0.039675910625875895,demand_orders_inventories,Demand / orders / inventories,demand
2000-03,2000Q1,2000-02,AWHMAN,41.9,41.62566896780568,2000-03,gdp_growth,0.2743310321943155,0.029667693265538034,0.00813876891635939,labor_market,Labor market,labor
2000-03,2000Q1,2000-02,BAA,-0.040000000000000924,0.06862623671407501,2000-03,gdp_growth,-0.10862623671407592,0.060581067823818634,-0.006580693413821611,financial_conditions,Financial conditions,financial
2000-03,2000Q1,2000-02,BAAFFM,2.56,2.842303226093522,2000-03,gdp_growth,-0.28230322609352204,0.01015448735761847,-0.0028666445403815782,financial_conditions,Financial conditions,financial
2000-03,2000Q1,2000-02,BUSLOANS,0.010133453460230868,0.0006408142019098437,2000-03,gdp_growth,0.009492639258321025,1.2880144625479606,0.012226656652468026,financial_conditions,Financial conditions,financial
2000-03,2000Q1,2000-02,CES3000000008,-0.0007219576606898315,-0.0006791907967609206,2000-03,gdp_growth,-4.27668639289109e-05,5.117778113619904,-0.00021887132020354072,labor_market,Labor market,labor
2000-03,2000Q1,2000-02,CLAIMSx,0.007092228309492298,-0.017252377951964864,2000-03,gdp_growth,0.024344606261457163,-2.359577367655987,-0.05744298195903055,labor_market,Labor market,labor
2000-03,2000Q1,2000-02,CLF16OV,0.001808030271847727,0.0004943900923940247,2000-03,gdp_growth,0.0013136401794537024,3.6212922957464446,0.004757075061238669,labor_market,Labor market,labor
2000-03,2000Q1,2000-02,CPIAUCSL,0.003532507403049223,0.0003445878265962753,2000-03,gdp_growth,0.003187919576452948,6.085840153651079,0.01940116896498769,prices_inflation,Prices & inflation,prices
2000-03,2000Q1,2000-02,CPIULFSL,0.0029312971800887766,6.697446345687559e-05,2000-03,gdp_growth,0.002864322716631901,3.483655290403953,0.009978312985218944,prices_inflation,Prices & inflation,prices
2000-03,2000Q1,2000-02,CUMFNS,0.0,0.24462611151468122,2000-03,gdp_growth,-0.24462611151468122,-0.0830144327440634,0.020307497881777256,real_activity_income,Real activity & income,real_activity
2000-03,2000Q1,2000-02,CUSR0000SAC,0.007469858066122548,0.001718223644607417,2000-03,gdp_growth,0.00575163442151513,-2.680584555083193,-0.015417742396798313,prices_inflation,Prices & inflation,prices
2000-03,2000Q1,2000-02,CUSR0000SAS,0.0005136167088997112,-0.0004076306113850734,2000-03,gdp_growth,0.0009212473202847845,5.9465044112726035,0.005478201253946536,prices_inflation,Prices & inflation,prices
2000-03,2000Q1,2000-02,FEDFUNDS,0.28000000000000025,0.0982259971294687,2000-03,gdp_growth,0.18177400287053155,0.06071574240297641,0.011036543533845089,financial_conditions,Financial conditions,financial
2000-03,2000Q1,2000-02,GS10,-0.14000000000000057,0.15588522944887723,2000-03,gdp_growth,-0.2958852294488778,0.060342856587111575,-0.017854559966878236,financial_conditions,Financial conditions,financial
2000-03,2000Q1,2000-02,HOUST,7.484930283289661,7.43996635534344,2000-03,gdp_growth,0.044963927946221026,0.5024827918172805,0.02259360004548818,housing_construction,Housing & construction,housing
2000-03,2000Q1,2000-02,HOUSTMW,6.118097198041348,5.893517600475815,2000-03,gdp_growth,0.22457959756553353,0.06364921797950152,0.014294315759197372,housing_construction,Housing & construction,housing
2000-03,2000Q1,2000-02,HOUSTNE,5.236441962829949,5.074940286212263,2000-03,gdp_growth,0.1615016766176871,0.009591790402774632,0.0015490902318135436,housing_construction,Housing & construction,housing
2000-03,2000Q1,2000-02,HOUSTS,6.608000625296087,6.680574334568143,2000-03,gdp_growth,-0.07257370927205638,-0.06481710569816984,0.004704017784795127,housing_construction,Housing & construction,housing
2000-03,2000Q1,2000-02,HOUSTW,5.986452005284438,5.976547776564299,2000-03,gdp_growth,0.00990422872013888,-0.06047850335606857,-0.00059899292989019,housing_construction,Housing & construction,housing
2000-03,2000Q1,2000-02,INDPRO,0.002812326744083826,0.005422867847595548,2000-03,gdp_growth,-0.002610541103511722,0.6366827909491352,-0.0016620865956712783,real_activity_income,Real activity & income,real_activity
2000-03,2000Q1,2000-02,IPCONGD,-0.0003680499251075271,0.004719123381836274,2000-03,gdp_growth,-0.005087173306943801,-6.943687724509469,0.03532374284387791,real_activity_income,Real activity & income,real_activity
2000-03,2000Q1,2000-02,IPFINAL,4.541979243910532e-05,0.006014830704981537,2000-03,gdp_growth,-0.005969410912542433,-3.990353076715415,0.023820057201042272,real_activity_income,Real activity & income,real_activity
2000-03,2000Q1,2000-02,IPMANSICS,0.003130700716344137,0.006384672826454273,2000-03,gdp_growth,-0.003253972110110136,56.80535357683196,-0.18484303624395626,real_activity_income,Real activity & income,real_activity
2000-03,2000Q1,2000-02,MANEMP,0.00027196823578812257,0.0015083717577378632,2000-03,gdp_growth,-0.0012364035219497407,22.73758886322035,-0.02811283495113084,labor_market,Labor market,labor
2000-03,2000Q1,2000-02,OILPRICEx,0.03549846588656269,0.000964586646839735,2000-03,gdp_growth,0.03453387923972295,-0.04029892169217332,-0.0013916780952085651,prices_inflation,Prices & inflation,prices
2000-03,2000Q1,2000-02,PAYEMS,0.000329998813464627,0.0022591319167241486,2000-03,gdp_growth,-0.0019291331032595216,57.11106699012734,-0.11017484989312679,labor_market,Labor market,labor
2000-03,2000Q1,2000-02,PERMIT,7.410347097821024,7.404676171482477,2000-03,gdp_growth,0.005670926338546279,-0.011265885647106504,-6.388800764322676e-05,housing_construction,Housing & construction,housing
2000-03,2000Q1,2000-02,REALLN,-0.0013952851636522823,0.004873882812915068,2000-03,gdp_growth,-0.00626916797656735,6.309418958140926,-0.03955480728312403,financial_conditions,Financial conditions,financial
2000-03,2000Q1,2000-02,RETAILx,0.010834317565532103,0.008149990034673734,2000-03,gdp_growth,0.00268432753085837,2.9136483884259645,0.007821186584292938,demand_orders_inventories,Demand / orders / inventories,demand
2000-03,2000Q1,2000-02,T10YFFM,0.79,1.1531823287167735,2000-03,gdp_growth,-0.3631823287167736,0.06662988721886855,-0.024198797602284668,financial_conditions,Financial conditions,financial
2000-03,2000Q1,2000-02,TB3MS,0.22999999999999954,0.07522908898737099,2000-03,gdp_growth,0.15477091101262855,0.05794471892460609,0.008968156936331982,financial_conditions,Financial conditions,financial
2000-03,2000Q1,2000-02,TWEXAFEGSMTHx,0.02303099939530373,-0.0008092658560934498,2000-03,gdp_growth,0.02384026525139718,0.10749989642580565,0.0025628260452889304,financial_conditions,Financial conditions,financial
2000-03,2000Q1,2000-02,UEMPMEAN,-0.6999999999999993,-0.09045953598971643,2000-03,gdp_growth,-0.6095404640102828,0.07188501071151582,-0.043816822784481506,labor_market,Labor market,labor
2000-03,2000Q1,2000-02,UNRATE,0.09999999999999964,-0.03552909600594022,2000-03,gdp_growth,0.13552909600593985,-0.4707099372152395,-0.06379489227179412,labor_market,Labor market,labor
2000-03,2000Q1,2000-02,W875RX1,-0.0003472353309099674,0.0032756934765042723,2000-03,gdp_growth,-0.0036229288074142397,25.579719926379052,-0.09267350420686672,real_activity_income,Real activity & income,real_activity
2000-03,2000Q1,2000-02,WPSFD49207,0.010316966970932206,0.00021436752427390129,2000-03,gdp_growth,0.010102599446658306,-1.6400451373233171,-0.01656871909681719,prices_inflation,Prices & inflation,prices
2000-04,2000Q2,2000-02,BUSINVx,0.005417342635423594,0.00471078025747197,2000-06,gdp_growth,0.000706562377951624,4.455969735824964,0.0031484205726249564,demand_orders_inventories,Demand / orders / inventories,demand
2000-04,2000Q2,2000-02,CMRMTSPLx,-0.0038228725178548473,0.0029893891600969074,2000-06,gdp_growth,-0.006812261677951755,4.293672010823056,-0.029249617297023956,demand_orders_inventories,Demand / orders / inventories,demand
2000-04,2000Q2,2000-02,ISRATIOx,0.0,-0.0034845512507605363,2000-06,gdp_growth,0.0034845512507605367,-1.5675631459235306,-0.00546225412077396,demand_orders_inventories,Demand / orders / inventories,demand
2000-04,2000Q2,2000-02,NONREVSL,-0.0035648296696102477,-0.00449018626710392,2000-06,gdp_growth,0.0009253565974936718,1.1634396721011373,0.0010765965763646617,financial_conditions,Financial conditions,financial
2000-04,2000Q2,2000-02,RPI,-0.00021025519802009285,0.002689595214761768,2000-06,gdp_growth,-0.0028998504127818606,11.88503172408878,-0.034464814151024356,real_activity_income,Real activity & income,real_activity
2000-04,2000Q2,2000-03,AMDMNOx,0.025655825409881317,0.015015366121239914,2000-06,gdp_growth,0.010640459288641402,3.0917889909010476,0.03289805488675228,demand_orders_inventories,Demand / orders / inventories,demand
2000-04,2000Q2,2000-03,AMDMUOx,0.01063910992719741,0.006318438910853032,2000-06,gdp_growth,0.004320671016344378,6.915273692189946,0.029878622611933876,demand_orders_inventories,Demand / orders / inventories,demand
2000-04,2000Q2,2000-03,ANDENOx,0.01998325132366041,0.0520014173139642,2000-06,gdp_growth,-0.03201816599030379,0.47715891655219783,-0.015277753393921786,demand_orders_inventories,Demand / orders / inventories,demand
2000-04,2000Q2,2000-03,AWHMAN,41.6,41.73982304068185,2000-06,gdp_growth,-0.13982304068184884,0.22515787649791874,-0.03148225892540719,labor_market,Labor market,labor
2000-04,2000Q2,2000-03,BAA,0.08000000000000007,-0.008245325315767715,2000-06,gdp_growth,0.08824532531576779,0.1751025587843334,0.015451982263546852,financial_conditions,Financial conditions,financial
2000-04,2000Q2,2000-03,BAAFFM,2.52,2.570240613317825,2000-06,gdp_growth,-0.050240613317825235,-0.10653346641945842,0.00535230669178753,financial_conditions,Financial conditions,financial
2000-04,2000Q2,2000-03,BUSLOANS,-0.0009684618874450379,-0.0007334417319904599,2000-06,gdp_growth,-0.00023502015545457807,1.998622197006809,-0.0004697164994355106,financial_conditions,Financial conditions,financial
2000-04,2000Q2,2000-03,CES3000000008,-0.0021223541449417738,2.698177800860903e-05,2000-06,gdp_growth,-0.0021493359229503824,6.644556990248985,-0.014281385031233216,labor_market,Labor market,labor
2000-04,2000Q2,2000-03,CLAIMSx,-0.06571707165701568,-0.003447223885280358,2000-06,gdp_growth,-0.06226984777173533,-3.2775850279655017,0.20409472075033067,labor_market,Labor market,labor
2000-04,2000Q2,2000-03,CLF16OV,-0.002113236163980403,0.0013740235184084575,2000-06,gdp_growth,-0.00348725968238886,5.908107111550238,-0.020603103729344048,labor_market,Labor market,labor
2000-04,2000Q2,2000-03,CPIAUCSL,0.0017258455116522244,-0.0013099878733410033,2000-06,gdp_growth,0.0030358333849932278,8.370787825552323,0.02541231713950661,prices_inflation,Prices & inflation,prices
2000-04,2000Q2,2000-03,CPIULFSL,0.002885042299463514,-0.0010927555741527884,2000-06,gdp_growth,0.0039777978736163025,4.776294134807246,0.018999132653202282,prices_inflation,Prices & inflation,prices
2000-04,2000Q2,2000-03,CUMFNS,0.0,0.0076184482372835104,2000-06,gdp_growth,-0.0076184482372835104,-0.16410808552910708,0.0012502489549231974,real_activity_income,Real activity & income,real_activity
2000-04,2000Q2,2000-03,CUSR0000SAC,0.001945476969491544,-0.0031433086684010637,2000-06,gdp_growth,0.005088785637892608,-3.536295535263381,-0.017995449931192047,prices_inflation,Prices & inflation,prices
2000-04,2000Q2,2000-03,CUSR0000SAS,0.001545061898844402,5.778967906955829e-05,2000-06,gdp_growth,0.0014872722197748437,7.962088877782178,0.011841793599303695,prices_inflation,Prices & inflation,prices
2000-04,2000Q2,2000-03,FEDFUNDS,0.1199999999999992,0.13979468055536276,2000-06,gdp_growth,-0.019794680555363545,0.14661103847557092,-0.00290211867251404,financial_conditions,Financial conditions,financial
2000-04,2000Q2,2000-03,GS10,-0.2599999999999998,-0.039401285078829854,2000-06,gdp_growth,-0.22059871492116995,0.1463036207552699,-0.03227439072692675,financial_conditions,Financial conditions,financial
2000-04,2000Q2,2000-03,HOUST,7.38025578842646,7.475463207446636,2000-06,gdp_growth,-0.09520741902017578,2.4147290766404756,-0.22990012301991192,housing_construction,Housing & construction,housing
2000-04,2000Q2,2000-03,HOUSTMW,5.768320995793772,6.091941563201945,2000-06,gdp_growth,-0.3236205674081726,0.26243830186528994,-0.0849304321592824,housing_construction,Housing & construction,housing
2000-04,2000Q2,2000-03,HOUSTNE,5.0689042022202315,5.274204943244678,2000-06,gdp_growth,-0.20530074102444634,0.03831137715963068,-0.007865354120539226,housing_construction,Housing & construction,housing
2000-04,2000Q2,2000-03,HOUSTS,6.61472560020376,6.6030769946089425,2000-06,gdp_growth,0.011648605594818262,-0.2698078006511552,-0.0031428846561906572,housing_construction,Housing & construction,housing
2000-04,2000Q2,2000-03,HOUSTW,5.937536205082426,6.00125534106596,2000-06,gdp_growth,-0.06371913598353389,-0.20900570862441867,0.013317663169174194,housing_construction,Housing & construction,housing
2000-04,2000Q2,2000-03,INDPRO,0.0027499276964668695,0.0032135593875017732,2000-06,gdp_growth,-0.000463631691034904,1.525950850273345,-0.0007074791731483805,real_activity_income,Real activity & income,real_activity
2000-04,2000Q2,2000-03,IPCONGD,-0.0022165883704037266,0.0025837458122176756,2000-06,gdp_growth,-0.004800334182621402,-11.411037477433585,0.05477679326209833,real_activity_income,Real activity & income,real_activity
2000-04,2000Q2,2000-03,IPFINAL,0.0016350757594203458,0.002901717437404536,2000-06,gdp_growth,-0.00126664167798419,-6.817654048585453,0.008635524764015984,real_activity_income,Real activity & income,real_activity
2000-04,2000Q2,2000-03,IPMANSICS,0.0042908322277561695,0.0034569715239821234,2000-06,gdp_growth,0.0008338607037740462,89.23377074203555,0.07440853487136564,real_activity_income,Real activity & income,real_activity
2000-04,2000Q2,2000-03,MANEMP,-0.0002723089089080588,8.702498295505429e-05,2000-06,gdp_growth,-0.0003593338918631132,46.64166814055681,-0.01675993213593405,labor_market,Labor market,labor
2000-04,2000Q2,2000-03,OILPRICEx,-0.05857970752936703,-0.012842772284006498,2000-06,gdp_growth,-0.04573693524536053,-0.055869997481281825,0.002555322456959843,prices_inflation,Prices & inflation,prices
2000-04,2000Q2,2000-03,PAYEMS,0.003187571181886284,0.0023375787590547313,2000-06,gdp_growth,0.0008499924228315527,108.54085882113971,0.09225890756559804,labor_market,Labor market,labor
2000-04,2000Q2,2000-03,PERMIT,7.382746449738912,7.4416765041481305,2000-06,gdp_growth,-0.05893005440921876,-0.03719641806838265,0.0021919869405978374,housing_construction,Housing & construction,housing
2000-04,2000Q2,2000-03,REALLN,-0.001641669121903,0.0002854323359907486,2000-06,gdp_growth,-0.0019271014578937484,8.810904157204376,-0.016979506246710643,financial_conditions,Financial conditions,financial
2000-04,2000Q2,2000-03,RETAILx,0.0020270073552808294,0.004053905758339864,2000-06,gdp_growth,-0.0020268984030590346,5.249003608121334,-0.010639197030952242,demand_orders_inventories,Demand / orders / inventories,demand
2000-04,2000Q2,2000-03,T10YFFM,0.41,0.7967338239653817,2000-06,gdp_growth,-0.38673382396538175,0.38024681003443395,-0.14705430289525473,financial_conditions,Financial conditions,financial
2000-04,2000Q2,2000-03,TB3MS,0.14000000000000057,0.11131407589915945,2000-06,gdp_growth,0.02868592410084112,0.13797800830232132,0.003958026673745616,financial_conditions,Financial conditions,financial
2000-04,2000Q2,2000-03,TWEXAFEGSMTHx,0.003456405640589466,0.007806204374406536,2000-06,gdp_growth,-0.00434979873381707,0.3524237508823208,-0.0015329723853549815,financial_conditions,Financial conditions,financial
2000-04,2000Q2,2000-03,UEMPMEAN,0.3000000000000007,0.2124537513972062,2000-06,gdp_growth,0.08754624860279449,0.07774931899241587,0.006806661209208011,labor_market,Labor market,labor
2000-04,2000Q2,2000-03,UNRATE,0.0,-0.03187272770283242,2000-06,gdp_growth,0.031872727702832414,-0.7164198741118307,-0.022834255568463857,labor_market,Labor market,labor
2000-04,2000Q2,2000-03,W875RX1,0.0032243997259069346,0.003570900653766738,2000-06,gdp_growth,-0.0003465009278598036,36.37958159981788,-0.012605558779488334,real_activity_income,Real activity & income,real_activity
2000-04,2000Q2,2000-03,WPSFD49207,-0.0008313066456846485,-0.004268547166454633,2000-06,gdp_growth,0.0034372405207699843,-2.2335014692175434,-0.007677081753193834,prices_inflation,Prices & inflation,prices
2000-05,2000Q2,2000-03,BUSINVx,0.0032893495195445155,0.005323927892900277,2000-06,gdp_growth,-0.0020345783733557617,5.058230593425734,-0.010291366572830479,demand_orders_inventories,Demand / orders / inventories,demand
2000-05,2000Q2,2000-03,CMRMTSPLx,0.005730407775349278,0.004512094934842548,2000-06,gdp_growth,0.0012183128405067294,6.0627160675345,0.007386284833423745,demand_orders_inventories,Demand / orders / inventories,demand
2000-05,2000Q2,2000-03,ISRATIOx,-0.010000000000000009,-6.971076519708761e-05,2000-06,gdp_growth,-0.00993028923480292,-2.358933494857986,0.02342489188960429,demand_orders_inventories,Demand / orders / inventories,demand
2000-05,2000Q2,2000-03,NONREVSL,-0.005691422154327164,0.002232476504440669,2000-06,gdp_growth,-0.007923898658767832,1.6296540909582518,-0.012913213865599602,financial_conditions,Financial conditions,financial
2000-05,2000Q2,2000-03,RPI,0.002073709268954005,0.003375881524963896,2000-06,gdp_growth,-0.0013021722560098913,25.670489013255448,-0.033427398591267976,real_activity_income,Real activity & income,real_activity
2000-05,2000Q2,2000-03,gdp_growth,5.2502155318310395,4.514748962889646,2000-06,gdp_growth,0.735466568941393,-0.07573747052865856,-0.05570237759001238,,,
2000-05,2000Q2,2000-04,AMDMNOx,-0.06649474767589503,-0.00713579377347435,2000-06,gdp_growth,-0.05935895390242068,2.8353914200456147,-0.16830586859780675,demand_orders_inventories,Demand / orders / inventories,demand
2000-05,2000Q2,2000-04,AMDMUOx,-0.008425311954015413,0.010865104136260068,2000-06,gdp_growth,-0.01929041609027548,4.871359557605139,-0.09397055279154341,demand_orders_inventories,Demand / orders / inventories,demand
2000-05,2000Q2,2000-04,ANDENOx,0.00473833169646376,-0.01099141148865001,2000-06,gdp_growth,0.01572974318511377,0.44660282155904263,0.007024947688870932,demand_orders_inventories,Demand / orders / inventories,demand
2000-05,2000Q2,2000-04,AWHMAN,42.1,41.64138300743338,2000-06,gdp_growth,0.458616992566621,0.14807523310389284,0.0679098180797087,labor_market,Labor market,labor
2000-05,2000Q2,2000-04,BAA,0.030000000000001137,0.05591353812116058,2000-06,gdp_growth,-0.02591353812115944,0.13230235519580313,-0.0034284221248856214,financial_conditions,Financial conditions,financial
2000-05,2000Q2,2000-04,BAAFFM,2.38,2.5349124810951484,2000-06,gdp_growth,-0.15491248109514838,-0.05705181290489835,0.008838037888074008,financial_conditions,Financial conditions,financial
2000-05,2000Q2,2000-04,BUSLOANS,-0.00026873113024539213,5.830159542410028e-05,2000-06,gdp_growth,-0.0003270327256694924,1.8152307135152839,-0.0005936398479598808,financial_conditions,Financial conditions,financial
2000-05,2000Q2,2000-04,CES3000000008,0.004906630624681441,0.00198812886376809,2000-06,gdp_growth,0.0029185017609133497,6.352169812246931,0.01853881878266329,labor_market,Labor market,labor
2000-05,2000Q2,2000-04,CLAIMSx,0.047891287704414864,0.003721580868418439,2000-06,gdp_growth,0.04416970683599642,-3.0532133135928645,-0.13485953696915803,labor_market,Labor market,labor
2000-05,2000Q2,2000-04,CLF16OV,0.0025735842660914443,0.0024926417715175463,2000-06,gdp_growth,8.094249457389774e-05,5.199820804544816,0.0004208864672571094,labor_market,Labor market,labor
2000-05,2000Q2,2000-04,CPIAUCSL,-0.0070340266573794,-0.0006246463846099867,2000-06,gdp_growth,-0.006409380272769413,7.825630045757251,-0.05015743883726812,prices_inflation,Prices & inflation,prices
2000-05,2000Q2,2000-04,CPIULFSL,-0.008177615665232452,-0.0012541481107795447,2000-06,gdp_growth,-0.006923467554452907,4.463788750970124,-0.030904896587273523,prices_inflation,Prices & inflation,prices
2000-05,2000Q2,2000-04,CUMFNS,0.40000000000000574,-0.010067252811185194,2000-06,gdp_growth,0.4100672528111909,-0.06627892641669626,-0.027178817274969704,real_activity_income,Real activity & income,real_activity
2000-05,2000Q2,2000-04,CUSR0000SAC,-0.012780460886223644,-0.000639507896690478,2000-06,gdp_growth,-0.012140952989533165,-3.3838321300971472,0.04108294681598134,prices_inflation,Prices & inflation,prices
2000-05,2000Q2,2000-04,CUSR0000SAS,-0.0026023698629087377,-0.000639532046735193,2000-06,gdp_growth,-0.001962837816173545,7.525883105386285,-0.01477208795935379,prices_inflation,Prices & inflation,prices
2000-05,2000Q2,2000-04,FEDFUNDS,0.16999999999999993,0.101858134310914,2000-06,gdp_growth,0.06814186568908591,0.11566648737535457,0.007881730247459761,financial_conditions,Financial conditions,financial
2000-05,2000Q2,2000-04,GS10,-0.2699999999999996,-0.07077343137409707,2000-06,gdp_growth,-0.19922656862590252,0.11509790249762485,-0.022930560170640494,financial_conditions,Financial conditions,financial
2000-05,2000Q2,2000-04,HOUST,7.416378479192928,7.371970986344326,2000-06,gdp_growth,0.04440749284860161,1.6621580373971134,0.07381227115895801,housing_construction,Housing & construction,housing
2000-05,2000Q2,2000-04,HOUSTMW,5.918893854273146,5.792056546329807,2000-06,gdp_growth,0.1268373079433397,0.18417019952696284,0.023359652311387702,housing_construction,Housing & construction,housing
2000-05,2000Q2,2000-04,HOUSTNE,4.955827057601261,5.0941138039637694,2000-06,gdp_growth,-0.138286746362509,0.027107716901203317,-0.003748637971583402,housing_construction,Housing & construction,housing
2000-05,2000Q2,2000-04,HOUSTS,6.570882962339584,6.605849545118482,2000-06,gdp_growth,-0.03496658277889788,-0.18978769454812866,0.006636227131833327,housing_construction,Housing & construction,housing
2000-05,2000Q2,2000-04,HOUSTW,6.075346031088684,5.921889892734866,2000-06,gdp_growth,0.15345613835381822,-0.1525587294726782,-0.02341107349704203,housing_construction,Housing & construction,housing
2000-05,2000Q2,2000-04,INDPRO,0.008913306893518325,0.00309750765552213,2000-06,gdp_growth,0.005815799237996196,1.5614406609350313,0.00908102540604223,real_activity_income,Real activity & income,real_activity
2000-05,2000Q2,2000-04,IPCONGD,0.006055490654680362,0.0020590891798718826,2000-06,gdp_growth,0.00399640147480848,-9.966855038758052,-0.039831554176095005,real_activity_income,Real activity & income,real_activity
2000-05,2000Q2,2000-04,IPFINAL,0.0077942013595251325,0.002557690318776994,2000-06,gdp_growth,0.005236511040748139,-5.8726236530612645,-0.03075205859741398,real_activity_income,Real activity & income,real_activity
2000-05,2000Q2,2000-04,IPMANSICS,0.007939161680493356,0.0031145744749302325,2000-06,gdp_growth,0.004824587205563125,82.76104435497263,0.3992878757140432,real_activity_income,Real activity & income,real_activity
2000-05,2000Q2,2000-04,MANEMP,0.0005989165234971949,0.00034347823821554254,2000-06,gdp_growth,0.0002554382852816524,38.392922716433176,0.00980702234563669,labor_market,Labor market,labor
2000-05,2000Q2,2000-04,OILPRICEx,-0.16770920414960688,0.02338719018480884,2000-06,gdp_growth,-0.19109639433441572,-0.05211874171278622,0.009959703618560157,prices_inflation,Prices & inflation,prices
2000-05,2000Q2,2000-04,PAYEMS,0.002596471786400656,0.0012214947010342416,2000-06,gdp_growth,0.0013749770853664146,91.07654677602983,0.1252281648313434,labor_market,Labor market,labor
2000-05,2000Q2,2000-04,PERMIT,7.351799869057777,7.34075103155442,2000-06,gdp_growth,0.011048837503356394,-0.028763823743174603,-0.0003178068145135206,housing_construction,Housing & construction,housing
2000-05,2000Q2,2000-04,REALLN,0.002020019894584557,0.0002249899285559714,2000-06,gdp_growth,0.0017950299660285855,8.098318200151118,0.014536723843705936,financial_conditions,Financial conditions,financial
2000-05,2000Q2,2000-04,RETAILx,-0.0018076279345979884,0.006160351018098399,2000-06,gdp_growth,-0.007967978952696388,4.506808546132334,-0.035910155639414645,demand_orders_inventories,Demand / orders / inventories,demand
2000-05,2000Q2,2000-04,RPI,0.00662535337800918,0.003006499305133351,2000-06,gdp_growth,0.003618854072875829,30.286856459810057,0.10960371385418924,real_activity_income,Real activity & income,real_activity
2000-05,2000Q2,2000-04,T10YFFM,-0.030000000000000027,0.42434496046411474,2000-06,gdp_growth,-0.4543449604641148,0.25518347365741395,-0.11594132524997323,financial_conditions,Financial conditions,financial
2000-05,2000Q2,2000-04,TB3MS,-0.03000000000000025,0.1026740796480977,2000-06,gdp_growth,-0.13267407964809796,0.10926074481729552,-0.014496068760300372,financial_conditions,Financial conditions,financial
2000-05,2000Q2,2000-04,TWEXAFEGSMTHx,0.006981012982648416,0.0013560241654410003,2000-06,gdp_growth,0.0056249888172074155,0.2595106642338224,0.0014597445842613195,financial_conditions,Financial conditions,financial
2000-05,2000Q2,2000-04,UEMPMEAN,-0.40000000000000036,-0.06094927656039349,2000-06,gdp_growth,-0.3390507234396069,0.08015410541614534,-0.02717630742799859,labor_market,Labor market,labor
2000-05,2000Q2,2000-04,UNRATE,-0.19999999999999973,-0.016930054073805618,2000-06,gdp_growth,-0.1830699459261941,-0.6478577060606258,0.11860327521638692,labor_market,Labor market,labor
2000-05,2000Q2,2000-04,W875RX1,0.007139887534130196,0.0025093831162997437,2000-06,gdp_growth,0.004630504417830452,33.773237949291236,0.15638712752863215,real_activity_income,Real activity & income,real_activity
2000-05,2000Q2,2000-04,WPSFD49207,-0.01239475328593187,0.0005707186299714553,2000-06,gdp_growth,-0.012965471915903323,-2.102870580515278,0.027264709454450153,prices_inflation,Prices & inflation,prices
2000-06,2000Q2,2000-04,BUSINVx,0.004399486690799037,0.005172195297577806,2000-06,gdp_growth,-0.0007727086067787694,4.965925107430699,-0.0038372130711304864,demand_orders_inventories,Demand / orders / inventories,demand
2000-06,2000Q2,2000-04,CMRMTSPLx,-0.004341193759698214,0.0025424411009202065,2000-06,gdp_growth,-0.006883634860618421,7.145757964214078,-0.04918878862800574,demand_orders_inventories,Demand / orders / inventories,demand
2000-06,2000Q2,2000-04,ISRATIOx,0.010000000000000009,0.0013594924212289754,2000-06,gdp_growth,0.008640507578771033,-2.9642812379655274,-0.02561289450224992,demand_orders_inventories,Demand / orders / inventories,demand
2000-06,2000Q2,2000-04,NONREVSL,-0.0003876613753170943,0.0007688216773209199,2000-06,gdp_growth,-0.0011564830526380142,1.909399633972739,-0.0022081883174027003,financial_conditions,Financial conditions,financial
2000-06,2000Q2,2000-05,AMDMNOx,0.05785198574679917,0.034293238648410634,2000-06,gdp_growth,0.023558747098388535,1.9944994561093488,0.04698790827435363,demand_orders_inventories,Demand / orders / inventories,demand
2000-06,2000Q2,2000-05,AMDMUOx,0.009517020880245752,-0.001587000665767546,2000-06,gdp_growth,0.0111040215460133,1.4701452674759512,0.016324524725822447,demand_orders_inventories,Demand / orders / inventories,demand
2000-06,2000Q2,2000-05,ANDENOx,-0.016290368276925093,0.004467497773707222,2000-06,gdp_growth,-0.020757866050632318,0.3308474608145321,-0.006867687274779882,demand_orders_inventories,Demand / orders / inventories,demand
2000-06,2000Q2,2000-05,AWHMAN,41.4,42.08709239918858,2000-06,gdp_growth,-0.68709239918858,0.02146068239584425,-0.01474547175558475,labor_market,Labor market,labor
2000-06,2000Q2,2000-05,BAA,0.5,0.04288573677490341,2000-06,gdp_growth,0.4571142632250966,0.05394884437305184,0.02466078624743299,financial_conditions,Financial conditions,financial
2000-06,2000Q2,2000-05,BAAFFM,2.63,2.407409849535529,2000-06,gdp_growth,0.22259015046447075,0.014790835849148021,0.003292294377157146,financial_conditions,Financial conditions,financial
2000-06,2000Q2,2000-05,BUSLOANS,0.011320062794101915,0.0003102821280061548,2000-06,gdp_growth,0.01100978066609576,1.2290285827398069,0.0135313351283278,financial_conditions,Financial conditions,financial
2000-06,2000Q2,2000-05,CES3000000008,-0.004907614870353072,-0.0013884740020620207,2000-06,gdp_growth,-0.0035191408682910515,4.876734413932384,-0.017161915379870864,labor_market,Labor market,labor
2000-06,2000Q2,2000-05,CLAIMSx,0.045702153480855934,-0.006189839757242156,2000-06,gdp_growth,0.05189199323809809,-2.2463170712810974,-0.11656587027354301,labor_market,Labor market,labor
2000-06,2000Q2,2000-05,CLF16OV,-0.005260573187081619,0.0013493123552250103,2000-06,gdp_growth,-0.006609885542306629,3.399564658125718,-0.02247073328388176,labor_market,Labor market,labor
2000-06,2000Q2,2000-05,CPIAUCSL,0.0005839416224331373,0.002721170669623519,2000-06,gdp_growth,-0.002137229047190382,5.814171892333087,-0.012426217053652143,prices_inflation,Prices & inflation,prices
2000-06,2000Q2,2000-05,CPIULFSL,0.0,0.0035026485031041917,2000-06,gdp_growth,-0.0035026485031041917,3.3149796831932563,-0.011611208625157667,prices_inflation,Prices & inflation,prices
2000-06,2000Q2,2000-05,CUMFNS,-0.09999999999999433,0.08687937807222293,2000-06,gdp_growth,-0.18687937807221724,-0.02860360936485233,0.0053454247287242525,real_activity_income,Real activity & income,real_activity
2000-06,2000Q2,2000-05,CUSR0000SAC,0.0013386786313267507,0.0052560840965344266,2000-06,gdp_growth,-0.003917405465207675,-2.630607628697969,0.010305156701478427,prices_inflation,Prices & inflation,prices
2000-06,2000Q2,2000-05,CUSR0000SAS,0.0005113235581237774,0.0008656017663598437,2000-06,gdp_growth,-0.0003542782082360663,5.658527574865155,-0.0020046930104776002,prices_inflation,Prices & inflation,prices
2000-06,2000Q2,2000-05,FEDFUNDS,0.25,0.156065107079343,2000-06,gdp_growth,0.09393489292065699,0.055483120342115055,0.005211800968240503,financial_conditions,Financial conditions,financial
2000-06,2000Q2,2000-05,GS10,0.4500000000000002,-0.05797073775865873,2000-06,gdp_growth,0.5079707377586589,0.054694049878337626,0.02778297686770805,financial_conditions,Financial conditions,financial
2000-06,2000Q2,2000-05,HOUST,7.3727463664043285,7.391720935259639,2000-06,gdp_growth,-0.01897456885531036,0.4139366058701582,-0.007854268629816783,housing_construction,Housing & construction,housing
2000-06,2000Q2,2000-05,HOUSTMW,5.82600010738045,5.888902701234232,2000-06,gdp_growth,-0.06290259385378233,0.053664697225523944,-0.003375648653863332,housing_construction,Housing & construction,housing
2000-06,2000Q2,2000-05,HOUSTNE,5.017279836814924,5.008818920043343,2000-06,gdp_growth,0.008460916771581499,0.008069080611717674,6.827181947892517e-05,housing_construction,Housing & construction,housing
2000-06,2000Q2,2000-05,HOUSTS,6.590301048196686,6.5487491388229575,2000-06,gdp_growth,0.041551909373728206,-0.0549579611342979,-0.0022836082204172234,housing_construction,Housing & construction,housing
2000-06,2000Q2,2000-05,HOUSTW,5.924255797414532,6.041662259071411,2000-06,gdp_growth,-0.11740646165687892,-0.053239494504596994,0.006250660670185583,housing_construction,Housing & construction,housing
2000-06,2000Q2,2000-05,INDPRO,0.0037737860788880084,0.0037787391974239055,2000-06,gdp_growth,-4.953118535897181e-06,0.8657596680397486,-4.288210259399869e-06,real_activity_income,Real activity & income,real_activity
2000-06,2000Q2,2000-05,IPCONGD,-0.0008480589615338379,0.0031040712546230326,2000-06,gdp_growth,-0.003952130216156871,-6.470928153826368,0.025573950683317387,real_activity_income,Real activity & income,real_activity
2000-06,2000Q2,2000-05,IPFINAL,0.002977431485653881,0.0037984426053608265,2000-06,gdp_growth,-0.0008210111197069457,-3.7051619951987074,0.0030419791983737118,real_activity_income,Real activity & income,real_activity
2000-06,2000Q2,2000-05,IPMANSICS,0.003076884342082309,0.004521324036006542,2000-06,gdp_growth,-0.0014444396939242332,55.811841038554405,-0.08061683858707748,real_activity_income,Real activity & income,real_activity
2000-06,2000Q2,2000-05,MANEMP,-0.0009200379488110144,0.002326321588270134,2000-06,gdp_growth,-0.003246359537081149,21.029649556985454,-0.06826980340079408,labor_market,Labor market,labor
2000-06,2000Q2,2000-05,OILPRICEx,0.26111227341910714,0.06345221186238911,2000-06,gdp_growth,0.197660061556718,-0.038428033048045915,-0.007595687377780349,prices_inflation,Prices & inflation,prices
2000-06,2000Q2,2000-05,PAYEMS,0.0017561402887178446,0.0026092418303646442,2000-06,gdp_growth,-0.0008531015416468,53.04065442745232,-0.04524906406201474,labor_market,Labor market,labor
2000-06,2000Q2,2000-05,PERMIT,7.32052696227274,7.359957967635173,2000-06,gdp_growth,-0.03943100536243325,-0.01183686727939091,0.0004667395771680737,housing_construction,Housing & construction,housing
2000-06,2000Q2,2000-05,REALLN,0.00033337888653495185,-0.0006020441443894861,2000-06,gdp_growth,0.0009354230309244379,5.852653805333591,0.005474707161536593,financial_conditions,Financial conditions,financial
2000-06,2000Q2,2000-05,RETAILx,-0.0031119636663508024,0.008563381885433608,2000-06,gdp_growth,-0.011675345551784412,2.754107515198655,-0.032155156926710636,demand_orders_inventories,Demand / orders / inventories,demand
2000-06,2000Q2,2000-05,RPI,0.003628163176822241,0.002709013102715371,2000-06,gdp_growth,0.0009191500741068699,21.645656022669993,0.01989560633732894,real_activity_income,Real activity & income,real_activity
2000-06,2000Q2,2000-05,T10YFFM,0.17000000000000004,8.127408179103845e-05,2000-06,gdp_growth,0.16991872591820906,0.05165366173247951,0.00877692439059307,financial_conditions,Financial conditions,financial
2000-06,2000Q2,2000-05,TB3MS,0.1299999999999999,0.06638434204224894,2000-06,gdp_growth,0.06361565795775095,0.05300526793573106,0.003371964994958411,financial_conditions,Financial conditions,financial
2000-06,2000Q2,2000-05,TWEXAFEGSMTHx,0.03067411534249498,0.002875406111587404,2000-06,gdp_growth,0.027798709230907572,0.09291466940921472,0.002582907878192663,financial_conditions,Financial conditions,financial
2000-06,2000Q2,2000-05,UEMPMEAN,0.1999999999999993,0.008234519796541549,2000-06,gdp_growth,0.19176548020345774,0.06923111885705648,0.013276138752646093,labor_market,Labor market,labor
2000-06,2000Q2,2000-05,UNRATE,0.19999999999999973,0.013133244925643935,2000-06,gdp_growth,0.1868667550743558,-0.44507118789314,-0.08316900865867997,labor_market,Labor market,labor
2000-06,2000Q2,2000-05,W875RX1,0.0010756062525807408,0.0018872191585418284,2000-06,gdp_growth,-0.0008116129059610874,24.31293729966472,-0.019732693694230596,real_activity_income,Real activity & income,real_activity
2000-06,2000Q2,2000-05,WPSFD49207,0.002909092960684312,0.00482373295898785,2000-06,gdp_growth,-0.0019146399983035385,-1.5723598202257107,0.003010503003529507,prices_inflation,Prices & inflation,prices
2000-07,2000Q3,2000-05,BUSINVx,0.007573894070233678,0.005821321815651783,2000-09,gdp_growth,0.0017525722545818946,4.636175472690961,0.008125232500811277,demand_orders_inventories,Demand / orders / inventories,demand
2000-07,2000Q3,2000-05,ISRATIOx,0.0,0.0031415526100390294,2000-09,gdp_growth,-0.00314155261003903,-3.2886625240037524,0.010331506335821533,demand_orders_inventories,Demand / orders / inventories,demand
2000-07,2000Q3,2000-05,NONREVSL,0.005839316693965202,0.0008736775136529709,2000-09,gdp_growth,0.00496563918031223,1.3858133528851166,0.006881449081686195,financial_conditions,Financial conditions,financial
2000-07,2000Q3,2000-06,AMDMNOx,0.09536652266338663,-0.019228116200259805,2000-09,gdp_growth,0.11459463886364644,3.5558549955941023,0.40748191907159925,demand_orders_inventories,Demand / orders / inventories,demand
2000-07,2000Q3,2000-06,AMDMUOx,0.04602076802168753,0.007803086413230622,2000-09,gdp_growth,0.038217681608456906,7.958905528741963,0.3041709174492477,demand_orders_inventories,Demand / orders / inventories,demand
2000-07,2000Q3,2000-06,ANDENOx,0.1551081431859096,0.0138081063094805,2000-09,gdp_growth,0.1413000368764291,0.549147787692542,0.07759460265156565,demand_orders_inventories,Demand / orders / inventories,demand
2000-07,2000Q3,2000-06,AWHMAN,41.6,41.36208517607733,2000-09,gdp_growth,0.23791482392267568,0.24810468445811978,0.05902778231724458,labor_market,Labor market,labor
2000-07,2000Q3,2000-06,BAA,-0.42,0.25984635520635896,2000-09,gdp_growth,-0.6798463552063588,0.19618352892277088,-0.13337465708966706,financial_conditions,Financial conditions,financial
2000-07,2000Q3,2000-06,BAAFFM,1.95,2.6636667384210897,2000-09,gdp_growth,-0.7136667384210899,-0.11378559246536683,0.08120499265406969,financial_conditions,Financial conditions,financial
2000-07,2000Q3,2000-06,BUSLOANS,-0.011158119282005607,-0.002462114898460601,2000-09,gdp_growth,-0.008696004383545007,2.3151899723208547,-0.020132902148041594,financial_conditions,Financial conditions,financial
2000-07,2000Q3,2000-06,CES3000000008,0.006995962110612375,0.0026344109266095584,2000-09,gdp_growth,0.004361551184002816,7.714754062480418,0.03364829471550201,labor_market,Labor market,labor
2000-07,2000Q3,2000-06,CLAIMSx,0.03710375020337686,-0.01187673825766028,2000-09,gdp_growth,0.04898048846103714,-3.7693040427704267,-0.18462235317305753,labor_market,Labor market,labor
2000-07,2000Q3,2000-06,CLF16OV,0.001941327040535512,0.0033132034436383776,2000-09,gdp_growth,-0.0013718764031028653,6.706924975807672,-0.009201072111691801,labor_market,Labor market,labor
2000-07,2000Q3,2000-06,CPIAUCSL,0.005236796581375991,-0.0001694596679497312,2000-09,gdp_growth,0.005406256249325722,9.640039803528987,0.05211652543157729,prices_inflation,Prices & inflation,prices
2000-07,2000Q3,2000-06,CPIULFSL,0.006378682108975298,0.00010163685222341621,2000-09,gdp_growth,0.00627704525675188,5.467234836720815,0.03431808049938703,prices_inflation,Prices & inflation,prices
2000-07,2000Q3,2000-06,CUMFNS,0.0,-0.04686996302297222,2000-09,gdp_growth,0.04686996302297222,-0.32195506200110435,-0.01509002185105049,real_activity_income,Real activity & income,real_activity
2000-07,2000Q3,2000-06,CUSR0000SAC,0.00737829829812231,-0.0005311409000413328,2000-09,gdp_growth,0.007909439198163644,-4.176666253928721,-0.03303508778647113,prices_inflation,Prices & inflation,prices
2000-07,2000Q3,2000-06,CUSR0000SAS,0.0020478008566948702,-0.00019857874728206718,2000-09,gdp_growth,0.002246379603976937,9.15559317538322,0.02056693777149131,prices_inflation,Prices & inflation,prices
2000-07,2000Q3,2000-06,FEDFUNDS,0.2600000000000007,0.16985207033455216,2000-09,gdp_growth,0.09014792966544853,0.16666153094941966,0.015024191969964257,financial_conditions,Financial conditions,financial
2000-07,2000Q3,2000-06,GS10,-0.34000000000000075,0.20680693864607785,2000-09,gdp_growth,-0.5468069386460785,0.1649057762793812,-0.09017162269238355,financial_conditions,Financial conditions,financial
2000-07,2000Q3,2000-06,HOUST,7.348587530927593,7.362484319445036,2000-09,gdp_growth,-0.013896788517442952,2.7089898840618822,-0.03764625951470028,housing_construction,Housing & construction,housing
2000-07,2000Q3,2000-06,HOUSTMW,5.631211781821365,5.834628895980215,2000-09,gdp_growth,-0.2034171141588497,0.29349225612363394,-0.0597013477686396,housing_construction,Housing & construction,housing
2000-07,2000Q3,2000-06,HOUSTNE,4.948759890378168,5.044901986664584,2000-09,gdp_growth,-0.09614209628641525,0.042856928184534494,-0.004120354916057499,housing_construction,Housing & construction,housing
2000-07,2000Q3,2000-06,HOUSTS,6.648984550024776,6.573687985310873,2000-09,gdp_growth,0.07529656471390324,-0.3001501316925885,-0.02260027381487757,housing_construction,Housing & construction,housing
2000-07,2000Q3,2000-06,HOUSTW,5.8916442118257715,5.920029693392797,2000-09,gdp_growth,-0.028385481567025438,-0.2353374989638188,0.006680168238867347,housing_construction,Housing & construction,housing
2000-07,2000Q3,2000-06,INDPRO,0.0020560256734816207,0.0025786666051640416,2000-09,gdp_growth,-0.0005226409316824211,1.1190982074588098,-0.0005848865297903998,real_activity_income,Real activity & income,real_activity
2000-07,2000Q3,2000-06,IPCONGD,-0.0013247326104419699,0.002330539165544837,2000-09,gdp_growth,-0.003655271775986807,-13.05787238773998,0.047730072393343405,real_activity_income,Real activity & income,real_activity
2000-07,2000Q3,2000-06,IPFINAL,0.0014182856132709531,0.002800880421446803,2000-09,gdp_growth,-0.0013825948081758498,-7.914262265732944,0.010942217919144407,real_activity_income,Real activity & income,real_activity
2000-07,2000Q3,2000-06,IPMANSICS,0.0033943234298661196,0.0030509925256486815,2000-09,gdp_growth,0.0003433309042174382,94.45777546132847,0.03243027345950565,real_activity_income,Real activity & income,real_activity
2000-07,2000Q3,2000-06,MANEMP,0.0004328067585426254,6.868317871266819e-05,2000-09,gdp_growth,0.0003641235798299572,52.787964306830446,0.01922134253533911,labor_market,Labor market,labor
2000-07,2000Q3,2000-06,OILPRICEx,-0.010905959456461558,-0.101836417573949,2000-09,gdp_growth,0.09093045811748746,-0.06413334632787861,-0.0058316745622014835,prices_inflation,Prices & inflation,prices
2000-07,2000Q3,2000-06,PAYEMS,8.35894844914975e-05,0.0018619905187622758,2000-09,gdp_growth,-0.0017784010342707783,123.35126688711374,-0.21936802061065389,labor_market,Labor market,labor
2000-07,2000Q3,2000-06,PERMIT,7.331714969726466,7.325416758764117,2000-09,gdp_growth,0.006298210962348896,-0.04349403692340008,-0.000273934620147766,housing_construction,Housing & construction,housing
2000-07,2000Q3,2000-06,REALLN,-0.005126665956598941,-5.620718473383435e-05,2000-09,gdp_growth,-0.005070458771865107,10.148190546939494,-0.05145598177728792,financial_conditions,Financial conditions,financial
2000-07,2000Q3,2000-06,RETAILx,0.005212572584680331,0.006045499233640863,2000-09,gdp_growth,-0.0008329266489605327,6.063382522583726,-0.005050352885901524,demand_orders_inventories,Demand / orders / inventories,demand
2000-07,2000Q3,2000-06,T10YFFM,-0.42999999999999994,0.20840121665460987,2000-09,gdp_growth,-0.6384012166546098,0.4211186186175979,-0.2688426384813831,financial_conditions,Financial conditions,financial
2000-07,2000Q3,2000-06,TB3MS,-0.09999999999999964,0.11239942349166179,2000-09,gdp_growth,-0.21239942349166144,0.15684395680198016,-0.033313566002891634,financial_conditions,Financial conditions,financial
2000-07,2000Q3,2000-06,TWEXAFEGSMTHx,-0.026219303520430337,0.010995519156067926,2000-09,gdp_growth,-0.03721482267649826,0.3947123032940857,-0.0146891483753216,financial_conditions,Financial conditions,financial
2000-07,2000Q3,2000-06,UEMPMEAN,-0.1999999999999993,-0.035042481666360745,2000-09,gdp_growth,-0.16495751833363853,0.09084806269762129,-0.014986070968018406,labor_market,Labor market,labor
2000-07,2000Q3,2000-06,UNRATE,-0.09999999999999966,-0.0649624215024127,2000-09,gdp_growth,-0.035037578497586964,-0.8215025897804223,0.02878346147540253,labor_market,Labor market,labor
2000-07,2000Q3,2000-06,WPSFD49207,0.005809747641321472,-0.001236678575338571,2000-09,gdp_growth,0.007046426216660044,-2.5930198019970088,-0.018271522713110357,prices_inflation,Prices & inflation,prices
2000-08,2000Q3,2000-05,CMRMTSPLx,0.0082235111683886,0.004283047934292799,2000-09,gdp_growth,0.003940463234095799,4.644328949755486,0.018300807473558247,demand_orders_inventories,Demand / orders / inventories,demand
2000-08,2000Q3,2000-06,BUSINVx,0.008842833074629297,0.00860043915896741,2000-09,gdp_growth,0.00024239391566188674,5.091871838209738,0.0012342387529121475,demand_orders_inventories,Demand / orders / inventories,demand
2000-08,2000Q3,2000-06,CMRMTSPLx,0.0065017670130540495,-0.001822642167194162,2000-09,gdp_growth,0.00832440918024821,5.997818988482082,0.04992829944918727,demand_orders_inventories,Demand / orders / inventories,demand
2000-08,2000Q3,2000-06,ISRATIOx,0.0,0.008197121467492465,2000-09,gdp_growth,-0.008197121467492465,-2.403428282767821,0.019701193572254656,demand_orders_inventories,Demand / orders / inventories,demand
2000-08,2000Q3,2000-06,NONREVSL,0.0005113159048102389,-0.0036144522989538072,2000-09,gdp_growth,0.004125768203764047,1.6386242049656101,0.006760583642765254,financial_conditions,Financial conditions,financial
2000-08,2000Q3,2000-06,RPI,0.0014043119879953991,0.0030119842458222385,2000-09,gdp_growth,-0.0016076722578268392,25.754787083069818,-0.04140525669968837,real_activity_income,Real activity & income,real_activity
2000-08,2000Q3,2000-06,W875RX1,0.0034373539344478843,0.003390378616301378,2000-09,gdp_growth,4.6975318146506484e-05,30.041073383997908,0.0014111889796758498,real_activity_income,Real activity & income,real_activity
2000-08,2000Q3,2000-06,gdp_growth,5.0593628237917585,4.395902216974257,2000-09,gdp_growth,0.6634606068175017,-0.0752266837213321,-0.04990994123062327,,,
2000-08,2000Q3,2000-07,AMDMNOx,-0.13247063773541967,-0.0255016634188705,2000-09,gdp_growth,-0.10696897431654916,2.737098890013036,-0.2927846608676597,demand_orders_inventories,Demand / orders / inventories,demand
2000-08,2000Q3,2000-07,AMDMUOx,-0.0032264132731523176,0.025973184014264045,2000-09,gdp_growth,-0.02919959728741636,4.7200136122235685,-0.1378224966680516,demand_orders_inventories,Demand / orders / inventories,demand
2000-08,2000Q3,2000-07,ANDENOx,-0.1301561113717824,-0.05863276998399513,2000-09,gdp_growth,-0.07152334138778725,0.4468090637327368,-0.031957277200514125,demand_orders_inventories,Demand / orders / inventories,demand
2000-08,2000Q3,2000-07,AWHMAN,41.7,41.55125541912607,2000-09,gdp_growth,0.14874458087393386,0.14653607815031286,0.021796447527378304,labor_market,Labor market,labor
2000-08,2000Q3,2000-07,BAA,-0.13000000000000078,-0.14603669717537313,2000-09,gdp_growth,0.016036697175372344,0.1289025542014969,0.002067171226861426,financial_conditions,Financial conditions,financial
2000-08,2000Q3,2000-07,BAAFFM,1.81,2.0147036720156453,2000-09,gdp_growth,-0.20470367201564513,-0.05553385949148252,0.011367984959107359,financial_conditions,Financial conditions,financial
2000-08,2000Q3,2000-07,BUSLOANS,-0.0015491271696213005,0.002974465405173167,2000-09,gdp_growth,-0.004523592574794467,1.8203148660901043,-0.00823436281203318,financial_conditions,Financial conditions,financial
2000-08,2000Q3,2000-07,CES3000000008,-0.004197752831581525,-0.003271719574588516,2000-09,gdp_growth,-0.0009260332569930085,6.431022291436957,-0.005955340518334006,labor_market,Labor market,labor
2000-08,2000Q3,2000-07,CLAIMSx,-0.023451661035049476,-0.010552251919750687,2000-09,gdp_growth,-0.012899409115298787,-3.050007682726927,0.03934329690429905,labor_market,Labor market,labor
2000-08,2000Q3,2000-07,CLF16OV,-0.0025821518752024986,0.0013272440085633666,2000-09,gdp_growth,-0.003909395883765866,5.174150647364764,-0.020227803242792296,labor_market,Labor market,labor
2000-08,2000Q3,2000-07,CPIAUCSL,-0.0035018965850603934,-0.002003915316619306,2000-09,gdp_growth,-0.0014979812684410873,7.875904206934078,-0.011797956974023607,prices_inflation,Prices & inflation,prices
2000-08,2000Q3,2000-07,CPIULFSL,-0.004646079885193721,-0.0026984991356318578,2000-09,gdp_growth,-0.0019475807495618637,4.456842462694334,-0.008680060584173374,prices_inflation,Prices & inflation,prices
2000-08,2000Q3,2000-07,CUMFNS,0.19999999999998863,-0.030916695236481682,2000-09,gdp_growth,0.23091669523647032,-0.0681658818088804,-0.015740640155186492,real_activity_income,Real activity & income,real_activity
2000-08,2000Q3,2000-07,CUSR0000SAC,-0.005365986189062255,-0.0027933789772101704,2000-09,gdp_growth,-0.0025726072118520842,-3.5118202295501657,0.009034534049268798,prices_inflation,Prices & inflation,prices
2000-08,2000Q3,2000-07,CUSR0000SAS,-0.0005321795616710645,-0.000636092729474642,2000-09,gdp_growth,0.00010391316780357757,7.544076550424392,0.0007839288925072845,prices_inflation,Prices & inflation,prices
2000-08,2000Q3,2000-07,FEDFUNDS,0.009999999999999787,0.21727945985444458,2000-09,gdp_growth,-0.2072794598544448,0.11639684813295376,-0.024126675809758497,financial_conditions,Financial conditions,financial
2000-08,2000Q3,2000-07,GS10,-0.04999999999999983,-0.06250976134774182,2000-09,gdp_growth,0.012509761347741991,0.11438472016869057,0.001430925551138569,financial_conditions,Financial conditions,financial
2000-08,2000Q3,2000-07,HOUST,7.321188556739478,7.343172551346595,2000-09,gdp_growth,-0.021983994607116995,1.6728772408970398,-0.03677652424224928,housing_construction,Housing & construction,housing
2000-08,2000Q3,2000-07,HOUSTMW,5.771441123130016,5.690023885306664,2000-09,gdp_growth,0.08141723782335217,0.18405631145159593,0.014985356482343563,housing_construction,Housing & construction,housing
2000-08,2000Q3,2000-07,HOUSTNE,4.941642422609304,4.9847234646866685,2000-09,gdp_growth,-0.04308104207736452,0.02706134703326338,-0.001165831030210183,housing_construction,Housing & construction,housing
2000-08,2000Q3,2000-07,HOUSTS,6.489204931325317,6.610545164031828,2000-09,gdp_growth,-0.12134023270651106,-0.1884679922173141,0.02286875003337781,housing_construction,Housing & construction,housing
2000-08,2000Q3,2000-07,HOUSTW,5.973809611869261,5.905509928895495,2000-09,gdp_growth,0.06829968297376644,-0.15266711454425366,-0.010427115523892213,housing_construction,Housing & construction,housing
2000-08,2000Q3,2000-07,INDPRO,0.003702163131762859,0.003385411329240326,2000-09,gdp_growth,0.00031675180252253296,1.55787587808102,0.0004934599924885369,real_activity_income,Real activity & income,real_activity
2000-08,2000Q3,2000-07,IPCONGD,-0.005016442931145448,0.0024556510245099883,2000-09,gdp_growth,-0.0074720939556554376,-9.91050760435659,0.07405224396799014,real_activity_income,Real activity & income,real_activity
2000-08,2000Q3,2000-07,IPFINAL,0.0034860089054307153,0.0027654190087290477,2000-09,gdp_growth,0.0007205898967016677,-5.885810117228679,-0.004241255304379445,real_activity_income,Real activity & income,real_activity
2000-08,2000Q3,2000-07,IPMANSICS,0.0053984451836672775,0.0033488126719353082,2000-09,gdp_growth,0.002049632511731969,82.99170495725858,0.1701024966844644,real_activity_income,Real activity & income,real_activity
2000-08,2000Q3,2000-07,MANEMP,0.0024844733276623288,-0.00010145280076700569,2000-09,gdp_growth,0.0025859261284293346,38.259359961582255,0.0989358785816387,labor_market,Labor market,labor
2000-08,2000Q3,2000-07,OILPRICEx,-0.16763660610109632,0.0061989979118670145,2000-09,gdp_growth,-0.17383560401296333,-0.05241578836410694,0.009111730230090185,prices_inflation,Prices & inflation,prices
2000-08,2000Q3,2000-07,PAYEMS,-0.0008208808207648135,0.0023076150071337873,2000-09,gdp_growth,-0.0031284958278986006,90.38600658839755,-0.28277224451221716,labor_market,Labor market,labor
2000-08,2000Q3,2000-07,PERMIT,7.32052696227274,7.304557763642318,2000-09,gdp_growth,0.015969198630421875,-0.029384769617118684,-0.000469251222724954,housing_construction,Housing & construction,housing
2000-08,2000Q3,2000-07,REALLN,-0.000716468182655916,0.001407518006062908,2000-09,gdp_growth,-0.0021239861887188244,8.051146509499429,-0.01710052398952856,financial_conditions,Financial conditions,financial
2000-08,2000Q3,2000-07,RETAILx,0.007423476364445847,0.005894233530743154,2000-09,gdp_growth,0.0015292428337026925,4.536323148352681,0.006937139665977973,demand_orders_inventories,Demand / orders / inventories,demand
2000-08,2000Q3,2000-07,RPI,0.000506628398914799,0.0030430757629847697,2000-09,gdp_growth,-0.0025364473640699706,30.393709548122043,-0.07709204446764245,real_activity_income,Real activity & income,real_activity
2000-08,2000Q3,2000-07,T10YFFM,-0.49,-0.3594357917115376,2000-09,gdp_growth,-0.1305642082884624,0.25317000317461213,-0.033054941026880745,financial_conditions,Financial conditions,financial
2000-08,2000Q3,2000-07,TB3MS,0.2699999999999996,0.06374991385208101,2000-09,gdp_growth,0.20625008614791857,0.10978607487794913,0.022643387401418847,financial_conditions,Financial conditions,financial
2000-08,2000Q3,2000-07,TWEXAFEGSMTHx,0.00905542306416418,-0.007599504471882194,2000-09,gdp_growth,0.016654927536046374,0.25448106533621273,0.004238363702470506,financial_conditions,Financial conditions,financial
2000-08,2000Q3,2000-07,UEMPMEAN,0.9000000000000004,0.07790798499327846,2000-09,gdp_growth,0.8220920150067218,0.08109864041082547,0.06667054470964107,labor_market,Labor market,labor
2000-08,2000Q3,2000-07,UNRATE,0.0,0.024097156784507294,2000-09,gdp_growth,-0.024097156784507294,-0.6492958101368025,0.01564618293639021,labor_market,Labor market,labor
2000-08,2000Q3,2000-07,W875RX1,0.0007009642273292371,0.0023653889625864016,2000-09,gdp_growth,-0.0016644247352571645,33.86513137542788,-0.05636596232399564,real_activity_income,Real activity & income,real_activity
2000-08,2000Q3,2000-07,WPSFD49207,-0.005809747641321472,-0.0020548922484771035,2000-09,gdp_growth,-0.003754855392844369,-2.130807829073517,0.008000875268111697,prices_inflation,Prices & inflation,prices
2000-09,2000Q3,2000-07,BUSINVx,0.00242948338017257,0.00479685753528829,2000-09,gdp_growth,-0.0023673741551157204,3.941034796628778,-0.009329903921950709,demand_orders_inventories,Demand / orders / inventories,demand
2000-09,2000Q3,2000-07,ISRATIOx,0.010000000000000009,-0.0022079998020340464,2000-09,gdp_growth,0.012207999802034054,-4.773504961523772,-0.05827494762529078,demand_orders_inventories,Demand / orders / inventories,demand
2000-09,2000Q3,2000-07,NONREVSL,-0.004069602651281201,-0.004473527177666066,2000-09,gdp_growth,0.0004039245263848644,1.9092305257080149,0.0007711850358561356,financial_conditions,Financial conditions,financial
2000-09,2000Q3,2000-08,AMDMNOx,0.02880791008823813,0.05887651504781079,2000-09,gdp_growth,-0.030068604959572656,1.8942073384345994,-0.05695617217091352,demand_orders_inventories,Demand / orders / inventories,demand
2000-09,2000Q3,2000-08,AMDMUOx,0.0025422550681177825,0.0005705956114515961,2000-09,gdp_growth,0.001971659456666186,1.917356441678919,0.0037803739600360694,demand_orders_inventories,Demand / orders / inventories,demand
2000-09,2000Q3,2000-08,ANDENOx,0.05435866117553089,0.06139323691549957,2000-09,gdp_growth,-0.007034575739968674,0.31353141736081597,-0.002205560502284389,demand_orders_inventories,Demand / orders / inventories,demand
2000-09,2000Q3,2000-08,AWHMAN,41.3,41.66235919172525,2000-09,gdp_growth,-0.36235919172525677,0.01867135887364951,-0.006765738509867837,labor_market,Labor market,labor
2000-09,2000Q3,2000-08,BAA,-0.08999999999999986,-0.01514368366731415,2000-09,gdp_growth,-0.0748563163326857,0.05070838700399062,-0.0037958430582909707,financial_conditions,Financial conditions,financial
2000-09,2000Q3,2000-08,BAAFFM,1.76,1.8966946086539938,2000-09,gdp_growth,-0.13669460865399377,0.015791088906790537,-0.0021585567183341546,financial_conditions,Financial conditions,financial
2000-09,2000Q3,2000-08,BUSLOANS,0.002464473413794188,0.0006748891467292738,2000-09,gdp_growth,0.0017895842670649141,1.179507062742166,0.002110827282375329,financial_conditions,Financial conditions,financial
2000-09,2000Q3,2000-08,CES3000000008,0.001381655286205152,0.0020345627045643723,2000-09,gdp_growth,-0.0006529074183592201,5.40264891172024,-0.003527429553252512,labor_market,Labor market,labor
2000-09,2000Q3,2000-08,CLAIMSx,0.05922783420033274,0.008429816122201799,2000-09,gdp_growth,0.05079801807813093,-2.2961651381503785,-0.11664063819813694,labor_market,Labor market,labor
2000-09,2000Q3,2000-08,CLF16OV,0.002440057979317345,0.002409067353799663,2000-09,gdp_growth,3.0990625517681766e-05,4.8092677222608,0.0001490422149948588,labor_market,Labor market,labor
2000-09,2000Q3,2000-08,CPIAUCSL,-0.002896369357685557,0.0010831687810371323,2000-09,gdp_growth,-0.00397953813872269,6.785543173330872,-0.027003327850219593,prices_inflation,Prices & inflation,prices
2000-09,2000Q3,2000-08,CPIULFSL,-0.0023084697891588846,0.001969581173246223,2000-09,gdp_growth,-0.004278050962405108,4.031541869800636,-0.0172471415760771,prices_inflation,Prices & inflation,prices
2000-09,2000Q3,2000-08,CUMFNS,-0.20000000000000284,-0.20040599196574316,2000-09,gdp_growth,0.00040599196574031294,-0.0450663450448114,-1.829657401347419e-05,real_activity_income,Real activity & income,real_activity
2000-09,2000Q3,2000-08,CUSR0000SAC,-0.00535521136532946,0.002270489796383814,2000-09,gdp_growth,-0.007625701161713274,-1.355287519427919,0.010335017611356984,prices_inflation,Prices & inflation,prices
2000-09,2000Q3,2000-08,CUSR0000SAS,-0.0015430063515591288,-4.971719260353131e-05,2000-09,gdp_growth,-0.0014932891589555975,5.969063135824541,-0.00891353726984829,prices_inflation,Prices & inflation,prices
2000-09,2000Q3,2000-08,DDURRG3M086SBEA,-0.0025199487359683914,-0.0012858005567008975,2000-09,gdp_growth,-0.0012341481792674934,1.584180072874042,-0.001955112952569344,prices_inflation,Prices & inflation,prices
2000-09,2000Q3,2000-08,DSERRG3M086SBEA,-0.0007296290511087378,-0.0006035082484934028,2000-09,gdp_growth,-0.00012612080261533497,-6.641056526078794,0.0008375753792828657,prices_inflation,Prices & inflation,prices
2000-09,2000Q3,2000-08,FEDFUNDS,-0.040000000000000036,0.08987148743398425,2000-09,gdp_growth,-0.1298714874339843,0.054903501954587916,-0.007130399464176997,financial_conditions,Financial conditions,financial
2000-09,2000Q3,2000-08,GS10,-0.21999999999999972,0.03807276520938594,2000-09,gdp_growth,-0.2580727652093857,0.05295903296684179,-0.013667284080567879,financial_conditions,Financial conditions,financial
2000-09,2000Q3,2000-08,HOUST,7.333676395657684,7.328509023257995,2000-09,gdp_growth,0.005167372399688986,0.4329529509247355,0.0022372291289723782,housing_construction,Housing & construction,housing
2000-09,2000Q3,2000-08,HOUSTMW,5.717027701406222,5.773237818974967,2000-09,gdp_growth,-0.05621011756874494,0.05225855121357259,-0.0029374593076871938,housing_construction,Housing & construction,housing
2000-09,2000Q3,2000-08,HOUSTNE,4.976733742420574,5.013519185508142,2000-09,gdp_growth,-0.036785443087567184,0.013761609843172906,-0.0005062269156793413,housing_construction,Housing & construction,housing
2000-09,2000Q3,2000-08,HOUSTS,6.568077911411976,6.505252776878384,2000-09,gdp_growth,0.06282513453359154,-0.05955910940444268,-0.0037418090610350082,housing_construction,Housing & construction,housing
2000-09,2000Q3,2000-08,HOUSTW,5.91350300563827,5.964626502273513,2000-09,gdp_growth,-0.051123496635243425,-0.050162822758877026,0.002564498900527762,housing_construction,Housing & construction,housing
2000-09,2000Q3,2000-08,INDPRO,0.0032589891609822175,0.0012129190549807426,2000-09,gdp_growth,0.0020460701060014746,-0.0011647555389522276,-2.383171489049789e-06,real_activity_income,Real activity & income,real_activity
2000-09,2000Q3,2000-08,IPCONGD,0.005055762843725553,0.0006664013221976586,2000-09,gdp_growth,0.004389361521527894,-6.795796478203532,-0.02982920756956136,real_activity_income,Real activity & income,real_activity
2000-09,2000Q3,2000-08,IPFINAL,0.003910255424572462,0.0013993177427557367,2000-09,gdp_growth,0.002510937681816725,-4.127819261301871,-0.010364696926931748,real_activity_income,Real activity & income,real_activity
2000-09,2000Q3,2000-08,IPMANSICS,0.0009256933442474136,0.0010450254195206814,2000-09,gdp_growth,-0.000119332075273268,59.220773819613065,-0.007066937839183245,real_activity_income,Real activity & income,real_activity
2000-09,2000Q3,2000-08,MANEMP,-0.004269238292868849,-0.0018351347110359421,2000-09,gdp_growth,-0.002434103581832907,22.445456759170707,-0.05463456669337305,labor_market,Labor market,labor
2000-09,2000Q3,2000-08,OILPRICEx,0.11446580632591764,0.06322618374877163,2000-09,gdp_growth,0.05123962257714601,-0.025230770688834874,-0.0012928151674264172,prices_inflation,Prices & inflation,prices
2000-09,2000Q3,2000-08,PAYEMS,-0.0007982150815131206,0.0017500821662300757,2000-09,gdp_growth,-0.0025482972477431963,54.47017108895396,-0.1388061870700824,labor_market,Labor market,labor
2000-09,2000Q3,2000-08,PCEPI,-0.002326989461628237,-7.072045233414806e-05,2000-09,gdp_growth,-0.0022562690092940894,-3.143974076274598,0.007093651274322386,prices_inflation,Prices & inflation,prices
2000-09,2000Q3,2000-08,PERMIT,7.303843225277705,7.2875972779932185,2000-09,gdp_growth,0.016245947284486084,-0.043591873308942236,-0.0007081912758090715,housing_construction,Housing & construction,housing
2000-09,2000Q3,2000-08,REALLN,-0.0035389920118831237,-7.275342820529192e-05,2000-09,gdp_growth,-0.003466238583677832,5.265157617935604,-0.018250292484433658,financial_conditions,Financial conditions,financial
2000-09,2000Q3,2000-08,RETAILx,0.0016791065933592364,0.0034544941008806756,2000-09,gdp_growth,-0.001775387507521439,2.7915847525307864,-0.004956144695830486,demand_orders_inventories,Demand / orders / inventories,demand
2000-09,2000Q3,2000-08,RPI,0.0041106041516023595,0.0029213010527263466,2000-09,gdp_growth,0.0011893030988760131,21.800778238419696,0.025927733116861296,real_activity_income,Real activity & income,real_activity
2000-09,2000Q3,2000-08,T10YFFM,-0.67,-0.389673762445807,2000-09,gdp_growth,-0.280326237554193,0.04843214188097264,-0.013576800110183916,financial_conditions,Financial conditions,financial
2000-09,2000Q3,2000-08,TB3MS,0.1299999999999999,0.19019615831977021,2000-09,gdp_growth,-0.060196158319770314,0.05196477422466622,-0.0031280797762791275,financial_conditions,Financial conditions,financial
2000-09,2000Q3,2000-08,TWEXAFEGSMTHx,0.015037877364540542,0.0043096996383677755,2000-09,gdp_growth,0.010728177726172768,0.07890637044494675,0.0008465215658606149,financial_conditions,Financial conditions,financial
2000-09,2000Q3,2000-08,UEMPMEAN,-0.3000000000000007,-0.22499062681322707,2000-09,gdp_growth,-0.0750093731867736,0.06534784826977609,-0.004901701137820292,labor_market,Labor market,labor
2000-09,2000Q3,2000-08,UNRATE,0.09999999999999963,0.03661141413990588,2000-09,gdp_growth,0.06338858586009376,-0.4426984275240744,-0.028062027283238283,labor_market,Labor market,labor
2000-09,2000Q3,2000-08,W875RX1,0.003961165042701609,0.002228937907734767,2000-09,gdp_growth,0.0017322271349668416,24.848516164980285,0.04304327396464105,real_activity_income,Real activity & income,real_activity
2000-09,2000Q3,2000-08,WPSFD49207,-0.002174701835688353,0.0024526976344276404,2000-09,gdp_growth,-0.004627399470115993,-1.1491089818235523,0.005317386293595834,prices_inflation,Prices & inflation,prices
2000-10,2000Q4,2000-07,CMRMTSPLx,-0.003167889093244725,-0.0020929380829719595,2000-12,gdp_growth,-0.0010749510102727648,1.7754686464927945,-0.0019085418152550479,demand_orders_inventories,Demand / orders / inventories,demand
2000-10,2000Q4,2000-08,BUSINVx,0.007373903612393207,0.005622025917051162,2000-12,gdp_growth,0.0017518776953420452,3.9717325542437454,0.006957989673643508,demand_orders_inventories,Demand / orders / inventories,demand
2000-10,2000Q4,2000-08,CMRMTSPLx,0.008577187347178494,-0.0033767625159364955,2000-12,gdp_growth,0.01195394986311499,2.830130836626679,0.033831242127091,demand_orders_inventories,Demand / orders / inventories,demand
2000-10,2000Q4,2000-08,ISRATIOx,0.010000000000000007,0.009317312252542993,2000-12,gdp_growth,0.0006826877474570154,-1.5872780839125342,-0.0010836152996941354,demand_orders_inventories,Demand / orders / inventories,demand
2000-10,2000Q4,2000-08,NONREVSL,0.0010319519192867332,0.002048750113903632,2000-12,gdp_growth,-0.0010167981946168987,1.0673980044513343,-0.0010853283638637972,financial_conditions,Financial conditions,financial
2000-10,2000Q4,2000-09,AMDMNOx,0.017401984827138506,-0.01821426483819456,2000-12,gdp_growth,0.03561624966533307,2.7243973144155933,0.09703281493778869,demand_orders_inventories,Demand / orders / inventories,demand
2000-10,2000Q4,2000-09,AMDMUOx,0.011727095342330074,0.0038990613915411577,2000-12,gdp_growth,0.007828033950788916,6.6805731023741775,0.052295753056112296,demand_orders_inventories,Demand / orders / inventories,demand
2000-10,2000Q4,2000-09,ANDENOx,0.025824887086148607,-0.026448035321693604,2000-12,gdp_growth,0.052272922407842204,0.4364024948346829,0.022812033751082136,demand_orders_inventories,Demand / orders / inventories,demand
2000-10,2000Q4,2000-09,AWHMAN,41.2,41.31061520940471,2000-12,gdp_growth,-0.11061520940470766,0.2125099731299966,-0.02350683517836337,labor_market,Labor market,labor
2000-10,2000Q4,2000-09,BAA,0.08999999999999986,-0.0028216755686551447,2000-12,gdp_growth,0.092821675568655,0.15894202169455893,0.014753264771958475,financial_conditions,Financial conditions,financial
2000-10,2000Q4,2000-09,BAAFFM,1.83,1.857271372794512,2000-12,gdp_growth,-0.02727137279451189,-0.10502849539586126,0.002864271251987208,financial_conditions,Financial conditions,financial
2000-10,2000Q4,2000-09,BUSLOANS,-0.007528422389100342,-0.0006014781763501756,2000-12,gdp_growth,-0.006926944212750167,1.8820471595493744,-0.01303683567996343,financial_conditions,Financial conditions,financial
2000-10,2000Q4,2000-09,CES3000000008,-0.0034686125654035393,-0.0010812090567462647,2000-12,gdp_growth,-0.002387403508657275,6.870561520266419,-0.016402802679929707,labor_market,Labor market,labor
2000-10,2000Q4,2000-09,CLAIMSx,-0.019355442952956103,-0.0035313641274609783,2000-12,gdp_growth,-0.015824078825495125,-3.1630468223216526,0.050052302245149706,labor_market,Labor market,labor
2000-10,2000Q4,2000-09,CLF16OV,-0.000732103479625934,0.0008852538892300032,2000-12,gdp_growth,-0.0016173573688559376,7.2913793162225975,-0.011792766066216386,labor_market,Labor market,labor
2000-10,2000Q4,2000-09,CPIAUCSL,0.005776688290940689,0.0008484856425384827,2000-12,gdp_growth,0.0049282026484022065,9.101417826265141,0.044853631435614924,prices_inflation,Prices & inflation,prices
2000-10,2000Q4,2000-09,CPIULFSL,0.005756735321722496,0.0006218579786187127,2000-12,gdp_growth,0.005134877343103783,5.465828467411519,0.028066358758603083,prices_inflation,Prices & inflation,prices
2000-10,2000Q4,2000-09,CUMFNS,-0.0999999999999943,-0.42721218702280994,2000-12,gdp_growth,0.3272121870228156,-0.13350278870786197,-0.04368373946674437,real_activity_income,Real activity & income,real_activity
2000-10,2000Q4,2000-09,CUSR0000SAC,0.01337397629359316,0.001997774042302139,2000-12,gdp_growth,0.01137620225129102,-1.7189636181761787,-0.019555277782983202,prices_inflation,Prices & inflation,prices
2000-10,2000Q4,2000-09,CUSR0000SAS,-6.481245155676163e-06,0.0002975526659898853,2000-12,gdp_growth,-0.00030403391114556145,7.909165466189931,-0.0024046545105831326,prices_inflation,Prices & inflation,prices
2000-10,2000Q4,2000-09,DDURRG3M086SBEA,0.0033925680214119676,0.000864690495771987,2000-12,gdp_growth,0.0025278775256399807,2.1829087819630484,0.005518126050446535,prices_inflation,Prices & inflation,prices
2000-10,2000Q4,2000-09,DSERRG3M086SBEA,-0.0009936389586107097,0.00014748432688667257,2000-12,gdp_growth,-0.0011411232854973824,-8.796323660532618,0.010037689755805343,prices_inflation,Prices & inflation,prices
2000-10,2000Q4,2000-09,FEDFUNDS,0.019999999999999574,0.03479621813811364,2000-12,gdp_growth,-0.014796218138114072,0.14050068351061137,-0.002078878761777133,financial_conditions,Financial conditions,financial
2000-10,2000Q4,2000-09,GS10,-0.030000000000000252,-0.03880994172428122,2000-12,gdp_growth,0.00880994172428097,0.13570753805500416,0.0011955755018102287,financial_conditions,Financial conditions,financial
2000-10,2000Q4,2000-09,HOUST,7.333023014386481,7.33378408940662,2000-12,gdp_growth,-0.0007610750201391959,2.4959249286962018,-0.001899586115373383,housing_construction,Housing & construction,housing
2000-10,2000Q4,2000-09,HOUSTMW,5.69035945432406,5.730587400337613,2000-12,gdp_growth,-0.04022794601355293,0.2501421730530643,-0.010062705833291484,housing_construction,Housing & construction,housing
2000-10,2000Q4,2000-09,HOUSTNE,5.075173815233827,5.047818470838064,2000-12,gdp_growth,0.027355344395762496,0.06463761453292156,0.0017681842064686123,housing_construction,Housing & construction,housing
2000-10,2000Q4,2000-09,HOUSTS,6.508769136971682,6.549749806221761,2000-12,gdp_growth,-0.040980669250078545,-0.3041250047087148,0.01246324622864642,housing_construction,Housing & construction,housing
2000-10,2000Q4,2000-09,HOUSTW,5.998936561946683,5.932754237565791,2000-12,gdp_growth,0.06618232438089165,-0.20262686179302886,-0.013410316695468338,housing_construction,Housing & construction,housing
2000-10,2000Q4,2000-09,INDPRO,0.002414532260139879,-0.002089333996885977,2000-12,gdp_growth,0.004503866257025857,0.7135158845871743,0.00321358011644413,real_activity_income,Real activity & income,real_activity
2000-10,2000Q4,2000-09,IPCONGD,0.00788488697941947,-0.001985645833536245,2000-12,gdp_growth,0.009870532812955714,-11.363090335448323,-0.11215975601262262,real_activity_income,Real activity & income,real_activity
2000-10,2000Q4,2000-09,IPFINAL,0.003643477871393408,-0.0014554393227796652,2000-12,gdp_growth,0.005098917194173073,-7.166163754263069,-0.03653967558287182,real_activity_income,Real activity & income,real_activity
2000-10,2000Q4,2000-09,IPMANSICS,0.002896535092791197,-0.0019447905268979633,2000-12,gdp_growth,0.004841325619689161,94.59096712287852,0.4579456725231669,real_activity_income,Real activity & income,real_activity
2000-10,2000Q4,2000-09,MANEMP,-0.003587350297854286,-0.002324509285158369,2000-12,gdp_growth,-0.0012628410126959168,46.43384716157896,-0.058638566572895796,labor_market,Labor market,labor
2000-10,2000Q4,2000-09,OILPRICEx,0.03420821463696688,-0.045845657875389065,2000-12,gdp_growth,0.08005387251235595,-0.03495997384981596,-0.0027986812896084647,prices_inflation,Prices & inflation,prices
2000-10,2000Q4,2000-09,PAYEMS,0.0019142832603122883,0.0005838247907886079,2000-12,gdp_growth,0.0013304584695236804,105.2893315859424,0.14008308295900423,labor_market,Labor market,labor
2000-10,2000Q4,2000-09,PCEPI,0.00380386475750516,0.0007515233723385496,2000-12,gdp_growth,0.0030523413851666105,-4.065066262093241,-0.01240796998523174,prices_inflation,Prices & inflation,prices
2000-10,2000Q4,2000-09,PERMIT,7.325148957955575,7.297447151661908,2000-12,gdp_growth,0.02770180629366706,-0.11541155472309655,-0.0031971085329901765,housing_construction,Housing & construction,housing
2000-10,2000Q4,2000-09,REALLN,0.0012599353666606916,0.0008102673686543072,2000-12,gdp_growth,0.00044966799800638435,7.482804087587667,0.0033647775335395357,financial_conditions,Financial conditions,financial
2000-10,2000Q4,2000-09,RETAILx,0.008759620127761991,0.0037946947056899864,2000-12,gdp_growth,0.004964925422072005,4.7982433689899855,0.023822920483986803,demand_orders_inventories,Demand / orders / inventories,demand
2000-10,2000Q4,2000-09,RPI,0.006868194201368638,0.000962719240892391,2000-12,gdp_growth,0.005905474960476246,31.24746442522049,0.18453111874151187,real_activity_income,Real activity & income,real_activity
2000-10,2000Q4,2000-09,T10YFFM,-0.7200000000000001,-0.5447942040101884,2000-12,gdp_growth,-0.17520579598981167,0.3636731121924288,-0.06371763710176657,financial_conditions,Financial conditions,financial
2000-10,2000Q4,2000-09,TB3MS,-0.08999999999999986,0.10642283756506872,2000-12,gdp_growth,-0.19642283756506856,0.1306985806206964,-0.025672186071244066,financial_conditions,Financial conditions,financial
2000-10,2000Q4,2000-09,TWEXAFEGSMTHx,0.016006744317420107,0.006016473278290952,2000-12,gdp_growth,0.009990271039129155,0.3154420856083508,0.0031513519323756066,financial_conditions,Financial conditions,financial
2000-10,2000Q4,2000-09,UEMPMEAN,-1.0999999999999996,0.19520190857990283,2000-12,gdp_growth,-1.2952019085799025,0.06826482044820419,-0.08841672573337842,labor_market,Labor market,labor
2000-10,2000Q4,2000-09,UNRATE,-0.19999999999999973,0.057462467497387856,2000-12,gdp_growth,-0.2574624674973876,-0.6770974596180495,0.17432718268947578,labor_market,Labor market,labor
2000-10,2000Q4,2000-09,W875RX1,0.00793900904195688,1.5679438261417388e-05,2000-12,gdp_growth,0.007923329603695463,35.04189701922405,0.27764850002206576,real_activity_income,Real activity & income,real_activity
2000-10,2000Q4,2000-09,WPSFD49207,0.010845276386821645,0.0005828213957833623,2000-12,gdp_growth,0.010262454991038283,-1.537336037190809,-0.01577684188777183,prices_inflation,Prices & inflation,prices
2000-11,2000Q4,2000-09,BUSINVx,0.0008705277191012328,0.005373370301741797,2000-12,gdp_growth,-0.004502842582640564,4.179718524237125,-0.018820614554386505,demand_orders_inventories,Demand / orders / inventories,demand
2000-11,2000Q4,2000-09,ISRATIOx,-0.010000000000000009,-0.0026436205474186136,2000-12,gdp_growth,-0.007356379452581395,-3.921392569572274,0.028847251724306834,demand_orders_inventories,Demand / orders / inventories,demand
2000-11,2000Q4,2000-09,NONREVSL,-0.003493632191815088,-0.0019379389855661905,2000-12,gdp_growth,-0.0015556932062488977,1.6228022108630087,-0.0025245823745252737,financial_conditions,Financial conditions,financial
2000-11,2000Q4,2000-09,gdp_growth,2.7078724458171086,2.6502943449620653,2000-12,gdp_growth,0.05757810085504327,-0.0761040423392011,-0.004381926225283004,,,
2000-11,2000Q4,2000-10,AMDMNOx,-0.0560930332592573,-0.0017219623419465827,2000-12,gdp_growth,-0.054371070917310714,2.648100428084334,-0.1439800561715342,demand_orders_inventories,Demand / orders / inventories,demand
2000-11,2000Q4,2000-10,AMDMUOx,-0.006106426603412984,0.009621392866235121,2000-12,gdp_growth,-0.015727819469648106,5.23353792189696,-0.08231213962315269,demand_orders_inventories,Demand / orders / inventories,demand
2000-11,2000Q4,2000-10,ANDENOx,-0.12046448232082518,-0.014693779720440558,2000-12,gdp_growth,-0.1057707026003846,0.4301450960796243,-0.0454967490324518,demand_orders_inventories,Demand / orders / inventories,demand
2000-11,2000Q4,2000-10,AWHMAN,41.3,41.194111610360764,2000-12,gdp_growth,0.10588838963923627,0.14266528840795006,0.015106597646935034,labor_market,Labor market,labor
2000-11,2000Q4,2000-10,BAA,-0.009999999999999789,0.08779837501281021,2000-12,gdp_growth,-0.09779837501281001,0.12532249315545493,-0.012256336183157497,financial_conditions,Financial conditions,financial
2000-11,2000Q4,2000-10,BAAFFM,1.83,1.9049120870946439,2000-12,gdp_growth,-0.07491208709464381,-0.05813273843397426,0.004354844764616028,financial_conditions,Financial conditions,financial
2000-11,2000Q4,2000-10,BUSLOANS,-0.0009259345591203781,0.0019571408956373135,2000-12,gdp_growth,-0.0028830754547576917,1.7674564555961683,-0.005095710324482341,financial_conditions,Financial conditions,financial
2000-11,2000Q4,2000-10,CES3000000008,0.008292586654365053,0.0019888836411316928,2000-12,gdp_growth,0.0063037030132333605,6.996064046693334,0.04410111001191435,labor_market,Labor market,labor
2000-11,2000Q4,2000-10,CLAIMSx,0.019355442952956103,-0.009907967369650134,2000-12,gdp_growth,0.02926341032260624,-3.123640819650806,-0.09140838300588361,labor_market,Labor market,labor
2000-11,2000Q4,2000-10,CLF16OV,0.0019818373637914277,0.002010352244025266,2000-12,gdp_growth,-2.8514880233838453e-05,6.975140289230313,-0.00019889528996162368,labor_market,Labor market,labor
2000-11,2000Q4,2000-10,CPIAUCSL,-0.003471197939630244,-0.0020824499189790453,2000-12,gdp_growth,-0.0013887480206511984,9.125021846082152,-0.012672356027145533,prices_inflation,Prices & inflation,prices
2000-11,2000Q4,2000-10,CPIULFSL,-0.00345919047276233,-0.002195230827687713,2000-12,gdp_growth,-0.0012639596450746172,5.448357597417399,-0.00688650413507129,prices_inflation,Prices & inflation,prices
2000-11,2000Q4,2000-10,CUMFNS,-0.29999999999999716,-0.038889771586106923,2000-12,gdp_growth,-0.26111022841389026,-0.10403370591144029,0.027164264713279658,real_activity_income,Real activity & income,real_activity
2000-11,2000Q4,2000-10,CUSR0000SAC,-0.010018548932982263,-0.005807062291951989,2000-12,gdp_growth,-0.0042114866410302735,-1.777466467300514,0.007485776281915388,prices_inflation,Prices & inflation,prices
2000-11,2000Q4,2000-10,CUSR0000SAS,0.0010062099439736016,0.0005081171245575155,2000-12,gdp_growth,0.0004980928194160862,7.919473120596788,0.003944632694927964,prices_inflation,Prices & inflation,prices
2000-11,2000Q4,2000-10,DDURRG3M086SBEA,-0.000878011294767056,-0.0013191189718273363,2000-12,gdp_growth,0.0004411076770602805,2.159457849574941,0.0009525534357355908,prices_inflation,Prices & inflation,prices
2000-11,2000Q4,2000-10,DSERRG3M086SBEA,0.0018763359128435297,0.0008962864254426528,2000-12,gdp_growth,0.0009800494874008768,-8.748168622049928,-0.008573638173736466,prices_inflation,Prices & inflation,prices
2000-11,2000Q4,2000-10,FEDFUNDS,-0.009999999999999785,0.12274640136993416,2000-12,gdp_growth,-0.13274640136993396,0.1156465738753196,-0.015351666512710894,financial_conditions,Financial conditions,financial
2000-11,2000Q4,2000-10,GS10,-0.059999999999999616,0.05606186160026512,2000-12,gdp_growth,-0.11606186160026473,0.11168211466683903,-0.012962034135687566,financial_conditions,Financial conditions,financial
2000-11,2000Q4,2000-10,HOUST,7.3343293503005365,7.324773778700431,2000-12,gdp_growth,0.009555571600105563,1.8009916024731865,0.017209504208621388,housing_construction,Housing & construction,housing
2000-11,2000Q4,2000-10,HOUSTMW,5.768320995793772,5.709654722471695,2000-12,gdp_growth,0.05866627332207676,0.18303278160029107,0.010737851192262659,housing_construction,Housing & construction,housing
2000-11,2000Q4,2000-10,HOUSTNE,5.043425116919247,5.103261343956911,2000-12,gdp_growth,-0.059836227037664065,0.0472694058430755,-0.00282842289996175,housing_construction,Housing & construction,housing
2000-11,2000Q4,2000-10,HOUSTS,6.577861357721047,6.499052093862901,2000-12,gdp_growth,0.07880926385814589,-0.22348970981328445,-0.01761305951025559,housing_construction,Housing & construction,housing
2000-11,2000Q4,2000-10,HOUSTW,5.823045895483019,5.9770064114607395,2000-12,gdp_growth,-0.15396051597772095,-0.1536002877446556,0.023648379555493582,housing_construction,Housing & construction,housing
2000-11,2000Q4,2000-10,INDPRO,-0.0011885003755507384,0.002735300909756939,2000-12,gdp_growth,-0.003923801285307677,0.46380881078255115,-0.0018198936078855994,real_activity_income,Real activity & income,real_activity
2000-11,2000Q4,2000-10,IPCONGD,-0.00406165896981836,0.00206110100143983,2000-12,gdp_growth,-0.00612275997125819,-10.533765492787184,0.06449571770585817,real_activity_income,Real activity & income,real_activity
2000-11,2000Q4,2000-10,IPFINAL,-0.00011097670610293875,0.002555710678393243,2000-12,gdp_growth,-0.002666687384496182,-6.551849998669326,0.017471735736562816,real_activity_income,Real activity & income,real_activity
2000-11,2000Q4,2000-10,IPMANSICS,-0.0004726642596271091,0.0028553336788989447,2000-12,gdp_growth,-0.003327997938526054,88.59645806048476,-0.2948488297860033,real_activity_income,Real activity & income,real_activity
2000-11,2000Q4,2000-10,MANEMP,0.0,-0.0007084664423162661,2000-12,gdp_growth,0.0007084664423162661,40.25047319086379,0.028516109543077515,labor_market,Labor market,labor
2000-11,2000Q4,2000-10,OILPRICEx,-0.10566195432493108,-0.011052919373861464,2000-12,gdp_growth,-0.09460903495106962,-0.034584863509872006,0.003272040560583453,prices_inflation,Prices & inflation,prices
2000-11,2000Q4,2000-10,PAYEMS,0.0010395208517763876,0.000991853166732596,2000-12,gdp_growth,4.766768504379166e-05,93.3858424173547,0.004451486923899624,labor_market,Labor market,labor
2000-11,2000Q4,2000-10,PCEPI,-0.002046060945084527,-0.0012838328936009757,2000-12,gdp_growth,-0.0007622280514835514,-4.169189875343678,0.003177873474948162,prices_inflation,Prices & inflation,prices
2000-11,2000Q4,2000-10,PERMIT,7.343426229147367,7.287821800641356,2000-12,gdp_growth,0.05560442850601052,-0.10177936387407742,-0.005659383361923368,housing_construction,Housing & construction,housing
2000-11,2000Q4,2000-10,REALLN,-0.008584711739766604,-0.0004950236568085071,2000-12,gdp_growth,-0.008089688082958096,7.330786668132708,-0.05930377754790126,financial_conditions,Financial conditions,financial
2000-11,2000Q4,2000-10,RETAILx,0.0005858874531359248,0.00477697116636544,2000-12,gdp_growth,-0.004191083713229515,4.413430412145094,-0.018497056319813132,demand_orders_inventories,Demand / orders / inventories,demand
2000-11,2000Q4,2000-10,RPI,-0.0036345696191162342,0.0016154950110433526,2000-12,gdp_growth,-0.005250064630159587,30.36967914398072,-0.15944277830310846,real_activity_income,Real activity & income,real_activity
2000-11,2000Q4,2000-10,T10YFFM,-0.7699999999999999,-0.6345648687387738,2000-12,gdp_growth,-0.13543513126122614,0.25260309503048417,-0.0342113333324456,financial_conditions,Financial conditions,financial
2000-11,2000Q4,2000-10,TB3MS,0.11000000000000032,0.07452163755391983,2000-12,gdp_growth,0.03547836244608047,0.10799972092924527,0.0038316532432033064,financial_conditions,Financial conditions,financial
2000-11,2000Q4,2000-10,TWEXAFEGSMTHx,0.01536370578617774,0.006504804380949003,2000-12,gdp_growth,0.008858901405228737,0.23862332280593637,0.00211394048972586,financial_conditions,Financial conditions,financial
2000-11,2000Q4,2000-10,UEMPMEAN,0.5,0.4219637978276665,2000-12,gdp_growth,0.07803620217233356,0.07409173077714627,0.005781837282223495,labor_market,Labor market,labor
2000-11,2000Q4,2000-10,UNRATE,0.0,0.07468654801131508,2000-12,gdp_growth,-0.07468654801131507,-0.6441126392991435,0.048106549559710346,labor_market,Labor market,labor
2000-11,2000Q4,2000-10,W875RX1,-0.004080706305748194,0.0005066477146396667,2000-12,gdp_growth,-0.004587354020387861,34.20637701988866,-0.15691676114508918,real_activity_income,Real activity & income,real_activity
2000-11,2000Q4,2000-10,WPSFD49207,-0.0050799064204047895,-0.0043626628162837695,2000-12,gdp_growth,-0.0007172436041210201,-1.5416792940062725,0.0011057596132318086,prices_inflation,Prices & inflation,prices
2000-12,2000Q4,2000-09,CMRMTSPLx,-0.00295055655926646,-0.0016492777014127436,2000-12,gdp_growth,-0.0013012788578537168,3.788390870657777,-0.0049297529452729996,demand_orders_inventories,Demand / orders / inventories,demand
2000-12,2000Q4,2000-10,BUSINVx,0.006265058854395988,0.004209898042530259,2000-12,gdp_growth,0.002055160811865729,3.9413220641575935,0.00810005065319843,demand_orders_inventories,Demand / orders / inventories,demand
2000-12,2000Q4,2000-10,ISRATIOx,0.010000000000000009,0.004625698342265001,2000-12,gdp_growth,0.005374301657735007,-4.776415471436954,-0.02566989758617476,demand_orders_inventories,Demand / orders / inventories,demand
2000-12,2000Q4,2000-10,NONREVSL,0.005496116583029398,0.0008604665627550976,2000-12,gdp_growth,0.0046356500202742994,1.9078665456184485,0.00884420159087682,financial_conditions,Financial conditions,financial
2000-12,2000Q4,2000-11,AMDMNOx,0.022673490275586516,0.027623648283972325,2000-12,gdp_growth,-0.0049501580083858064,1.8783742957022578,-0.00929824956261658,demand_orders_inventories,Demand / orders / inventories,demand
2000-12,2000Q4,2000-11,AMDMUOx,0.0064290199035106355,-0.002320636049055856,2000-12,gdp_growth,0.008749655952566491,1.9318121799726562,0.0169026919397382,demand_orders_inventories,Demand / orders / inventories,demand
2000-12,2000Q4,2000-11,ANDENOx,0.06060084804761878,0.06591615824437669,2000-12,gdp_growth,-0.005315310196757903,0.31330464061460206,-0.0016653113509503645,demand_orders_inventories,Demand / orders / inventories,demand
2000-12,2000Q4,2000-11,AWHMAN,41.1,41.37988471338065,2000-12,gdp_growth,-0.27988471338064624,0.018405755789321535,-0.005151489683648428,labor_market,Labor market,labor
2000-12,2000Q4,2000-11,BAA,-0.060000000000000504,0.03396222508667147,2000-12,gdp_growth,-0.09396222508667197,0.0507010867906052,-0.004763986929157736,financial_conditions,Financial conditions,financial
2000-12,2000Q4,2000-11,BAAFFM,1.77,1.9101188475538047,2000-12,gdp_growth,-0.14011884755380463,0.015819753497124674,-0.00221664562860238,financial_conditions,Financial conditions,financial
2000-12,2000Q4,2000-11,BUSLOANS,0.0019452808812356894,0.0002780525602623363,2000-12,gdp_growth,0.0016672283209733531,1.1741349927631892,0.001957551112580632,financial_conditions,Financial conditions,financial
2000-12,2000Q4,2000-11,CES3000000008,-0.003489204218134922,-0.004960822386281681,2000-12,gdp_growth,0.0014716181681467585,5.396841627996957,0.007942090190371051,labor_market,Labor market,labor
2000-12,2000Q4,2000-11,CLAIMSx,0.10023558451757175,0.0013591037461124758,2000-12,gdp_growth,0.09887648077145929,-2.2956492543616696,-0.22698571935690648,labor_market,Labor market,labor
2000-12,2000Q4,2000-11,CLF16OV,0.0009504557937898284,0.001156600018424782,2000-12,gdp_growth,-0.00020614422463495363,4.824132459624154,-0.000994467045425533,labor_market,Labor market,labor
2000-12,2000Q4,2000-11,CPIAUCSL,-2.9760758222252552e-06,0.0012184738039464039,2000-12,gdp_growth,-0.0012214498797686291,6.848648318232971,-0.008365280664883287,prices_inflation,Prices & inflation,prices
2000-12,2000Q4,2000-11,CPIULFSL,0.0011405550569536516,0.0012713324664610011,2000-12,gdp_growth,-0.00013077740950734952,4.054239910993461,-0.0005302029930810321,prices_inflation,Prices & inflation,prices
2000-12,2000Q4,2000-11,CUMFNS,-0.8000000000000115,-0.22473942188711787,2000-12,gdp_growth,-0.5752605781128937,-0.04540323565317743,0.026118691590042792,real_activity_income,Real activity & income,real_activity
2000-12,2000Q4,2000-11,CUSR0000SAC,0.002663116239025598,0.004636185486597476,2000-12,gdp_growth,-0.0019730692475718775,-1.3843715741744955,0.0027314609802163675,prices_inflation,Prices & inflation,prices
2000-12,2000Q4,2000-11,CUSR0000SAS,-0.0015265542879205896,-0.0009949809253026718,2000-12,gdp_growth,-0.0005315733626179177,5.97312541061562,-0.003175154359859476,prices_inflation,Prices & inflation,prices
2000-12,2000Q4,2000-11,DDURRG3M086SBEA,0.002084987991030296,0.00021757387064686966,2000-12,gdp_growth,0.001867414120383426,1.5874633862444048,0.00296445154306449,prices_inflation,Prices & inflation,prices
2000-12,2000Q4,2000-11,DSERRG3M086SBEA,-0.0007264606361809811,-0.001572574885876899,2000-12,gdp_growth,0.0008461142496959178,-6.5906453447450675,-0.005576438940880867,prices_inflation,Prices & inflation,prices
2000-12,2000Q4,2000-11,FEDFUNDS,0.0,0.0674559688279845,2000-12,gdp_growth,-0.0674559688279845,0.0548875293843152,-0.0037024914711934497,financial_conditions,Financial conditions,financial
2000-12,2000Q4,2000-11,GS10,-0.020000000000000465,0.02612189277685825,2000-12,gdp_growth,-0.046121892776858714,0.05285954513087661,-0.002437982272759815,financial_conditions,Financial conditions,financial
2000-12,2000Q4,2000-11,HOUST,7.3537223303996315,7.3295132264779,2000-12,gdp_growth,0.024209103921731878,0.45094821007557706,0.010917052081038624,housing_construction,Housing & construction,housing
2000-12,2000Q4,2000-11,HOUSTMW,5.749392985908253,5.768923295162411,2000-12,gdp_growth,-0.019530309254157708,0.052016357823137425,-0.0010158955545607996,housing_construction,Housing & construction,housing
2000-12,2000Q4,2000-11,HOUSTNE,4.9344739331306915,5.087414163357969,2000-12,gdp_growth,-0.15294023022727737,0.013500622258427615,-0.002064788276415425,housing_construction,Housing & construction,housing
2000-12,2000Q4,2000-11,HOUSTS,6.522092798170152,6.5616795632701,2000-12,gdp_growth,-0.039586765099947345,-0.0624495346416172,0.0024721750584587245,housing_construction,Housing & construction,housing
2000-12,2000Q4,2000-11,HOUSTW,6.061456918928017,5.853273548524526,2000-12,gdp_growth,0.20818337040349064,-0.051609957962381575,-0.010744334994991065,housing_construction,Housing & construction,housing
2000-12,2000Q4,2000-11,INDPRO,-0.0023122330061973177,0.0013014129605263983,2000-12,gdp_growth,-0.0036136459667237162,-0.0006464141089448243,2.3359117376217693e-06,real_activity_income,Real activity & income,real_activity
2000-12,2000Q4,2000-11,IPCONGD,0.001470104755895818,0.0006275975762500005,2000-12,gdp_growth,0.0008425071796458175,-6.851083827292444,-0.00577208731284923,real_activity_income,Real activity & income,real_activity
2000-12,2000Q4,2000-11,IPFINAL,0.0016699181158248422,0.0006699344379370387,2000-12,gdp_growth,0.0009999836778878037,-4.13703450885313,-0.004136966983711717,real_activity_income,Real activity & income,real_activity
2000-12,2000Q4,2000-11,IPMANSICS,-0.005098672404652227,0.000974794342579985,2000-12,gdp_growth,-0.006073466747232212,59.257463611401306,-0.35989823476916866,real_activity_income,Real activity & income,real_activity
2000-12,2000Q4,2000-11,MANEMP,5.4414365406429965e-05,-0.0015342234065457354,2000-12,gdp_growth,0.0015886377719521656,22.419885338571838,0.035617076691691785,labor_market,Labor market,labor
2000-12,2000Q4,2000-11,OILPRICEx,0.06302369385222528,0.03955365660890716,2000-12,gdp_growth,0.023470037243318115,-0.02531189175827625,-0.0005940710422655804,prices_inflation,Prices & inflation,prices
2000-12,2000Q4,2000-11,PAYEMS,0.0007129476133815871,0.0012545710763525774,2000-12,gdp_growth,-0.0005416234629709903,54.71623073097974,-0.029635594369232965,labor_market,Labor market,labor
2000-12,2000Q4,2000-11,PCEPI,0.00045977765628091305,0.0004950308477773982,2000-12,gdp_growth,-3.5253191496485176e-05,-3.184008965973065,0.00011224647780397421,prices_inflation,Prices & inflation,prices
2000-12,2000Q4,2000-11,PERMIT,7.37650812632622,7.29619439377918,2000-12,gdp_growth,0.08031373254704012,-0.05504736101040865,-0.004421059029610324,housing_construction,Housing & construction,housing
2000-12,2000Q4,2000-11,REALLN,0.008427943595658682,0.0021816757333880926,2000-12,gdp_growth,0.0062462678622705915,5.116401204028944,0.03195841241120855,financial_conditions,Financial conditions,financial
2000-12,2000Q4,2000-11,RETAILx,-0.0040551764509508805,0.005111965171655646,2000-12,gdp_growth,-0.009167141622606527,2.802960244805818,-0.025695133526670796,demand_orders_inventories,Demand / orders / inventories,demand
2000-12,2000Q4,2000-11,RPI,0.0015265317987918081,0.003937846069704247,2000-12,gdp_growth,-0.0024113142709124387,21.737425159480484,-0.05241576349994639,real_activity_income,Real activity & income,real_activity
2000-12,2000Q4,2000-11,T10YFFM,-0.79,-0.6662173973853169,2000-12,gdp_growth,-0.12378260261468317,0.048266661580564425,-0.005974572989964402,financial_conditions,Financial conditions,financial
2000-12,2000Q4,2000-11,TB3MS,0.05999999999999961,0.1149406381746422,2000-12,gdp_growth,-0.05494063817464259,0.051967700542522595,-0.0028551386322749114,financial_conditions,Financial conditions,financial
