haminh109/Nowcasting-GDP-Growth/outputs/layer1_dfm/dfm_news_series.csv
vintage_period,target_quarter,update_date,updated_variable,observed,forecast_(prev),impact_date,impacted_variable,news,weight,impact,block,block_label,factor_name
2000-01,2000Q1,,,,,,,,,,,,
2000-02,2000Q1,491.0,BUSINVx,0.005332411996201714,0.008452831581884462,2000-03,gdp_growth,-0.003120419585682748,13.64646480439592,-0.042582696050967324,demand_orders_inventories,Demand / orders / inventories,demand
2000-02,2000Q1,491.0,CMRMTSPLx,0.008455223126899725,0.004043133721076421,2000-03,gdp_growth,0.004412089405823305,16.55377156051195,0.07303672012855389,demand_orders_inventories,Demand / orders / inventories,demand
2000-02,2000Q1,491.0,ISRATIOx,-0.01000000000000001,-0.007299519394594252,2000-03,gdp_growth,-0.002700480605405757,-4.50990511678765,0.012178911300105233,demand_orders_inventories,Demand / orders / inventories,demand
2000-02,2000Q1,491.0,NONREVSL,-0.005648526945737586,-0.0023715902541863675,2000-03,gdp_growth,-0.003276936691551219,6.440201591673101,-0.021104132896740145,financial_conditions,Financial conditions,financial
2000-02,2000Q1,491.0,gdp_growth,5.636127272434405,4.315193725647541,2000-03,gdp_growth,1.3209335467868641,-0.029306468039957873,-0.03871189677181743,,,
2000-02,2000Q1,492.0,AMDMNOx,-0.012778204719948505,0.0014010684794059482,2000-03,gdp_growth,-0.014179273199354454,5.208847853983996,-0.07385767677551024,demand_orders_inventories,Demand / orders / inventories,demand
2000-02,2000Q1,492.0,AMDMUOx,0.005720390663997321,0.015495776370817848,2000-03,gdp_growth,-0.009775385706820528,7.912359864208481,-0.077346369523804,demand_orders_inventories,Demand / orders / inventories,demand
2000-02,2000Q1,492.0,ANDENOx,0.05809319406824365,-0.02158252812144575,2000-03,gdp_growth,0.07967572218968941,1.0480072969300354,0.08350073824296483,demand_orders_inventories,Demand / orders / inventories,demand
2000-02,2000Q1,492.0,AWHMAN,41.7,41.510309728004934,2000-03,gdp_growth,0.18969027199507013,0.29480860681535076,0.05592232481329157,labor_market,Labor market,labor
2000-02,2000Q1,492.0,BAA,0.14000000000000057,0.02705442919024352,2000-03,gdp_growth,0.11294557080975703,0.18704535859722457,0.021125944794079223,financial_conditions,Financial conditions,financial
2000-02,2000Q1,492.0,BAAFFM,2.88,2.841541038295785,2000-03,gdp_growth,0.038458961704214964,0.026278733511300452,0.0010106528057463745,financial_conditions,Financial conditions,financial
2000-02,2000Q1,492.0,BUSLOANS,0.0012801232252543926,0.0035756597779586833,2000-03,gdp_growth,-0.0022955365527042907,0.5349046625738701,-0.0012278932051502738,financial_conditions,Financial conditions,financial
2000-02,2000Q1,492.0,CES3000000008,0.002123381619163034,-0.0008129704209707433,2000-03,gdp_growth,0.002936352040133777,1.5824530165433757,0.004646639143542991,labor_market,Labor market,labor
2000-02,2000Q1,492.0,CLAIMSx,-0.010619568827460846,-0.013455105276481373,2000-03,gdp_growth,0.0028355364490205274,-1.027237463028738,-0.0029127692682173628,labor_market,Labor market,labor
2000-02,2000Q1,492.0,CLF16OV,0.005707834924363553,0.0018965053662220385,2000-03,gdp_growth,0.0038113295581415144,21.926825531978523,0.08357035826624178,labor_market,Labor market,labor
2000-02,2000Q1,492.0,CPIAUCSL,-0.0005968066109529602,0.0004043278295368852,2000-03,gdp_growth,-0.0010011344404898452,22.353974268151333,-0.022379333521670083,prices_inflation,Prices & inflation,prices
2000-02,2000Q1,492.0,CPIULFSL,-5.588824585345265e-06,0.0002518679998143949,2000-03,gdp_growth,-0.0002574568243997402,6.20924446936281,-0.0015986123630037988,prices_inflation,Prices & inflation,prices
2000-02,2000Q1,492.0,CUMFNS,0.39999999999999153,0.3011676567598501,2000-03,gdp_growth,0.09883234324014145,-0.05725187492083745,-0.0056583369533178525,real_activity_income,Real activity & income,real_activity
2000-02,2000Q1,492.0,CUSR0000SAC,-0.003421611932953539,-0.0015365109033452615,2000-03,gdp_growth,-0.0018851010296082773,4.728135321945454,-0.00891301276352664,prices_inflation,Prices & inflation,prices
2000-02,2000Q1,492.0,CUSR0000SAS,0.0010419220584916289,0.0012758398970135654,2000-03,gdp_growth,-0.00023391783852193655,4.94669212074983,-0.0011571195287192948,prices_inflation,Prices & inflation,prices
2000-02,2000Q1,492.0,FEDFUNDS,0.15000000000000036,0.018002288193742493,2000-03,gdp_growth,0.13199771180625786,0.1608197348046503,0.021227837007503046,financial_conditions,Financial conditions,financial
2000-02,2000Q1,492.0,GS10,0.3799999999999999,0.11501157315425255,2000-03,gdp_growth,0.26498842684574736,0.18589149004963065,0.04925909351226353,financial_conditions,Financial conditions,financial
2000-02,2000Q1,492.0,HOUST,7.4815557019095165,7.440389156731297,2000-03,gdp_growth,0.04116654517821921,2.1896162183350123,0.09013893497504978,housing_construction,Housing & construction,housing
2000-02,2000Q1,492.0,HOUSTMW,6.021023349349527,5.969739986121495,2000-03,gdp_growth,0.051283363228031065,0.2639139332708956,0.013534394100869691,housing_construction,Housing & construction,housing
2000-02,2000Q1,492.0,HOUSTNE,5.0106352940962555,5.090168252940967,2000-03,gdp_growth,-0.07953295884471118,-0.07606421246222558,0.006049611879313554,housing_construction,Housing & construction,housing
2000-02,2000Q1,492.0,HOUSTS,6.720220155135295,6.673106066226648,2000-03,gdp_growth,0.04711408890864757,0.00047285634269500244,2.227819577075027e-05,housing_construction,Housing & construction,housing
2000-02,2000Q1,492.0,HOUSTW,5.950642552587727,5.908574297952422,2000-03,gdp_growth,0.042068254635305155,-0.15642725066589422,-0.006580621412913546,housing_construction,Housing & construction,housing
2000-02,2000Q1,492.0,INDPRO,0.009730190404086512,0.0058376277950204425,2000-03,gdp_growth,0.0038925626090660706,-4.54457205305102,-0.01769003124791303,real_activity_income,Real activity & income,real_activity
2000-02,2000Q1,492.0,IPCONGD,0.009820184024651013,0.004663543174439025,2000-03,gdp_growth,0.005156640850211988,-11.989283502847744,-0.06182442907555735,real_activity_income,Real activity & income,real_activity
2000-02,2000Q1,492.0,IPFINAL,0.01208661007054257,0.005568283044850662,2000-03,gdp_growth,0.006518327025691908,-7.516856739257918,-0.04899733043175924,real_activity_income,Real activity & income,real_activity
2000-02,2000Q1,492.0,IPMANSICS,0.00909449191686118,0.007122345423267449,2000-03,gdp_growth,0.0019721464935937307,47.12510942967238,0.09293761932194923,real_activity_income,Real activity & income,real_activity
2000-02,2000Q1,492.0,MANEMP,0.0007080031883575089,0.001680679556852159,2000-03,gdp_growth,-0.0009726763684946501,21.572136622342214,-0.02098270751049027,labor_market,Labor market,labor
2000-02,2000Q1,492.0,OILPRICEx,-0.0021809611022249875,0.02222972275745164,2000-03,gdp_growth,-0.024410683859676627,-0.21576137424302178,0.00526688269577578,prices_inflation,Prices & inflation,prices
2000-02,2000Q1,492.0,PAYEMS,0.002974671386445138,0.002569583403817996,2000-03,gdp_growth,0.00040508798262714246,67.35122209771045,0.027283170687034144,labor_market,Labor market,labor
2000-02,2000Q1,492.0,PERMIT,7.4798641311650265,7.403355360443743,2000-03,gdp_growth,0.07650877072128377,0.06777963987148586,0.005185736926498695,housing_construction,Housing & construction,housing
2000-02,2000Q1,492.0,REALLN,-0.012801845769600638,-0.003958853515362712,2000-03,gdp_growth,-0.008842992254237927,14.354202587624298,-0.12693410229812369,financial_conditions,Financial conditions,financial
2000-02,2000Q1,492.0,RETAILx,0.0033464522959398835,0.0068232029482237855,2000-03,gdp_growth,-0.003476750652283902,7.979300151828665,-0.027742037007639348,demand_orders_inventories,Demand / orders / inventories,demand
2000-02,2000Q1,492.0,RPI,0.004926409553561939,0.00466219229893389,2000-03,gdp_growth,0.0002642172546280489,4.75855461581571,0.0012572922365884569,real_activity_income,Real activity & income,real_activity
2000-02,2000Q1,492.0,T10YFFM,1.21,0.9226433618315659,2000-03,gdp_growth,0.287356638168434,0.26736514489759006,0.0768291492011877,financial_conditions,Financial conditions,financial
2000-02,2000Q1,492.0,TB3MS,0.1200000000000001,0.11269302619036278,2000-03,gdp_growth,0.0073069738096373195,0.16523679512992015,0.0012073809344027339,financial_conditions,Financial conditions,financial
2000-02,2000Q1,492.0,TWEXAFEGSMTHx,-0.0009658207543710162,0.0009762214179582842,2000-03,gdp_growth,-0.0019420421723293003,0.43675013866375983,-0.0008481871880556913,financial_conditions,Financial conditions,financial
2000-02,2000Q1,492.0,UEMPMEAN,0.3999999999999986,-0.0656178502511441,2000-03,gdp_growth,0.4656178502511427,-0.13401003563799152,-0.062397464705840636,labor_market,Labor market,labor
2000-02,2000Q1,492.0,UNRATE,-0.09999999999999964,-0.04549890458501429,2000-03,gdp_growth,-0.054501095414985344,-0.03017842170576724,0.0016447570408596852,labor_market,Labor market,labor
2000-02,2000Q1,492.0,W875RX1,0.004633166305886505,0.004891186335998159,2000-03,gdp_growth,-0.0002580200301116538,7.6965587434586,-0.0019858663187433006,real_activity_income,Real activity & income,real_activity
2000-02,2000Q1,492.0,WPSFD49207,-0.0007410152247198099,0.0012410800244903103,2000-03,gdp_growth,-0.00198209524921012,-2.5171211572019954,0.004989173887376355,prices_inflation,Prices & inflation,prices
2000-03,2000Q1,492.0,BUSINVx,0.005487579643391527,0.006319625975127645,2000-03,gdp_growth,-0.000832046331736118,5.714582881873096,-0.004754797724264523,demand_orders_inventories,Demand / orders / inventories,demand
2000-03,2000Q1,492.0,CMRMTSPLx,0.008436774885030474,0.005937104166668275,2000-03,gdp_growth,0.0024996707183621994,11.169905015122367,0.02792108449318846,demand_orders_inventories,Demand / orders / inventories,demand
2000-03,2000Q1,492.0,ISRATIOx,-0.010000000000000007,-0.003164747064179911,2000-03,gdp_growth,-0.006835252935820098,-1.3552914621259862,0.009263759945388559,demand_orders_inventories,Demand / orders / inventories,demand
2000-03,2000Q1,492.0,NONREVSL,0.006546062811824349,0.003107172228220915,2000-03,gdp_growth,0.0034388905836034347,1.1413127521873518,0.0039248496764436045,financial_conditions,Financial conditions,financial
2000-03,2000Q1,493.0,AMDMNOx,-0.027301488912240046,0.025377771079990792,2000-03,gdp_growth,-0.05267925999223083,1.9404379810143175,-0.1022208369006527,demand_orders_inventories,Demand / orders / inventories,demand
2000-03,2000Q1,493.0,AMDMUOx,0.005179234886886874,0.007631228537915003,2000-03,gdp_growth,-0.002451993651028129,2.4295796120546225,-0.005957313783425319,demand_orders_inventories,Demand / orders / inventories,demand
2000-03,2000Q1,493.0,ANDENOx,-0.100182329393947,0.012962885772075283,2000-03,gdp_growth,-0.11314521516602227,0.2356145828775093,-0.02665866267592838,demand_orders_inventories,Demand / orders / inventories,demand
2000-03,2000Q1,493.0,AWHMAN,41.9,41.606195898860804,2000-03,gdp_growth,0.29380410113919386,0.056412512016988325,0.016574227386155226,labor_market,Labor market,labor
2000-03,2000Q1,493.0,BAA,-0.040000000000000924,0.07076343310777243,2000-03,gdp_growth,-0.11076343310777337,0.1108310627037159,-0.012276029000046472,financial_conditions,Financial conditions,financial
2000-03,2000Q1,493.0,BAAFFM,2.56,2.833772808533105,2000-03,gdp_growth,-0.2737728085331049,0.01872168462752557,-0.005125488180948731,financial_conditions,Financial conditions,financial
2000-03,2000Q1,493.0,BUSLOANS,0.010133453460230868,0.0008152464319284073,2000-03,gdp_growth,0.009318207028302461,2.2497036030641455,0.02096320392566969,financial_conditions,Financial conditions,financial
2000-03,2000Q1,493.0,CES3000000008,-0.0007219576606898315,-0.0005918125262114999,2000-03,gdp_growth,-0.00013014513447833162,4.575556758250787,-0.0005954864496157878,labor_market,Labor market,labor
2000-03,2000Q1,493.0,CLAIMSx,0.007092228309492298,-0.012040728350399111,2000-03,gdp_growth,0.01913295665989141,-0.8582876889039428,-0.0164215811535175,labor_market,Labor market,labor
2000-03,2000Q1,493.0,CLF16OV,0.001808030271847727,0.0008976468734724966,2000-03,gdp_growth,0.0009103833983752303,16.17165374974711,0.014722405098042311,labor_market,Labor market,labor
2000-03,2000Q1,493.0,CPIAUCSL,0.003532507403049223,0.00013440401548368527,2000-03,gdp_growth,0.0033981033875655374,1.5281894213371934,0.005192945649487735,prices_inflation,Prices & inflation,prices
2000-03,2000Q1,493.0,CPIULFSL,0.0029312971800887766,-5.5405799920725133e-05,2000-03,gdp_growth,0.002986702980009502,5.325555998044686,0.01590585396956754,prices_inflation,Prices & inflation,prices
2000-03,2000Q1,493.0,CUMFNS,0.0,0.2952556531398768,2000-03,gdp_growth,-0.2952556531398768,-0.011201270371159795,0.003307238399433135,real_activity_income,Real activity & income,real_activity
2000-03,2000Q1,493.0,CUSR0000SAC,0.007469858066122548,0.0013340348909869305,2000-03,gdp_growth,0.006135823175135617,-8.01936013240373,-0.049205375750161436,prices_inflation,Prices & inflation,prices
2000-03,2000Q1,493.0,CUSR0000SAS,0.0005136167088997112,-0.0003629842510393538,2000-03,gdp_growth,0.0008766009599390649,10.707154197939342,0.009385901648129216,prices_inflation,Prices & inflation,prices
2000-03,2000Q1,493.0,FEDFUNDS,0.28000000000000025,0.10925074852198365,2000-03,gdp_growth,0.1707492514780166,0.08584835796428866,0.014658542863019113,financial_conditions,Financial conditions,financial
2000-03,2000Q1,493.0,GS10,-0.14000000000000057,0.15800044120421822,2000-03,gdp_growth,-0.2980004412042188,0.10436634249124985,-0.031101216109263065,financial_conditions,Financial conditions,financial
2000-03,2000Q1,493.0,HOUST,7.484930283289661,7.441749815430767,2000-03,gdp_growth,0.04318046785889409,0.33821882130135145,0.014604446942476049,housing_construction,Housing & construction,housing
2000-03,2000Q1,493.0,HOUSTMW,6.118097198041348,5.8950735879197405,2000-03,gdp_growth,0.22302361012160804,0.058278727330766764,0.012997532162600429,housing_construction,Housing & construction,housing
2000-03,2000Q1,493.0,HOUSTNE,5.236441962829949,5.07558527232039,2000-03,gdp_growth,0.16085669050955925,-0.034154816570438354,-0.005494030758481768,housing_construction,Housing & construction,housing
2000-03,2000Q1,493.0,HOUSTS,6.608000625296087,6.681473905396209,2000-03,gdp_growth,-0.07347328010012234,0.02633275074536949,-0.001934753571321238,housing_construction,Housing & construction,housing
2000-03,2000Q1,493.0,HOUSTW,5.986452005284438,5.976579396158517,2000-03,gdp_growth,0.009872609125920973,-0.042014982981450406,-0.0004147975044080816,housing_construction,Housing & construction,housing
2000-03,2000Q1,493.0,INDPRO,0.002812326744083826,0.005993733008571249,2000-03,gdp_growth,-0.0031814062644874223,-0.06394177047050148,0.0002034247491372703,real_activity_income,Real activity & income,real_activity
2000-03,2000Q1,493.0,IPCONGD,-0.0003680499251075271,0.005195510333963578,2000-03,gdp_growth,-0.005563560259071105,-6.767894426831186,0.0376535884707068,real_activity_income,Real activity & income,real_activity
2000-03,2000Q1,493.0,IPFINAL,4.541979243910532e-05,0.00648683107652912,2000-03,gdp_growth,-0.006441411284090015,-4.399874416048425,0.028341400712113288,real_activity_income,Real activity & income,real_activity
2000-03,2000Q1,493.0,IPMANSICS,0.003130700716344137,0.007031403603407631,2000-03,gdp_growth,-0.0039007028870634937,48.411112872180105,-0.1888373677464696,real_activity_income,Real activity & income,real_activity
2000-03,2000Q1,493.0,MANEMP,0.00027196823578812257,0.001423155382022869,2000-03,gdp_growth,-0.0011511871462347467,8.749659701724582,-0.010072495782553486,labor_market,Labor market,labor
2000-03,2000Q1,493.0,OILPRICEx,0.03549846588656269,-0.0013191623444781411,2000-03,gdp_growth,0.03681762823104083,-0.03400561504019587,-0.0012520060923178222,prices_inflation,Prices & inflation,prices
2000-03,2000Q1,493.0,PAYEMS,0.000329998813464627,0.0022583329995820604,2000-03,gdp_growth,-0.0019283341861174334,27.29432988449553,-0.05263258940343943,labor_market,Labor market,labor
2000-03,2000Q1,493.0,PERMIT,7.410347097821024,7.404016277144315,2000-03,gdp_growth,0.006330820676708855,0.12310050023186372,0.0007793271921810861,housing_construction,Housing & construction,housing
2000-03,2000Q1,493.0,REALLN,-0.0013952851636522823,0.004806202439086837,2000-03,gdp_growth,-0.006201487602739119,5.018369204940012,-0.031121354410403257,financial_conditions,Financial conditions,financial
2000-03,2000Q1,493.0,RETAILx,0.010834317565532103,0.008180662675491375,2000-03,gdp_growth,0.0026536548900407287,1.9994086553781787,0.005305740555534062,demand_orders_inventories,Demand / orders / inventories,demand
2000-03,2000Q1,493.0,T10YFFM,0.79,1.1477615970485242,2000-03,gdp_growth,-0.3577615970485242,0.07968643351478784,-0.02850874571735154,financial_conditions,Financial conditions,financial
2000-03,2000Q1,493.0,TB3MS,0.22999999999999954,0.0863276333018318,2000-03,gdp_growth,0.14367236669816777,0.08902251357497121,0.012790075214735882,financial_conditions,Financial conditions,financial
2000-03,2000Q1,493.0,TWEXAFEGSMTHx,0.02303099939530373,-0.0006875936576744329,2000-03,gdp_growth,0.023718593052978167,0.3438604027337122,0.008155884959474101,financial_conditions,Financial conditions,financial
2000-03,2000Q1,493.0,UEMPMEAN,-0.6999999999999993,-0.05532853263395665,2000-03,gdp_growth,-0.6446714673660426,0.09102946585124203,-0.05868409932386726,labor_market,Labor market,labor
2000-03,2000Q1,493.0,UNRATE,0.09999999999999964,-0.024828074551443077,2000-03,gdp_growth,0.12482807455144272,-0.15491892808804225,-0.01933823150480373,labor_market,Labor market,labor
2000-03,2000Q1,493.0,W875RX1,-0.0003472353309099674,0.004284968075486485,2000-03,gdp_growth,-0.004632203406396453,33.20014752273199,-0.15378983644766386,real_activity_income,Real activity & income,real_activity
2000-03,2000Q1,493.0,WPSFD49207,0.010316966970932206,-0.0001367953599337154,2000-03,gdp_growth,0.010453762330865923,-2.6271759471945764,-0.027463872953339664,prices_inflation,Prices & inflation,prices
2000-04,2000Q2,493.0,BUSINVx,0.005417342635423594,0.005971099639542773,2000-06,gdp_growth,-0.0005537570041191785,4.349151768922598,-0.0024083732540182033,demand_orders_inventories,Demand / orders / inventories,demand
2000-04,2000Q2,493.0,CMRMTSPLx,-0.0038228725178548473,0.0006386940289270565,2000-06,gdp_growth,-0.004461566546781904,6.900470915423371,-0.030786910193294412,demand_orders_inventories,Demand / orders / inventories,demand
2000-04,2000Q2,493.0,ISRATIOx,0.0,0.0023919197385089573,2000-06,gdp_growth,-0.002391919738508957,-3.060054836771948,0.007319405564994626,demand_orders_inventories,Demand / orders / inventories,demand
2000-04,2000Q2,493.0,NONREVSL,-0.0035648296696102477,-0.0030575874394702905,2000-06,gdp_growth,-0.0005072422301399574,7.083349912552502,-0.0035929742065048034,financial_conditions,Financial conditions,financial
2000-04,2000Q2,493.0,RPI,-0.00021025519802009285,0.0026336909514873925,2000-06,gdp_growth,-0.0028439461495074854,0.6840190026989551,-0.0019453132089156436,real_activity_income,Real activity & income,real_activity
2000-04,2000Q2,494.0,AMDMNOx,0.025655825409881317,0.01624364369120309,2000-06,gdp_growth,0.009412181718678227,0.14681868245208982,0.0013818841189359836,demand_orders_inventories,Demand / orders / inventories,demand
2000-04,2000Q2,494.0,AMDMUOx,0.01063910992719741,0.007050167666377021,2000-06,gdp_growth,0.0035889422608203904,5.318078493402499,0.01908627665133226,demand_orders_inventories,Demand / orders / inventories,demand
2000-04,2000Q2,494.0,ANDENOx,0.01998325132366041,0.04001508156461086,2000-06,gdp_growth,-0.02003183024095044,-0.5259862543235347,0.010536467355682432,demand_orders_inventories,Demand / orders / inventories,demand
2000-04,2000Q2,494.0,AWHMAN,41.6,41.73017890369838,2000-06,gdp_growth,-0.13017890369837914,0.19286370402445788,-0.0251067855531126,labor_market,Labor market,labor
2000-04,2000Q2,494.0,BAA,0.08000000000000007,0.005621013336259636,2000-06,gdp_growth,0.07437898666374042,0.07484464091646859,0.005566868548578457,financial_conditions,Financial conditions,financial
2000-04,2000Q2,494.0,BAAFFM,2.52,2.575832937295623,2000-06,gdp_growth,-0.05583293729562297,0.09331197949261741,-0.005209881899941764,financial_conditions,Financial conditions,financial
2000-04,2000Q2,494.0,BUSLOANS,-0.0009684618874450379,0.0001250094296787568,2000-06,gdp_growth,-0.0010934713171237946,8.845442362184778,-0.009672237510320798,financial_conditions,Financial conditions,financial
2000-04,2000Q2,494.0,CES3000000008,-0.0021223541449417738,-0.0012550758063653536,2000-06,gdp_growth,-0.00086727833857642,-15.665446498101955,0.01358630241193166,labor_market,Labor market,labor
2000-04,2000Q2,494.0,CLAIMSx,-0.06571707165701568,0.0047546112314845795,2000-06,gdp_growth,-0.07047168288850027,0.09423757699251598,-0.006641080641997215,labor_market,Labor market,labor
2000-04,2000Q2,494.0,CLF16OV,-0.002113236163980403,0.0015831560895528131,2000-06,gdp_growth,-0.003696392253533216,10.310169108240629,-0.03811042922431813,labor_market,Labor market,labor
2000-04,2000Q2,494.0,CPIAUCSL,0.0017258455116522244,-2.704456215107321e-06,2000-06,gdp_growth,0.0017285499678673317,30.557612666330154,0.05282036039248735,prices_inflation,Prices & inflation,prices
2000-04,2000Q2,494.0,CPIULFSL,0.002885042299463514,-5.669434413574659e-05,2000-06,gdp_growth,0.002941736643599261,10.015899658413469,0.029464139043768222,prices_inflation,Prices & inflation,prices
2000-04,2000Q2,494.0,CUMFNS,0.0,0.07807147067047156,2000-06,gdp_growth,-0.07807147067047156,0.11446648406871036,-0.00893656675372232,real_activity_income,Real activity & income,real_activity
2000-04,2000Q2,494.0,CUSR0000SAC,0.001945476969491544,-0.0013454390232956748,2000-06,gdp_growth,0.003290915992787219,5.361602515670684,0.01764458346578884,prices_inflation,Prices & inflation,prices
2000-04,2000Q2,494.0,CUSR0000SAS,0.001545061898844402,0.0007120628384031725,2000-06,gdp_growth,0.0008329990604412295,7.827869255498918,0.0065206077350873845,prices_inflation,Prices & inflation,prices
2000-04,2000Q2,494.0,FEDFUNDS,0.1199999999999992,0.22090229094722888,2000-06,gdp_growth,-0.10090229094722968,0.14048686419850495,-0.01417544644562149,financial_conditions,Financial conditions,financial
2000-04,2000Q2,494.0,GS10,-0.2599999999999998,-0.0028677541278224437,2000-06,gdp_growth,-0.25713224587217737,0.09895174361059333,-0.02544368406755974,financial_conditions,Financial conditions,financial
2000-04,2000Q2,494.0,HOUST,7.38025578842646,7.4662023231081465,2000-06,gdp_growth,-0.08594653468168661,1.3607733103560125,-0.11695375051242653,housing_construction,Housing & construction,housing
2000-04,2000Q2,494.0,HOUSTMW,5.768320995793772,6.07712094940482,2000-06,gdp_growth,-0.30879995361104834,0.13814957022262994,-0.04266058087613439,housing_construction,Housing & construction,housing
2000-04,2000Q2,494.0,HOUSTNE,5.0689042022202315,5.280330526630259,2000-06,gdp_growth,-0.21142632441002693,-0.24138261122604127,0.05103463826801641,housing_construction,Housing & construction,housing
2000-04,2000Q2,494.0,HOUSTS,6.61472560020376,6.59887629998405,2000-06,gdp_growth,0.0158493002197109,0.3737843614985878,0.005924220562824066,housing_construction,Housing & construction,housing
2000-04,2000Q2,494.0,HOUSTW,5.937536205082426,5.9910679875934445,2000-06,gdp_growth,-0.05353178251101779,0.11353569663116721,-0.006077768219296538,housing_construction,Housing & construction,housing
2000-04,2000Q2,494.0,INDPRO,0.0027499276964668695,0.0038479722808459314,2000-06,gdp_growth,-0.001098044584379062,-11.93701717818756,0.013107377066148682,real_activity_income,Real activity & income,real_activity
2000-04,2000Q2,494.0,IPCONGD,-0.0022165883704037266,0.002429783739298233,2000-06,gdp_growth,-0.0046463721097019595,-7.857942919892447,0.03651092682261824,real_activity_income,Real activity & income,real_activity
2000-04,2000Q2,494.0,IPFINAL,0.0016350757594203458,0.0032048127809371214,2000-06,gdp_growth,-0.0015697370215167756,-6.977012669391769,0.010952075086735843,real_activity_income,Real activity & income,real_activity
2000-04,2000Q2,494.0,IPMANSICS,0.0042908322277561695,0.00435596311225035,2000-06,gdp_growth,-6.513088449418e-05,21.82478807524719,-0.001421467751238882,real_activity_income,Real activity & income,real_activity
2000-04,2000Q2,494.0,MANEMP,-0.0002723089089080588,-0.00030259952269171735,2000-06,gdp_growth,3.029061378365848e-05,4.243235834093047,0.00012853021784349245,labor_market,Labor market,labor
2000-04,2000Q2,494.0,OILPRICEx,-0.05857970752936703,0.0039485584918486525,2000-06,gdp_growth,-0.06252826602121568,0.0995868257976496,-0.006226991535683899,prices_inflation,Prices & inflation,prices
2000-04,2000Q2,494.0,PAYEMS,0.003187571181886284,0.0021313955339776797,2000-06,gdp_growth,0.0010561756479086045,39.039159572200454,0.04123220965497621,labor_market,Labor market,labor
2000-04,2000Q2,494.0,PERMIT,7.382746449738912,7.391032293884831,2000-06,gdp_growth,-0.008285844145919609,0.6967599194309013,-0.005773244099527952,housing_construction,Housing & construction,housing
2000-04,2000Q2,494.0,REALLN,-0.001641669121903,0.00021558399782413027,2000-06,gdp_growth,-0.00185725311972713,-2.9494454737835962,0.005477866807649647,financial_conditions,Financial conditions,financial
2000-04,2000Q2,494.0,RETAILx,0.0020270073552808294,0.006377085286174863,2000-06,gdp_growth,-0.004350077930894034,4.80675326543604,-0.020909751299226148,demand_orders_inventories,Demand / orders / inventories,demand
2000-04,2000Q2,494.0,T10YFFM,0.41,0.7960585176901174,2000-06,gdp_growth,-0.38605851769011745,0.12199830890530611,-0.047098486296683534,financial_conditions,Financial conditions,financial
2000-04,2000Q2,494.0,TB3MS,0.14000000000000057,0.1795589135113142,2000-06,gdp_growth,-0.03955891351131364,0.1290379488351187,-0.005104601057645776,financial_conditions,Financial conditions,financial
2000-04,2000Q2,494.0,TWEXAFEGSMTHx,0.003456405640589466,0.007719284093231372,2000-06,gdp_growth,-0.004262878452641905,0.21604383936327518,-0.0009209686276477348,financial_conditions,Financial conditions,financial
2000-04,2000Q2,494.0,UEMPMEAN,0.3000000000000007,0.003740497566485349,2000-06,gdp_growth,0.29625950243351534,-0.12991775034267086,-0.038489368073801336,labor_market,Labor market,labor
2000-04,2000Q2,494.0,UNRATE,0.0,0.0014956629589364043,2000-06,gdp_growth,-0.0014956629589364045,0.08746702077386764,-0.00013082118309999484,labor_market,Labor market,labor
2000-04,2000Q2,494.0,W875RX1,0.0032243997259069346,0.003675580994505832,2000-06,gdp_growth,-0.00045118126859889756,1.2892618360678392,-0.0005816907907532316,real_activity_income,Real activity & income,real_activity
2000-04,2000Q2,494.0,WPSFD49207,-0.0008313066456846485,-0.002481060475341396,2000-06,gdp_growth,0.0016497538296567475,2.0842287938245607,0.0034384644344929325,prices_inflation,Prices & inflation,prices
2000-04,2000Q2,501.0,gdp_growth,2.073310824742549,3.970349527932615,2000-06,gdp_growth,-1.897038703190066,0.16071047560593893,-0.30487399223254913,,,
2000-04,2000Q2,504.0,gdp_growth,0.9924565024291474,3.731281498692459,2000-06,gdp_growth,-2.738824996263311,-0.030023514398562743,0.08222915171045507,,,
2000-04,2000Q2,507.0,gdp_growth,6.1938436438246445,3.6408343622284365,2000-06,gdp_growth,2.5530092815962075,0.02274940369563757,0.05807943878574178,,,
2000-04,2000Q2,510.0,gdp_growth,5.631497921479263,3.553466545088282,2000-06,gdp_growth,2.0780313763909817,0.004136372746904312,0.008595512352515712,,,
2000-04,2000Q2,513.0,gdp_growth,6.219680781501317,3.507978162899986,2000-06,gdp_growth,2.7117026186013318,0.0030247952640664664,0.008202345238301944,,,
2000-04,2000Q2,516.0,gdp_growth,1.6355760074181738,3.4731403957615585,2000-06,gdp_growth,-1.8375643883433852,0.0019349076161534993,-0.0035555173301780626,,,
2000-04,2000Q2,519.0,gdp_growth,0.7643801294178423,3.452392450618114,2000-06,gdp_growth,-2.6880123212002722,0.0008876361883295724,-0.002385977010973136,,,
2000-04,2000Q2,522.0,gdp_growth,-5.6396730175676115,3.4378904425773293,2000-06,gdp_growth,-9.07756346014494,0.0005413681902731319,-0.004914304102508175,,,
2000-04,2000Q2,525.0,gdp_growth,-1.1116504165719063,3.4287517221390713,2000-06,gdp_growth,-4.540402138710978,0.00028587956892239894,-0.0012980082061490325,,,
2000-04,2000Q2,528.0,gdp_growth,4.504986962508574,3.422597507847343,2000-06,gdp_growth,1.0823894546612307,0.00015754506534189683,0.00017052511735998367,,,
2000-04,2000Q2,531.0,gdp_growth,-4.142714975007825,3.4186268354322276,2000-06,gdp_growth,-7.561341810440053,8.684699070845888e-05,-0.0006566797819547689,,,
2000-04,2000Q2,534.0,gdp_growth,16.220150658451722,3.415993537801937,2000-06,gdp_growth,12.804157120649785,4.737039749597193e-05,0.0006065380124060598,,,
2000-04,2000Q2,537.0,gdp_growth,11.819903840389086,3.414277832659479,2000-06,gdp_growth,8.405626007729609,2.6051517768780357e-05,0.00021897931529809019,,,
2000-04,2000Q2,540.0,gdp_growth,15.189003262281336,3.4131471733576864,2000-06,gdp_growth,11.77585608892365,1.4271157266464499e-05,0.00016805509419228295,,,
2000-04,2000Q2,543.0,gdp_growth,7.10996889446505,3.4124075051685705,2000-06,gdp_growth,3.6975613892964803,7.82636563019608e-06,2.893846737273004e-05,,,
2000-04,2000Q2,546.0,gdp_growth,4.4452461798337035,3.411921333007576,2000-06,gdp_growth,1.0333248468261276,4.292361948514952e-06,4.435404252971512e-06,,,
2000-04,2000Q2,549.0,gdp_growth,6.754046184990854,3.4116027480056994,2000-06,gdp_growth,3.3424434369851554,2.353373891135067e-06,7.866019117196623e-06,,,
2000-04,2000Q2,552.0,gdp_growth,7.9267037467613,3.4113935736640535,2000-06,gdp_growth,4.515310173097247,1.2905894669240222e-06,5.82741174929419e-06,,,
2000-04,2000Q2,555.0,gdp_growth,0.7602293836284155,3.411256407830097,2000-06,gdp_growth,-2.6510270242016816,7.076831014847068e-07,-1.876087026606819e-06,,,
2000-04,2000Q2,558.0,gdp_growth,4.61709549116793,3.4111663887698027,2000-06,gdp_growth,1.2059291023981273,3.8806222157761337e-07,4.679755265417145e-07,,,
2000-04,2000Q2,561.0,gdp_growth,0.3216382279495673,3.4111073418608995,2000-06,gdp_growth,-3.089469113911332,2.1279713618655952e-07,-6.574301797771591e-07,,,
2000-04,2000Q2,564.0,gdp_growth,2.5212411873146023,3.411068597798173,2000-06,gdp_growth,-0.8898274104835707,1.1668791626279915e-07,-1.0383210636285031e-07,,,
2000-04,2000Q2,567.0,gdp_growth,13.033471903589996,3.411043181068866,2000-06,gdp_growth,9.622428722521132,6.398658303951356e-08,6.157063344953987e-07,,,
2000-04,2000Q2,570.0,gdp_growth,7.313415512251933,3.411026504975512,2000-06,gdp_growth,3.902389007276421,3.508735978496625e-08,1.3692452711920506e-07,,,
2000-04,2000Q2,573.0,gdp_growth,3.2659825613008446,3.411015564649316,2000-06,gdp_growth,-0.14503300334847158,1.9240340306993905e-08,-2.7904843401699798e-09,,,
2000-04,2000Q2,576.0,gdp_growth,-2.5581072659520188,3.4110083868530947,2000-06,gdp_growth,-5.9691156528051135,1.0550544791934827e-08,-6.297742206315965e-08,,,
2000-04,2000Q2,579.0,gdp_growth,-6.457502807634594,3.411003677774302,2000-06,gdp_growth,-9.868506485408895,5.785446638844497e-09,-5.7093717676424015e-08,,,
2000-04,2000Q2,582.0,gdp_growth,-1.9969675281587889,3.4110005882536854,2000-06,gdp_growth,-5.407968116412475,3.1724806520673473e-09,-1.7156674216315672e-08,,,
2000-04,2000Q2,585.0,gdp_growth,0.5980769849233187,3.410998561319693,2000-06,gdp_growth,-2.8129215763963744,1.739646621241142e-09,-4.89348951619426e-09,,,
2000-04,2000Q2,588.0,gdp_growth,4.304422782519295,3.4109972315011596,2000-06,gdp_growth,0.8934255510181358,9.539444826163593e-10,8.522783750222313e-10,,,
2000-04,2000Q2,591.0,gdp_growth,7.8530872788555435,3.410996359047414,2000-06,gdp_growth,4.44209091980813,5.231005371782629e-10,2.323660146346317e-09,,,
2000-04,2000Q2,594.0,gdp_growth,11.27445910238692,3.4109957866545537,2000-06,gdp_growth,7.863463315732367,2.868449628957952e-10,2.2555948430336974e-09,,,
2000-04,2000Q2,597.0,gdp_growth,6.343677340087668,3.4109954111243543,2000-06,gdp_growth,2.9326819289633135,1.572929628239167e-10,4.612902296267988e-10,,,
2000-04,2000Q2,600.0,gdp_growth,5.301866261741108,3.410995164749569,2000-06,gdp_growth,1.8908710969915392,8.625243412308532e-11,1.630922347285088e-10,,,
2000-04,2000Q2,606.0,gdp_growth,-1.7125005574225018,3.410994897063184,2000-06,gdp_growth,-5.123495454485686,2.5935554978426712e-11,-1.3288069804153285e-10,,,
2000-05,2000Q2,494.0,BUSINVx,0.0032893495195445155,0.005407319017482758,2000-06,gdp_growth,-0.002117969497938243,3.7916666129437915,-0.00803063423256576,demand_orders_inventories,Demand / orders / inventories,demand
2000-05,2000Q2,494.0,CMRMTSPLx,0.005730407775349278,0.004647696765868818,2000-06,gdp_growth,0.0010827110094804595,5.135965841285587,0.005560766760675475,demand_orders_inventories,Demand / orders / inventories,demand
2000-05,2000Q2,494.0,ISRATIOx,-0.010000000000000009,-0.00016344306861672134,2000-06,gdp_growth,-0.009836556931383288,-1.7517653448302535,0.017231339544847065,demand_orders_inventories,Demand / orders / inventories,demand
2000-05,2000Q2,494.0,NONREVSL,-0.005691422154327164,0.0022633541749647115,2000-06,gdp_growth,-0.007954776329291875,1.0428157843430115,-0.008295366317103729,financial_conditions,Financial conditions,financial
2000-05,2000Q2,494.0,RPI,0.002073709268954005,0.004377109097290569,2000-06,gdp_growth,-0.0023033998283365645,9.04754232240885,-0.020840107432304345,real_activity_income,Real activity & income,real_activity
2000-05,2000Q2,494.0,gdp_growth,5.2502155318310395,4.501136037628928,2000-06,gdp_growth,0.749079494202111,-0.10805551010780766,-0.08094216685730765,,,
2000-05,2000Q2,495.0,AMDMNOx,-0.06649474767589503,-0.006813829423219189,2000-06,gdp_growth,-0.05968091825267584,1.484141558899308,-0.08857493105206848,demand_orders_inventories,Demand / orders / inventories,demand
2000-05,2000Q2,495.0,AMDMUOx,-0.008425311954015413,0.010467028998815669,2000-06,gdp_growth,-0.01889234095283108,1.6556257159828462,-0.031278645516623,demand_orders_inventories,Demand / orders / inventories,demand
2000-05,2000Q2,495.0,ANDENOx,0.00473833169646376,-0.010923082877436754,2000-06,gdp_growth,0.015661414573900512,0.25028193681320904,0.003919769172790439,demand_orders_inventories,Demand / orders / inventories,demand
2000-05,2000Q2,495.0,AWHMAN,42.1,41.593151646740864,2000-06,gdp_growth,0.50684835325914,0.06495579950314855,0.0329227400128017,labor_market,Labor market,labor
2000-05,2000Q2,495.0,BAA,0.030000000000001137,0.05166686165358508,2000-06,gdp_growth,-0.021666861653583946,0.04721103097846104,-0.0010229148767333814,financial_conditions,Financial conditions,financial
2000-05,2000Q2,495.0,BAAFFM,2.38,2.5160981239082423,2000-06,gdp_growth,-0.13609812390824247,-8.058888117956787e-05,1.0967995536403457e-05,financial_conditions,Financial conditions,financial
2000-05,2000Q2,495.0,BUSLOANS,-0.00026873113024539213,2.625709819220204e-05,2000-06,gdp_growth,-0.00029498822843759413,0.8494586458752601,-0.0002505803010777406,financial_conditions,Financial conditions,financial
2000-05,2000Q2,495.0,CES3000000008,0.004906630624681441,0.0011933127518900398,2000-06,gdp_growth,0.0037133178727914006,-4.636444879306601,-0.01721659363654137,labor_market,Labor market,labor
2000-05,2000Q2,495.0,CLAIMSx,0.047891287704414864,0.00431168270163914,2000-06,gdp_growth,0.043579605002775725,-1.3630384658374626,-0.05940067794478603,labor_market,Labor market,labor
2000-05,2000Q2,495.0,CLF16OV,0.0025735842660914443,0.0021250568893272062,2000-06,gdp_growth,0.000448527376764238,-8.353045484994698,-0.0037465695793770346,labor_market,Labor market,labor
2000-05,2000Q2,495.0,CPIAUCSL,-0.0070340266573794,-0.0005404051772375658,2000-06,gdp_growth,-0.006493621480141834,7.151178137362504,-0.04643704396109783,prices_inflation,Prices & inflation,prices
2000-05,2000Q2,495.0,CPIULFSL,-0.008177615665232452,-0.0011836159478402465,2000-06,gdp_growth,-0.0069939997173922045,3.8287606212101926,-0.02677835070270649,prices_inflation,Prices & inflation,prices
2000-05,2000Q2,495.0,CUMFNS,0.40000000000000574,0.0042748257818053725,2000-06,gdp_growth,0.39572517421820036,-0.036687603191603455,-0.01451820816464548,real_activity_income,Real activity & income,real_activity
2000-05,2000Q2,495.0,CUSR0000SAC,-0.012780460886223644,-0.000537893827115265,2000-06,gdp_growth,-0.012242567059108379,-1.469690694562457,0.01799278688432845,prices_inflation,Prices & inflation,prices
2000-05,2000Q2,495.0,CUSR0000SAS,-0.0026023698629087377,-0.0005669288513430651,2000-06,gdp_growth,-0.0020354410115656727,4.979529233673214,-0.010135538020508646,prices_inflation,Prices & inflation,prices
2000-05,2000Q2,495.0,FEDFUNDS,0.16999999999999993,0.08591764821694113,2000-06,gdp_growth,0.08408235178305878,0.046159558113939944,0.0038812042034868438,financial_conditions,Financial conditions,financial
2000-05,2000Q2,495.0,GS10,-0.2699999999999996,-0.07531551407362302,2000-06,gdp_growth,-0.19468448592637655,0.04614492863383988,-0.00898370170918845,financial_conditions,Financial conditions,financial
2000-05,2000Q2,495.0,HOUST,7.416378479192928,7.361617507000134,2000-06,gdp_growth,0.0547609721927937,0.3747447613923049,0.02052138745799912,housing_construction,Housing & construction,housing
2000-05,2000Q2,495.0,HOUSTMW,5.918893854273146,5.781215058045764,2000-06,gdp_growth,0.137678796227382,0.04692941268177137,0.006461185045684317,housing_construction,Housing & construction,housing
2000-05,2000Q2,495.0,HOUSTNE,4.955827057601261,5.0845908557430155,2000-06,gdp_growth,-0.12876379814175448,-0.0005728142740373215,7.37577415548573e-05,housing_construction,Housing & construction,housing
2000-05,2000Q2,495.0,HOUSTS,6.570882962339584,6.5947267320522,2000-06,gdp_growth,-0.023843769712615853,-0.030117550742698916,0.0007181159442169355,housing_construction,Housing & construction,housing
2000-05,2000Q2,495.0,HOUSTW,6.075346031088684,5.908843207385665,2000-06,gdp_growth,0.1665028237030189,-0.04026427051719427,-0.0067041147354550586,housing_construction,Housing & construction,housing
2000-05,2000Q2,495.0,INDPRO,0.008913306893518325,0.003249829414152793,2000-06,gdp_growth,0.005663477479365532,-1.0001750671285041,-0.005664468968105192,real_activity_income,Real activity & income,real_activity
2000-05,2000Q2,495.0,IPCONGD,0.006055490654680362,0.0023833149967222677,2000-06,gdp_growth,0.003672175657958094,-5.075184725729018,-0.018636969809462826,real_activity_income,Real activity & income,real_activity
2000-05,2000Q2,495.0,IPFINAL,0.0077942013595251325,0.002717765219664528,2000-06,gdp_growth,0.005076436139860605,-3.203785110271927,-0.016263810518131704,real_activity_income,Real activity & income,real_activity
2000-05,2000Q2,495.0,IPMANSICS,0.007939161680493356,0.0032769229717139756,2000-06,gdp_growth,0.0046622387087793815,28.74791027650507,0.13402962008763852,real_activity_income,Real activity & income,real_activity
2000-05,2000Q2,495.0,MANEMP,0.0005989165234971949,9.775354038173503e-05,2000-06,gdp_growth,0.0005011629831154599,18.03010371128052,0.009036020561826471,labor_market,Labor market,labor
2000-05,2000Q2,495.0,OILPRICEx,-0.16770920414960688,0.022866890233532333,2000-06,gdp_growth,-0.19057609438313922,-0.030027359800440637,0.0057224969554052554,prices_inflation,Prices & inflation,prices
2000-05,2000Q2,495.0,PAYEMS,0.002596471786400656,0.0013895603836340331,2000-06,gdp_growth,0.0012069114027666228,46.969635704961014,0.05668818891611175,labor_market,Labor market,labor
2000-05,2000Q2,495.0,PERMIT,7.351799869057777,7.3260545510617705,2000-06,gdp_growth,0.02574531799600618,0.030540458134683177,0.0007862738064211321,housing_construction,Housing & construction,housing
2000-05,2000Q2,495.0,REALLN,0.002020019894584557,0.00020350981708143332,2000-06,gdp_growth,0.0018165100775031234,2.614014498559717,0.004748383679373,financial_conditions,Financial conditions,financial
2000-05,2000Q2,495.0,RETAILx,-0.0018076279345979884,0.006026317396350806,2000-06,gdp_growth,-0.007833945330948795,1.7778336746749643,-0.013927451814923475,demand_orders_inventories,Demand / orders / inventories,demand
2000-05,2000Q2,495.0,RPI,0.00662535337800918,0.002829393167456328,2000-06,gdp_growth,0.0037959602105528518,8.079944749341646,0.030671148771966323,real_activity_income,Real activity & income,real_activity
2000-05,2000Q2,495.0,T10YFFM,-0.030000000000000027,0.3972469967433612,2000-06,gdp_growth,-0.4272469967433613,0.055657543383921156,-0.02377951825689365,financial_conditions,Financial conditions,financial
2000-05,2000Q2,495.0,TB3MS,-0.030000000000000245,0.08843205845025735,2000-06,gdp_growth,-0.11843205845025759,0.04475956185408922,-0.005300967045711414,financial_conditions,Financial conditions,financial
2000-05,2000Q2,495.0,TWEXAFEGSMTHx,0.006981012982648416,0.0012603348527642209,2000-06,gdp_growth,0.005720678129884194,0.11771224462178945,0.0006733938634274493,financial_conditions,Financial conditions,financial
2000-05,2000Q2,495.0,UEMPMEAN,-0.40000000000000036,-0.03446522486376016,2000-06,gdp_growth,-0.3655347751362402,0.06107301796817574,-0.02232431188988868,labor_market,Labor market,labor
2000-05,2000Q2,495.0,UNRATE,-0.19999999999999973,-0.012867812010971815,2000-06,gdp_growth,-0.18713218798902792,-0.3257318080141254,0.06095490593130526,labor_market,Labor market,labor
2000-05,2000Q2,495.0,W875RX1,0.007139887534130196,0.0027305822914279994,2000-06,gdp_growth,0.004409305242702197,11.565446977479127,0.050995585991993,real_activity_income,Real activity & income,real_activity
2000-05,2000Q2,495.0,WPSFD49207,-0.01239475328593187,0.0006217843725157128,2000-06,gdp_growth,-0.013016537658447581,-1.2518534143156377,0.01629479711029568,prices_inflation,Prices & inflation,prices
2000-06,2000Q2,495.0,BUSINVx,0.004399486690799037,0.005618325047020595,2000-06,gdp_growth,-0.0012188383562215584,0.4329991689628302,-0.0005277559953439568,demand_orders_inventories,Demand / orders / inventories,demand
2000-06,2000Q2,495.0,CMRMTSPLx,-0.004341193759698214,-0.00525272431596515,2000-06,gdp_growth,0.0009115305562669357,4.655274965950121,0.004243425379288054,demand_orders_inventories,Demand / orders / inventories,demand
2000-06,2000Q2,495.0,ISRATIOx,0.010000000000000009,0.016058799313752033,2000-06,gdp_growth,-0.006058799313752026,-0.5359290661154582,0.0032470866580001025,demand_orders_inventories,Demand / orders / inventories,demand
2000-06,2000Q2,495.0,NONREVSL,-0.0003876613753170943,0.0005833874308756674,2000-06,gdp_growth,-0.0009710488061927618,-0.36206796371458844,0.0003515856639256953,financial_conditions,Financial conditions,financial
2000-06,2000Q2,496.0,AMDMNOx,0.05785198574679917,0.023315833866190523,2000-06,gdp_growth,0.03453615188060865,0.024927708702968253,0.0008609071338012816,demand_orders_inventories,Demand / orders / inventories,demand
2000-06,2000Q2,496.0,AMDMUOx,0.009517020880245752,0.0017751019055082485,2000-06,gdp_growth,0.007741918974737505,0.400060029513707,0.0030972323335262146,demand_orders_inventories,Demand / orders / inventories,demand
2000-06,2000Q2,496.0,ANDENOx,-0.016290368276925093,-0.011896034501230245,2000-06,gdp_growth,-0.0043943337756948515,-0.09576231042121787,0.00042081155512253273,demand_orders_inventories,Demand / orders / inventories,demand
2000-06,2000Q2,496.0,AWHMAN,41.4,42.0728152218984,2000-06,gdp_growth,-0.6728152218984019,-0.07939965765842179,0.053421298286108206,labor_market,Labor market,labor
2000-06,2000Q2,496.0,BAA,0.5,0.04470001513381727,2000-06,gdp_growth,0.45529998486618267,-0.022515341725491994,-0.010251234746873436,financial_conditions,Financial conditions,financial
2000-06,2000Q2,496.0,BAAFFM,2.63,2.441633798738804,2000-06,gdp_growth,0.18836620126119594,-0.0065082829150105844,-0.0012259405294336868,financial_conditions,Financial conditions,financial
2000-06,2000Q2,496.0,BUSLOANS,0.011320062794101915,0.0003070695659980763,2000-06,gdp_growth,0.011012993228103838,-0.1450365947211886,-0.001597287035491691,financial_conditions,Financial conditions,financial
2000-06,2000Q2,496.0,CES3000000008,-0.004907614870353072,-0.0008802085010848169,2000-06,gdp_growth,-0.004027406369268255,1.4976920673709149,-0.006031814571332163,labor_market,Labor market,labor
2000-06,2000Q2,496.0,CLAIMSx,0.045702153480855934,-0.007071277027969266,2000-06,gdp_growth,0.0527734305088252,0.045030266320539664,0.0023764016304608916,labor_market,Labor market,labor
2000-06,2000Q2,496.0,CLF16OV,-0.005260573187081619,0.0013872068557877423,2000-06,gdp_growth,-0.006647780042869361,1.0502523351253843,-0.006981846513423474,labor_market,Labor market,labor
2000-06,2000Q2,496.0,CPIAUCSL,0.0005839416224331373,0.0009969928555196997,2000-06,gdp_growth,-0.0004130512330865624,-1.234745484334373,0.0005100131448523775,prices_inflation,Prices & inflation,prices
2000-06,2000Q2,496.0,CPIULFSL,0.0,0.0020579064163868907,2000-06,gdp_growth,-0.0020579064163868907,-0.26133075370922004,0.0005377942348574261,prices_inflation,Prices & inflation,prices
2000-06,2000Q2,496.0,CUMFNS,-0.09999999999999433,0.1630889567388608,2000-06,gdp_growth,-0.2630889567388551,0.00477357570054874,-0.0012558750509713173,real_activity_income,Real activity & income,real_activity
2000-06,2000Q2,496.0,CUSR0000SAC,0.0013386786313267507,0.003000286128660721,2000-06,gdp_growth,-0.0016616074973339703,-2.2318648828369234,0.003708483422358235,prices_inflation,Prices & inflation,prices
2000-06,2000Q2,496.0,CUSR0000SAS,0.0005113235581237774,-0.0004038432571821898,2000-06,gdp_growth,0.0009151668153059673,1.2085688044238239,0.0011060420638226913,prices_inflation,Prices & inflation,prices
2000-06,2000Q2,496.0,FEDFUNDS,0.24999999999999997,0.18172946478410945,2000-06,gdp_growth,0.06827053521589055,-0.0037143162214652724,-0.0002535783564004984,financial_conditions,Financial conditions,financial
2000-06,2000Q2,496.0,GS10,0.4500000000000002,-0.027551597561911216,2000-06,gdp_growth,0.4775515975619114,-0.008601711057744913,-0.004107760857392042,financial_conditions,Financial conditions,financial
2000-06,2000Q2,496.0,HOUST,7.3727463664043285,7.397203050296876,2000-06,gdp_growth,-0.024456683892547793,-0.4116415988674418,0.010067388460523984,housing_construction,Housing & construction,housing
2000-06,2000Q2,496.0,HOUSTMW,5.82600010738045,5.8860297899997915,2000-06,gdp_growth,-0.06002968261934204,-0.025102871562811328,0.0015069174127496706,housing_construction,Housing & construction,housing
2000-06,2000Q2,496.0,HOUSTNE,5.017279836814924,5.0256756470187405,2000-06,gdp_growth,-0.008395810203816422,0.019546689128492122,-0.00016411029203582169,housing_construction,Housing & construction,housing
2000-06,2000Q2,496.0,HOUSTS,6.590301048196686,6.548447552289545,2000-06,gdp_growth,0.0418534959071409,-0.11393249386787188,-0.0047684731657893316,housing_construction,Housing & construction,housing
2000-06,2000Q2,496.0,HOUSTW,5.924255797414532,6.0335139489866725,2000-06,gdp_growth,-0.10925815157214039,-0.02826334748372978,0.003088001103313421,housing_construction,Housing & construction,housing
2000-06,2000Q2,496.0,INDPRO,0.0037737860788880084,0.004614648717908931,2000-06,gdp_growth,-0.0008408626390209222,-0.7464692813555055,0.0006276781298686416,real_activity_income,Real activity & income,real_activity
2000-06,2000Q2,496.0,IPCONGD,-0.0008480589615338379,0.003805444172219948,2000-06,gdp_growth,-0.004653503133753786,-0.9719202963438955,0.004522834144795226,real_activity_income,Real activity & income,real_activity
2000-06,2000Q2,496.0,IPFINAL,0.002977431485653881,0.0045570701595404085,2000-06,gdp_growth,-0.001579638673886528,-0.5135344015965232,0.0008111988011330435,real_activity_income,Real activity & income,real_activity
2000-06,2000Q2,496.0,IPMANSICS,0.003076884342082309,0.00547298834649834,2000-06,gdp_growth,-0.002396104004416032,3.3705082004800273,-0.008076088196087267,real_activity_income,Real activity & income,real_activity
2000-06,2000Q2,496.0,MANEMP,-0.0009200379488110144,0.0018792320205198276,2000-06,gdp_growth,-0.0027992699693308422,0.046073527415096106,-0.0001289722416742198,labor_market,Labor market,labor
2000-06,2000Q2,496.0,OILPRICEx,0.26111227341910714,0.034048176054157234,2000-06,gdp_growth,0.2270640973649499,-0.05762432665307289,-0.01308441571774302,prices_inflation,Prices & inflation,prices
2000-06,2000Q2,496.0,PAYEMS,0.0017561402887178446,0.0025154229982309075,2000-06,gdp_growth,-0.0007592827095130627,2.4986030830811856,-0.0018971461189195747,labor_market,Labor market,labor
2000-06,2000Q2,496.0,PERMIT,7.32052696227274,7.330165875007033,2000-06,gdp_growth,-0.009638912734292978,-0.09232276917010512,0.0008898911154189174,housing_construction,Housing & construction,housing
2000-06,2000Q2,496.0,REALLN,0.00033337888653495185,-0.0003317525831639566,2000-06,gdp_growth,0.0006651314696989086,3.456663909784305,0.00229913594657001,financial_conditions,Financial conditions,financial
2000-06,2000Q2,496.0,RETAILx,-0.0031119636663508024,0.007874142651858795,2000-06,gdp_growth,-0.010986106318209598,0.23245032453520623,-0.0025537239790461006,demand_orders_inventories,Demand / orders / inventories,demand
2000-06,2000Q2,496.0,RPI,0.003628163176822241,0.003421074806159851,2000-06,gdp_growth,0.00020708837066238974,3.883830594040548,0.0008042961496485983,real_activity_income,Real activity & income,real_activity
2000-06,2000Q2,496.0,T10YFFM,0.17000000000000004,0.02561536863593883,2000-06,gdp_growth,0.14438463136406124,-0.041574730827902244,-0.006002752184646738,financial_conditions,Financial conditions,financial
2000-06,2000Q2,496.0,TB3MS,0.1299999999999999,0.10114774096134072,2000-06,gdp_growth,0.028852259038659178,-0.0032853543639670066,-9.478989514296544e-05,financial_conditions,Financial conditions,financial
2000-06,2000Q2,496.0,TWEXAFEGSMTHx,0.03067411534249498,0.002704304957943785,2000-06,gdp_growth,0.027969810384551194,-0.08011132245671394,-0.002240698498769927,financial_conditions,Financial conditions,financial
2000-06,2000Q2,496.0,UEMPMEAN,0.1999999999999993,0.03577511926103063,2000-06,gdp_growth,0.16422488073896865,-0.01438439221598166,-0.002362275096172137,labor_market,Labor market,labor
2000-06,2000Q2,496.0,UNRATE,0.19999999999999973,-0.010804667871935056,2000-06,gdp_growth,0.21080466787193478,-0.010038250637909214,-0.0021161100917396892,labor_market,Labor market,labor
2000-06,2000Q2,496.0,W875RX1,0.0010756062525807408,0.003254202727521693,2000-06,gdp_growth,-0.002178596474940952,5.909166870995647,-0.012873690114988973,real_activity_income,Real activity & income,real_activity
2000-06,2000Q2,496.0,WPSFD49207,0.002909092960684312,0.0023343818311989334,2000-06,gdp_growth,0.0005747111294853785,-1.2994369593427628,-0.0007468008825989251,prices_inflation,Prices & inflation,prices
2000-06,2000Q2,501.0,gdp_growth,2.073310824742549,3.8694652054977983,2000-06,gdp_growth,-1.7961543807552494,-2.728187078775521,4.900245173062518,,,
2000-06,2000Q2,504.0,gdp_growth,0.9924565024291474,3.696177773564538,2000-06,gdp_growth,-2.7037212711353904,-4.584084289445935,12.394086202052534,,,
2000-06,2000Q2,507.0,gdp_growth,6.1938436438246445,3.592198533092812,2000-06,gdp_growth,2.6016451107318326,-6.290984687149235,-16.366909553010636,,,
2000-06,2000Q2,510.0,gdp_growth,5.631497921479263,3.529836198155988,2000-06,gdp_growth,2.1016617233232746,-7.832678084763672,-16.461639721860866,,,
2000-06,2000Q2,513.0,gdp_growth,6.219680781501317,3.492433817144268,2000-06,gdp_growth,2.7272469643570494,-9.215623235552178,-25.133280493817967,,,
2000-06,2000Q2,516.0,gdp_growth,1.6355760074181738,3.4700013972285193,2000-06,gdp_growth,-1.8344253898103455,-10.44556229018995,19.161604675969944,,,
2000-06,2000Q2,519.0,gdp_growth,0.7643801294178423,3.456547348322866,2000-06,gdp_growth,-2.692167218905024,-11.528248692783986,31.03597322209774,,,
2000-06,2000Q2,522.0,gdp_growth,-5.6396730175676115,3.4484781595043854,2000-06,gdp_growth,-9.088151177071998,-12.469429943697277,113.32406442022922,,,
2000-06,2000Q2,525.0,gdp_growth,-1.1116504165719063,3.4436385897477355,2000-06,gdp_growth,-4.555289006319643,-13.274850801300524,60.47078191569778,,,
2000-06,2000Q2,528.0,gdp_growth,4.504986962508574,3.440736013546291,2000-06,gdp_growth,1.0642509489622831,-13.950254580059465,-14.846571675093722,,,
2000-06,2000Q2,531.0,gdp_growth,-4.142714975007825,3.438995166936194,2000-06,gdp_growth,-7.58171014194402,-14.501383840324635,109.94528893441242,,,
2000-06,2000Q2,534.0,gdp_growth,16.220150658451722,3.437951078268211,2000-06,gdp_growth,12.782199580183512,-14.93398074838722,-190.88912245250378,,,
2000-06,2000Q2,537.0,gdp_growth,11.819903840389086,3.4373248765452744,2000-06,gdp_growth,8.382578963843812,-15.253787264641817,-127.86607624353515,,,
2000-06,2000Q2,540.0,gdp_growth,15.189003262281336,3.4369493063376537,2000-06,gdp_growth,11.75205395594368,-15.46654524190293,-181.76367419488722,,,
2000-06,2000Q2,543.0,gdp_growth,7.109968894465051,3.4367240546724385,2000-06,gdp_growth,3.673244839792612,-15.577996476763845,-57.22179517258028,,,
2000-06,2000Q2,546.0,gdp_growth,4.4452461798337035,3.436588957927136,2000-06,gdp_growth,1.0086572219065677,-15.593882736440845,-15.728882439675209,,,
2000-06,2000Q2,549.0,gdp_growth,6.754046184990854,3.4365079324191825,2000-06,gdp_growth,3.317538252571672,-15.519945772810082,-51.488013779135464,,,
2000-06,2000Q2,552.0,gdp_growth,7.9267037467613015,3.43645933663011,2000-06,gdp_growth,4.490244410131191,-15.361927329727049,-68.97880832114845,,,
2000-06,2000Q2,555.0,gdp_growth,0.7602293836284155,3.436430190861386,2000-06,gdp_growth,-2.6762008072329704,-15.125569146851124,40.47906036066109,,,
2000-06,2000Q2,558.0,gdp_growth,4.61709549116793,3.4364127104201634,2000-06,gdp_growth,1.180682780747767,-14.816612961656325,-17.493719792831797,,,
2000-06,2000Q2,561.0,gdp_growth,0.3216382279495673,3.4364022263657468,2000-06,gdp_growth,-3.1147639984161795,-14.440800510470359,44.97968553832306,,,
2000-06,2000Q2,564.0,gdp_growth,2.5212411873146023,3.4363959384582725,2000-06,gdp_growth,-0.9151547511436703,-14.003873529018842,12.81571139449667,,,
2000-06,2000Q2,567.0,gdp_growth,13.033471903589996,3.4363921672282856,2000-06,gdp_growth,9.59707973636171,-13.511573752729138,-129.67165066867355,,,
2000-06,2000Q2,570.0,gdp_growth,7.313415512251933,3.436389905398627,2000-06,gdp_growth,3.8770256068533064,-12.969642916842968,-50.283637700343796,,,
2000-06,2000Q2,573.0,gdp_growth,3.2659825613008446,3.436388548845613,2000-06,gdp_growth,-0.1704059875447683,-12.383822756532778,2.110277546406343,,,
2000-06,2000Q2,576.0,gdp_growth,-2.558107265952017,3.436387735240542,2000-06,gdp_growth,-5.99449500119256,-11.759855006905475,70.49439205364418,,,
2000-06,2000Q2,579.0,gdp_growth,-6.457502807634592,3.436387247273464,2000-06,gdp_growth,-9.893890054908058,-11.103481403051806,109.85662422851082,,,
2000-06,2000Q2,582.0,gdp_growth,-1.996967528158788,3.4363869546107475,2000-06,gdp_growth,-5.433354482769536,-10.420443680015993,56.617964381262375,,,
2000-06,2000Q2,585.0,gdp_growth,0.5980769849233187,3.4363867790836085,2000-06,gdp_growth,-2.8383097941602897,-9.716483572806315,27.578390489493728,,,
2000-06,2000Q2,588.0,gdp_growth,4.304422782519295,3.436386673809602,2000-06,gdp_growth,0.8680361087096933,-8.99734281636741,-7.81001844704668,,,
2000-06,2000Q2,591.0,gdp_growth,7.853087278855545,3.4363866106705543,2000-06,gdp_growth,4.4167006681849905,-8.268763145502247,-36.5206517098032,,,
2000-06,2000Q2,594.0,gdp_growth,11.27445910238692,3.4363865728023337,2000-06,gdp_growth,7.838072529584587,-7.536486294769847,-59.071526196626266,,,
2000-06,2000Q2,597.0,gdp_growth,6.343677340087668,3.4363865500905217,2000-06,gdp_growth,2.907290789997146,-6.806253998254357,-19.787759563506146,,,
2000-06,2000Q2,600.0,gdp_growth,5.301866261741108,3.436386536468905,2000-06,gdp_growth,1.865479725272203,-6.083807989138793,-11.34922045618747,,,
2000-06,2000Q2,603.0,gdp_growth,2.108736350100898,3.436386528299216,2000-06,gdp_growth,-1.327650178198318,-5.374889998865337,7.135973664789922,,,
2000-06,2000Q2,606.0,gdp_growth,-1.7125005574225018,3.4363865233993702,2000-06,gdp_growth,-5.148887080821872,-4.685241755568936,24.12378074577608,,,
2000-06,2000Q2,609.0,gdp_growth,3.1371236482209914,3.436386520460643,2000-06,gdp_growth,-0.2992628722396516,-4.020604981027699,1.203217794763399,,,
2000-06,2000Q2,612.0,gdp_growth,-0.4493330685466774,3.4363865186981144,2000-06,gdp_growth,-3.885719587244792,-3.3867213848790407,13.159849621765296,,,
2000-06,2000Q2,615.0,gdp_growth,6.5217321323415085,3.4363865176410218,2000-06,gdp_growth,3.0853456147004867,-2.789332653513188,-8.606055270457787,,,
2000-06,2000Q2,618.0,gdp_growth,2.260464080123933,3.436386517007021,2000-06,gdp_growth,-1.175922436883088,-2.234180428830996,2.6272228943074474,,,
2000-06,2000Q2,621.0,gdp_growth,-0.9173474344508965,3.436386516626773,2000-06,gdp_growth,-4.35373395107767,-1.727006267591217,7.518925820935809,,,
2000-06,2000Q2,624.0,gdp_growth,3.8751845383281482,3.436386516398716,2000-06,gdp_growth,0.43879802192943235,-1.2735515635988017,-0.5588319069322899,,,
2000-06,2000Q2,627.0,gdp_growth,-4.187562531556681,3.4363865162619365,2000-06,gdp_growth,-7.623949047818619,-0.8795573988808987,6.705700793699848,,,
2000-06,2000Q2,630.0,gdp_growth,-10.919763226621516,3.436386516179902,2000-06,gdp_growth,-14.356149742801417,-0.5507642562863346,7.906854136229277,,,
2000-06,2000Q2,633.0,gdp_growth,2.3168815216681486,3.436386516130701,2000-06,gdp_growth,-1.1195049944625521,-0.29291155298705024,0.3279159465047852,,,
2000-06,2000Q2,636.0,gdp_growth,8.878522005283216,3.436386516101192,2000-06,gdp_growth,5.442135489182023,-0.11173402758584225,-0.6080717168741553,,,
2000-06,2000Q2,639.0,gdp_growth,8.90136641403972,3.436386516083494,2000-06,gdp_growth,5.464979897956225,-0.013043407267191658,-0.07128195851605855,,,
2000-08,2000Q3,496.0,CMRMTSPLx,0.0082235111683886,0.004129342510440963,2000-09,gdp_growth,0.004094168657947636,0.02547892865724021,0.00010431503114655672,demand_orders_inventories,Demand / orders / inventories,demand
2000-08,2000Q3,497.0,BUSINVx,0.008842833074629297,0.00696409588517998,2000-09,gdp_growth,0.0018787371894493172,-0.12240516682701753,-0.00022996713909866572,demand_orders_inventories,Demand / orders / inventories,demand
2000-08,2000Q3,497.0,CMRMTSPLx,0.0065017670130540495,0.01475109133181059,2000-09,gdp_growth,-0.008249324318756543,0.03667251941000606,-0.0003025235061990343,demand_orders_inventories,Demand / orders / inventories,demand
2000-08,2000Q3,497.0,ISRATIOx,0.0,-0.021066092729932213,2000-09,gdp_growth,0.021066092729932213,-0.07905116536373631,-0.0016652991799616748,demand_orders_inventories,Demand / orders / inventories,demand
2000-08,2000Q3,497.0,NONREVSL,0.0005113159048102389,-0.0016247229922332544,2000-09,gdp_growth,0.002136038897043493,-0.06709968154390537,-0.00014332752975701327,financial_conditions,Financial conditions,financial
2000-08,2000Q3,497.0,RPI,0.0014043119879953991,0.0030559218454385105,2000-09,gdp_growth,-0.0016516098574431114,0.02050522195795239,-3.3866626714813106e-05,real_activity_income,Real activity & income,real_activity
2000-08,2000Q3,497.0,W875RX1,0.0034373539344478843,0.0029802406582609413,2000-09,gdp_growth,0.0004571132761869429,0.04777959355146347,2.1840686543189995e-05,real_activity_income,Real activity & income,real_activity
2000-08,2000Q3,497.0,gdp_growth,5.0593628237917585,3.444226034009628,2000-09,gdp_growth,1.6151367897821305,0.20540296098592217,0.3317538790185465,,,
2000-08,2000Q3,498.0,AMDMNOx,-0.13247063773541967,-0.00017032877488652384,2000-09,gdp_growth,-0.13230030896053313,-0.01855131189369767,0.0024543442951594145,demand_orders_inventories,Demand / orders / inventories,demand
2000-08,2000Q3,498.0,AMDMUOx,-0.0032264132731523176,0.02727656760782434,2000-09,gdp_growth,-0.030502980880976662,-0.03169063280498599,0.0009666587665565395,demand_orders_inventories,Demand / orders / inventories,demand
2000-08,2000Q3,498.0,ANDENOx,-0.1301561113717824,0.015960338541576947,2000-09,gdp_growth,-0.14611644991335934,-0.014956863047326326,0.002185443730315632,demand_orders_inventories,Demand / orders / inventories,demand
2000-08,2000Q3,498.0,AWHMAN,41.7,41.49657165575991,2000-09,gdp_growth,0.203428344240098,-9.800101344789362e-05,-1.9936183899556577e-05,labor_market,Labor market,labor
2000-08,2000Q3,498.0,BAA,-0.13000000000000078,-0.20352080407656267,2000-09,gdp_growth,0.0735208040765619,0.003927256964311679,0.0002887350898314722,financial_conditions,Financial conditions,financial
2000-08,2000Q3,498.0,BAAFFM,1.81,2.268051097431024,2000-09,gdp_growth,-0.45805109743102373,0.0012395885844913447,-0.0005677949114892297,financial_conditions,Financial conditions,financial
2000-08,2000Q3,498.0,BUSLOANS,-0.0015491271696213005,-0.00010224652474762462,2000-09,gdp_growth,-0.001446880644873676,0.17135387579579806,-0.00024792860631302807,financial_conditions,Financial conditions,financial
2000-08,2000Q3,498.0,CES3000000008,-0.004197752831581525,-0.0024729127507898806,2000-09,gdp_growth,-0.0017248400807916436,-0.08284566692508648,0.00014289552683230375,labor_market,Labor market,labor
2000-08,2000Q3,498.0,CLAIMSx,-0.023451661035049476,0.020153881572951848,2000-09,gdp_growth,-0.04360554260800132,-0.011561455025201063,0.000504143519711896,labor_market,Labor market,labor
2000-08,2000Q3,498.0,CLF16OV,-0.0025821518752024986,0.001190683062345917,2000-09,gdp_growth,-0.0037728349375484157,0.0075687364301281765,-2.8555593236683058e-05,labor_market,Labor market,labor
2000-08,2000Q3,498.0,CPIAUCSL,-0.0035018965850603934,0.0005439787276671254,2000-09,gdp_growth,-0.004045875312727518,-0.14803531287076996,0.0005989324177557425,prices_inflation,Prices & inflation,prices
2000-08,2000Q3,498.0,CPIULFSL,-0.004646079885193721,-0.00046271067046781415,2000-09,gdp_growth,-0.004183369214725907,-0.18896099526060264,0.0007904936103571732,prices_inflation,Prices & inflation,prices
2000-08,2000Q3,498.0,CUMFNS,0.19999999999998863,-0.08386259456828576,2000-09,gdp_growth,0.2838625945682744,0.004911029472319664,0.0013940575680139234,real_activity_income,Real activity & income,real_activity
2000-08,2000Q3,498.0,CUSR0000SAC,-0.005365986189062255,0.000946866500402067,2000-09,gdp_growth,-0.0063128526894643214,-0.1019394197742824,0.0006435285402845111,prices_inflation,Prices & inflation,prices
2000-08,2000Q3,498.0,CUSR0000SAS,-0.0005321795616710645,0.0010483568126597705,2000-09,gdp_growth,-0.001580536374330835,-0.2263432977839448,0.0003577438152335206,prices_inflation,Prices & inflation,prices
2000-08,2000Q3,498.0,FEDFUNDS,0.009999999999999787,0.10438114825895808,2000-09,gdp_growth,-0.0943811482589583,0.0004636308348820528,-4.375801056442764e-05,financial_conditions,Financial conditions,financial
2000-08,2000Q3,498.0,GS10,-0.04999999999999983,-0.1826637601982448,2000-09,gdp_growth,0.132663760198245,0.0028997819597683344,0.0003846959785379032,financial_conditions,Financial conditions,financial
2000-08,2000Q3,498.0,HOUST,7.321188556739478,7.344564926945479,2000-09,gdp_growth,-0.023376370206000592,0.0008829546825787407,-2.0640275535082386e-05,housing_construction,Housing & construction,housing
2000-08,2000Q3,498.0,HOUSTMW,5.771441123130016,5.685884437898996,2000-09,gdp_growth,0.08555668523101967,0.00019885670016732372,1.7013520102294973e-05,housing_construction,Housing & construction,housing
2000-08,2000Q3,498.0,HOUSTNE,4.941642422609304,4.992435496451482,2000-09,gdp_growth,-0.050793073842178633,0.00019205469179976533,-9.75504814232234e-06,housing_construction,Housing & construction,housing
2000-08,2000Q3,498.0,HOUSTS,6.489204931325317,6.601489395551181,2000-09,gdp_growth,-0.11228446422586422,-0.00021730039581662342,2.439945852033779e-05,housing_construction,Housing & construction,housing
2000-08,2000Q3,498.0,HOUSTW,5.973809611869261,5.885046671772275,2000-09,gdp_growth,0.08876294009698629,0.0002530935762079144,2.246532994387514e-05,housing_construction,Housing & construction,housing
2000-08,2000Q3,498.0,INDPRO,0.003702163131762859,0.003101445598828415,2000-09,gdp_growth,0.0006007175329344439,-0.09343542082274457,-5.612829548533069e-05,real_activity_income,Real activity & income,real_activity
2000-08,2000Q3,498.0,IPCONGD,-0.005016442931145448,0.0006810959879799232,2000-09,gdp_growth,-0.0056975389191253716,0.04974270714297942,-0.00028341100988978085,real_activity_income,Real activity & income,real_activity
2000-08,2000Q3,498.0,IPFINAL,0.0034860089054307153,0.0018685003810492578,2000-09,gdp_growth,0.0016175085243814575,0.030875429745135446,4.9941270806697394e-05,real_activity_income,Real activity & income,real_activity
2000-08,2000Q3,498.0,IPMANSICS,0.0053984451836672775,0.002851590989791945,2000-09,gdp_growth,0.0025468541938753323,-0.37417915520868267,-0.0009529797507039624,real_activity_income,Real activity & income,real_activity
2000-08,2000Q3,498.0,MANEMP,0.0024844733276623288,-0.0009350084415903528,2000-09,gdp_growth,0.0034194817692526818,-0.005841583771645832,-1.9975189210705244e-05,labor_market,Labor market,labor
2000-08,2000Q3,498.0,OILPRICEx,-0.16763660610109632,0.03236241193834921,2000-09,gdp_growth,-0.19999901803944556,0.0018524664552830685,-0.0003704914720076262,prices_inflation,Prices & inflation,prices
2000-08,2000Q3,498.0,PAYEMS,-0.0008208808207648135,0.0017328218841413255,2000-09,gdp_growth,-0.0025537027049061392,0.05110206745326089,-0.00013049948788168832,labor_market,Labor market,labor
2000-08,2000Q3,498.0,PERMIT,7.32052696227274,7.291583725726595,2000-09,gdp_growth,0.02894323654614456,-0.0007901860422941655,-2.2870541537581823e-05,housing_construction,Housing & construction,housing
2000-08,2000Q3,498.0,REALLN,-0.000716468182655916,5.11303894451897e-05,2000-09,gdp_growth,-0.0007675985721011057,0.269713080953808,-0.00020703137581713296,financial_conditions,Financial conditions,financial
2000-08,2000Q3,498.0,RETAILx,0.007423476364445847,0.0067211970016156156,2000-09,gdp_growth,0.0007022793628302315,0.04382551515280468,3.0777754857218325e-05,demand_orders_inventories,Demand / orders / inventories,demand
2000-08,2000Q3,498.0,RPI,0.000506628398914799,0.002644624419315924,2000-09,gdp_growth,-0.002137996020401125,0.016356288285752286,-3.496967926347192e-05,real_activity_income,Real activity & income,real_activity
2000-08,2000Q3,498.0,T10YFFM,-0.49,-0.13084120607080651,2000-09,gdp_growth,-0.3591587939291936,0.0001789860688758985,-6.428442062759528e-05,financial_conditions,Financial conditions,financial
2000-08,2000Q3,498.0,TB3MS,0.2699999999999996,-0.0934913351315747,2000-09,gdp_growth,0.3634913351315743,0.0009970126097724908,0.00036240544466921795,financial_conditions,Financial conditions,financial
2000-08,2000Q3,498.0,TWEXAFEGSMTHx,0.00905542306416418,-0.011203910367609113,2000-09,gdp_growth,0.02025933343177329,0.026551525962855142,0.0005379162176038677,financial_conditions,Financial conditions,financial
2000-08,2000Q3,498.0,UEMPMEAN,0.9000000000000004,-0.14231826686708948,2000-09,gdp_growth,1.0423182668670898,0.0015774474312666175,0.0016442022726317635,labor_market,Labor market,labor
2000-08,2000Q3,498.0,UNRATE,0.0,0.06306701664441014,2000-09,gdp_growth,-0.06306701664441013,-1.48894394230409e-05,9.390325239188567e-07,labor_market,Labor market,labor
2000-08,2000Q3,498.0,W875RX1,0.0007009642273292371,0.0016675228040121419,2000-09,gdp_growth,-0.0009665585766829046,0.037392758284053,-3.614229122528216e-05,real_activity_income,Real activity & income,real_activity
2000-08,2000Q3,498.0,WPSFD49207,-0.005809747641321472,0.0019332458914517413,2000-09,gdp_growth,-0.0077429935327732145,-0.0764797573119101,0.000592182266254185,prices_inflation,Prices & inflation,prices
2000-09,2000Q3,498.0,BUSINVx,0.00242948338017257,0.009147878193626759,2000-09,gdp_growth,-0.0067183948134541885,-0.028045890408067747,0.00018842336465626692,demand_orders_inventories,Demand / orders / inventories,demand
2000-09,2000Q3,498.0,ISRATIOx,0.010000000000000009,0.024952006031139028,2000-09,gdp_growth,-0.01495200603113902,0.007183912900626486,-0.00010741390901734464,demand_orders_inventories,Demand / orders / inventories,demand
2000-09,2000Q3,498.0,NONREVSL,-0.004069602651281201,-0.004193977575908011,2000-09,gdp_growth,0.00012437492462681043,0.09431139937081502,1.1729973188194135e-05,financial_conditions,Financial conditions,financial
2000-09,2000Q3,499.0,AMDMNOx,0.02880791008823813,0.05217825435378228,2000-09,gdp_growth,-0.02337034426554415,-0.008475319706280519,0.00019807113929632626,demand_orders_inventories,Demand / orders / inventories,demand
2000-09,2000Q3,499.0,AMDMUOx,0.0025422550681177825,0.0016229483588249944,2000-09,gdp_growth,0.000919306709292788,-0.12343895041327684,-0.00011347825530298516,demand_orders_inventories,Demand / orders / inventories,demand
2000-09,2000Q3,499.0,ANDENOx,0.05435866117553089,0.049539150422751234,2000-09,gdp_growth,0.004819510752779657,-0.003177005759697314,-1.531161342050411e-05,demand_orders_inventories,Demand / orders / inventories,demand
2000-09,2000Q3,499.0,AWHMAN,41.3,41.60147562871544,2000-09,gdp_growth,-0.3014756287154407,0.018406260047655346,-0.005549038820166793,labor_market,Labor market,labor
2000-09,2000Q3,499.0,BAA,-0.08999999999999986,-0.01073475218424718,2000-09,gdp_growth,-0.07926524781575268,-0.004636289994200334,0.00036749667533598405,financial_conditions,Financial conditions,financial
2000-09,2000Q3,499.0,BAAFFM,1.76,1.9484724886092084,2000-09,gdp_growth,-0.18847248860920834,0.00409429539451533,-0.0007716620421055247,financial_conditions,Financial conditions,financial
2000-09,2000Q3,499.0,BUSLOANS,0.002464473413794188,0.0006322899669207883,2000-09,gdp_growth,0.0018321834468733996,-0.06260696319326475,-0.00011470744162171188,financial_conditions,Financial conditions,financial
2000-09,2000Q3,499.0,CES3000000008,0.001381655286205152,0.001762488681387685,2000-09,gdp_growth,-0.0003808333951825328,-0.0422351253194552,1.6084546171367878e-05,labor_market,Labor market,labor
2000-09,2000Q3,499.0,CLAIMSx,0.05922783420033274,0.004185831967877019,2000-09,gdp_growth,0.05504200223245571,0.008432378845984401,0.0004641350152655857,labor_market,Labor market,labor
2000-09,2000Q3,499.0,CLF16OV,0.002440057979317345,0.00246654662706044,2000-09,gdp_growth,-2.6488647743095128e-05,-0.11312964654215263,2.996651356555941e-06,labor_market,Labor market,labor
2000-09,2000Q3,499.0,CPIAUCSL,-0.002896369357685557,0.001062782471553653,2000-09,gdp_growth,-0.0039591518292392104,-0.08400289316155238,0.00033258020812194607,prices_inflation,Prices & inflation,prices
2000-09,2000Q3,499.0,CPIULFSL,-0.0023084697891588846,0.001949957120785477,2000-09,gdp_growth,-0.004258426909944361,-0.04101522989826494,0.00017466035871632594,prices_inflation,Prices & inflation,prices
2000-09,2000Q3,499.0,CUMFNS,-0.20000000000000284,-0.08730297545915372,2000-09,gdp_growth,-0.11269702454084912,0.006947667440109854,-0.0007829814479997187,real_activity_income,Real activity & income,real_activity
2000-09,2000Q3,499.0,CUSR0000SAC,-0.00535521136532946,0.002137816947904729,2000-09,gdp_growth,-0.007493028313234189,-0.05901980058533282,0.0004422370368273346,prices_inflation,Prices & inflation,prices
2000-09,2000Q3,499.0,CUSR0000SAS,-0.0015430063515591288,6.294803812364266e-05,2000-09,gdp_growth,-0.0016059543896827712,-0.006268493968663837,1.0066915405675664e-05,prices_inflation,Prices & inflation,prices
2000-09,2000Q3,499.0,DDURRG3M086SBEA,-0.0025199487359683914,-0.0011448574140597101,2000-09,gdp_growth,-0.001375091321908681,0.0617850214322362,-8.496004679540987e-05,prices_inflation,Prices & inflation,prices
2000-09,2000Q3,499.0,DSERRG3M086SBEA,-0.0007296290511087378,-0.0005898240028098326,2000-09,gdp_growth,-0.00013980504829890517,0.038834297224160944,-5.429230799077859e-06,prices_inflation,Prices & inflation,prices
2000-09,2000Q3,499.0,FEDFUNDS,-0.040000000000000036,0.07570887675283121,2000-09,gdp_growth,-0.11570887675283124,-0.0007641498502813788,8.841892084690251e-05,financial_conditions,Financial conditions,financial
2000-09,2000Q3,499.0,GS10,-0.21999999999999972,0.041506449881475234,2000-09,gdp_growth,-0.261506449881475,-0.003116257301558644,0.000814921383847826,financial_conditions,Financial conditions,financial
2000-09,2000Q3,499.0,HOUST,7.333676395657684,7.326785536041768,2000-09,gdp_growth,0.006890859615915363,-0.03872135962537814,-0.0002668234533158539,housing_construction,Housing & construction,housing
2000-09,2000Q3,499.0,HOUSTMW,5.717027701406222,5.769782768990738,2000-09,gdp_growth,-0.05275506758451643,-0.011322513523260708,0.0005973199661462199,housing_construction,Housing & construction,housing
2000-09,2000Q3,499.0,HOUSTNE,4.976733742420574,5.043023818342953,2000-09,gdp_growth,-0.0662900759223791,-0.030619524366348794,0.0020297705949523983,housing_construction,Housing & construction,housing
2000-09,2000Q3,499.0,HOUSTS,6.568077911411976,6.484162188792666,2000-09,gdp_growth,0.08391572261930969,0.0625269233305096,0.005246991954441887,housing_construction,Housing & construction,housing
2000-09,2000Q3,499.0,HOUSTW,5.91350300563827,5.937514628455406,2000-09,gdp_growth,-0.02401162281713651,0.011274186212134536,-0.00027071150689593547,housing_construction,Housing & construction,housing
2000-09,2000Q3,499.0,INDPRO,0.0032589891609822175,0.002463245376380485,2000-09,gdp_growth,0.0007957437846017324,-0.08262925151094591,-6.575171331612852e-05,real_activity_income,Real activity & income,real_activity
2000-09,2000Q3,499.0,IPCONGD,0.005055762843725553,0.0015083770081656804,2000-09,gdp_growth,0.003547385835559873,-0.053090807825316964,-0.00018833357967796066,real_activity_income,Real activity & income,real_activity
2000-09,2000Q3,499.0,IPFINAL,0.003910255424572462,0.002466137485856822,2000-09,gdp_growth,0.00144411793871564,-0.032843966812092715,-4.743056165192422e-05,real_activity_income,Real activity & income,real_activity
2000-09,2000Q3,499.0,IPMANSICS,0.0009256933442474136,0.002474758294102328,2000-09,gdp_growth,-0.0015490649498549143,-0.4168891217111434,0.0006457883264185316,real_activity_income,Real activity & income,real_activity
2000-09,2000Q3,499.0,MANEMP,-0.004269238292868849,-0.0008970845995942616,2000-09,gdp_growth,-0.003372153693274587,-0.4932584437608244,0.0016633432828669391,labor_market,Labor market,labor
2000-09,2000Q3,499.0,OILPRICEx,0.11446580632591764,0.058293081453742034,2000-09,gdp_growth,0.0561727248721756,-0.0035371331634186202,-0.0001986904080249623,prices_inflation,Prices & inflation,prices
2000-09,2000Q3,499.0,PAYEMS,-0.0007982150815131206,0.002152669332661289,2000-09,gdp_growth,-0.0029508844141744096,-0.9725848411830377,0.002869985449309319,labor_market,Labor market,labor
2000-09,2000Q3,499.0,PCEPI,-0.002326989461628237,-7.54335272954344e-05,2000-09,gdp_growth,-0.002251555934332803,-0.028951668044496153,6.518629999441869e-05,prices_inflation,Prices & inflation,prices
2000-09,2000Q3,499.0,PERMIT,7.303843225277705,7.281458745801614,2000-09,gdp_growth,0.022384479476090614,0.019941979306046295,0.000446390826488817,housing_construction,Housing & construction,housing
2000-09,2000Q3,499.0,REALLN,-0.0035389920118831237,4.909716409831903e-05,2000-09,gdp_growth,-0.003588089175981443,-0.11793444992422147,0.0004231593232484246,financial_conditions,Financial conditions,financial
2000-09,2000Q3,499.0,RETAILx,0.0016791065933592364,0.0041853135292108405,2000-09,gdp_growth,-0.002506206935851604,0.01525409099174943,-3.8229908643633896e-05,demand_orders_inventories,Demand / orders / inventories,demand
2000-09,2000Q3,499.0,RPI,0.0041106041516023595,0.003202395315331626,2000-09,gdp_growth,0.0009082088362707335,-0.0385092581787194,-3.497444855614397e-05,real_activity_income,Real activity & income,real_activity
2000-09,2000Q3,499.0,T10YFFM,-0.67,-0.2964102548682953,2000-09,gdp_growth,-0.3735897451317048,-0.01379837074502188,0.005154929809865496,financial_conditions,Financial conditions,financial
2000-09,2000Q3,499.0,TB3MS,0.1299999999999999,0.1782423389025188,2000-09,gdp_growth,-0.0482423389025189,-0.001228652114794212,5.927305171519893e-05,financial_conditions,Financial conditions,financial
2000-09,2000Q3,499.0,TWEXAFEGSMTHx,0.015037877364540542,0.0035524676359975937,2000-09,gdp_growth,0.01148540972854295,0.01630947642789335,0.0001873210192323682,financial_conditions,Financial conditions,financial
2000-09,2000Q3,499.0,UEMPMEAN,-0.3000000000000007,-0.17697017402353654,2000-09,gdp_growth,-0.12302982597646414,0.0005093044252356234,-6.265963480578184e-05,labor_market,Labor market,labor
2000-09,2000Q3,499.0,UNRATE,0.09999999999999963,0.021080040111094996,2000-09,gdp_growth,0.07891995988890463,0.003338902960103484,0.0002635060876843119,labor_market,Labor market,labor
2000-09,2000Q3,499.0,W875RX1,0.003961165042701609,0.0024958578405523423,2000-09,gdp_growth,0.0014653072021492662,-0.04396414056401297,-6.44209718047509e-05,real_activity_income,Real activity & income,real_activity
2000-09,2000Q3,499.0,WPSFD49207,-0.002174701835688353,0.0022084325932892473,2000-09,gdp_growth,-0.0043831344289775994,-0.03594152785286945,0.00015753654816196943,prices_inflation,Prices & inflation,prices
2000-09,2000Q3,504.0,gdp_growth,2.073310824742549,3.452937198362163,2000-09,gdp_growth,-1.3796263736196142,-3.9811577270536653,5.492510197782754,,,
2000-09,2000Q3,507.0,gdp_growth,0.992456502429147,3.4512338721309463,2000-09,gdp_growth,-2.4587773697017994,-7.096482002507177,17.448669352260755,,,
2000-09,2000Q3,510.0,gdp_growth,6.1938436438246445,3.4512117358077625,2000-09,gdp_growth,2.7426319080168815,-9.915118977787929,-27.193521680264897,,,
2000-09,2000Q3,513.0,gdp_growth,5.631497921479263,3.4512114810131562,2000-09,gdp_growth,2.1802864404661073,-12.462071501452366,-27.170885514735694,,,
2000-09,2000Q3,516.0,gdp_growth,6.219680781501317,3.4512114781290752,2000-09,gdp_growth,2.7684693033722416,-14.747257455406523,-40.82732957422039,,,
2000-09,2000Q3,519.0,gdp_growth,1.6355760074181735,3.451211478096511,2000-09,gdp_growth,-1.8156354706783375,-16.780176534009556,30.466683719392034,,,
2000-09,2000Q3,522.0,gdp_growth,0.7643801294178427,3.4512114780961434,2000-09,gdp_growth,-2.6868313486783006,-18.570316838577934,49.895309436779705,,,
2000-09,2000Q3,525.0,gdp_growth,-5.6396730175676115,3.4512114780961394,2000-09,gdp_growth,-9.090884495663751,-20.12716614903637,182.973742685923,,,
2000-09,2000Q3,528.0,gdp_growth,-1.1116504165719059,3.4512114780961394,2000-09,gdp_growth,-4.562861894668045,-21.460212236415583,97.91998466502957,,,
2000-09,2000Q3,531.0,gdp_growth,4.504986962508574,3.4512114780961394,2000-09,gdp_growth,1.0537754844124345,-22.57894287148365,-23.79313646191837,,,
2000-09,2000Q3,534.0,gdp_growth,-4.142714975007825,3.4512114780961394,2000-09,gdp_growth,-7.593926453103965,-23.49284582501129,178.4029433692463,,,
2000-09,2000Q3,537.0,gdp_growth,16.220150658451722,3.4512114780961394,2000-09,gdp_growth,12.768939180355583,-24.21140886776632,-309.15400730322995,,,
2000-09,2000Q3,540.0,gdp_growth,11.819903840389086,3.4512114780961394,2000-09,gdp_growth,8.368692362292947,-24.74411977051898,-207.0759261352041,,,
2000-09,2000Q3,543.0,gdp_growth,15.189003262281336,3.4512114780961394,2000-09,gdp_growth,11.737791784185196,-25.100466304052247,-294.62404716292184,,,
2000-09,2000Q3,546.0,gdp_growth,7.109968894465051,3.4512114780961394,2000-09,gdp_growth,3.6587574163689114,-25.289936239100705,-92.5297417743066,,,
2000-09,2000Q3,549.0,gdp_growth,4.4452461798337035,3.4512114780961394,2000-09,gdp_growth,0.9940347017375641,-25.322017346468513,-25.170963960390253,,,
2000-09,2000Q3,552.0,gdp_growth,6.754046184990854,3.4512114780961394,2000-09,gdp_growth,3.302834706894715,-25.206197396891415,-83.25190359129219,,,
2000-09,2000Q3,555.0,gdp_growth,7.926703746761301,3.4512114780961394,2000-09,gdp_growth,4.475492268665161,-24.951964161161676,-111.67232269128927,,,
2000-09,2000Q3,558.0,gdp_growth,0.7602293836284151,3.4512114780961394,2000-09,gdp_growth,-2.6909820944677243,-24.568805410026147,66.11421544084212,,,
2000-09,2000Q3,561.0,gdp_growth,4.61709549116793,3.4512114780961394,2000-09,gdp_growth,1.165884013071791,-24.06620891430869,-28.05840822843832,,,
2000-09,2000Q3,564.0,gdp_growth,0.32163822794956687,3.4512114780961394,2000-09,gdp_growth,-3.1295732501465725,-23.453662444697088,73.39995460489128,,,
2000-09,2000Q3,567.0,gdp_growth,2.5212411873146023,3.4512114780961394,2000-09,gdp_growth,-0.929970290781537,-22.74065377202613,21.148132400933395,,,
2000-09,2000Q3,570.0,gdp_growth,13.033471903589996,3.4512114780961394,2000-09,gdp_growth,9.582260425493857,-21.936670667025812,-210.20289119973336,,,
2000-09,2000Q3,573.0,gdp_growth,7.313415512251933,3.4512114780961394,2000-09,gdp_growth,3.862204034155794,-21.051200900515383,-81.3040330417946,,,
2000-09,2000Q3,576.0,gdp_growth,3.2659825613008446,3.4512114780961394,2000-09,gdp_growth,-0.18522891679529474,-20.093732243197106,3.7219402577820877,,,
2000-09,2000Q3,579.0,gdp_growth,-2.5581072659520183,3.4512114780961394,2000-09,gdp_growth,-6.009318744048158,-19.07375246589283,114.62025821262456,,,
2000-09,2000Q3,582.0,gdp_growth,-6.457502807634594,3.4512114780961394,2000-09,gdp_growth,-9.908714285730733,-18.00074933934608,178.36428213263656,,,
2000-09,2000Q3,585.0,gdp_growth,-1.9969675281587884,3.4512114780961394,2000-09,gdp_growth,-5.448179006254928,-16.88421063432799,91.98820191513195,,,
2000-09,2000Q3,588.0,gdp_growth,0.5980769849233187,3.4512114780961394,2000-09,gdp_growth,-2.8531344931728206,-15.73362412159785,44.89014568394675,,,
2000-09,2000Q3,591.0,gdp_growth,4.304422782519295,3.4512114780961394,2000-09,gdp_growth,0.853211304423156,-14.558477571958882,-12.421457639586299,,,
2000-09,2000Q3,594.0,gdp_growth,7.853087278855544,3.4512114780961394,2000-09,gdp_growth,4.401875800759405,-13.36825875615826,-58.84541471702307,,,
2000-09,2000Q3,597.0,gdp_growth,11.27445910238692,3.4512114780961394,2000-09,gdp_growth,7.823247624290781,-12.172455444959358,-95.22813314156367,,,
2000-09,2000Q3,600.0,gdp_growth,6.343677340087668,3.4512114780961394,2000-09,gdp_growth,2.8924658619915284,-10.980555409133903,-31.760881666626233,,,
2000-09,2000Q3,603.0,gdp_growth,5.301866261741108,3.4512114780961394,2000-09,gdp_growth,1.850654783644969,-9.802046419462116,-18.140204095687604,,,
2000-09,2000Q3,606.0,gdp_growth,2.108736350100898,3.4512114780961394,2000-09,gdp_growth,-1.3424751279952414,-8.646416246699573,11.607598757488145,,,
2000-09,2000Q3,609.0,gdp_growth,-1.7125005574225023,3.4512114780961394,2000-09,gdp_growth,-5.163712035518642,-7.523152661626058,38.84739394388258,,,
2000-09,2000Q3,612.0,gdp_growth,3.1371236482209914,3.4512114780961394,2000-09,gdp_growth,-0.31408782987514794,-6.441743434981946,2.023273216105961,,,
2000-09,2000Q3,615.0,gdp_growth,-0.4493330685466774,3.4512114780961394,2000-09,gdp_growth,-3.900544546642817,-5.411676337582269,21.10848462675249,,,
2000-09,2000Q3,618.0,gdp_growth,6.5217321323415085,3.4512114780961394,2000-09,gdp_growth,3.070520654245369,-4.442439140162556,-13.640601135097166,,,
2000-09,2000Q3,621.0,gdp_growth,2.260464080123933,3.4512114780961394,2000-09,gdp_growth,-1.1907473979722063,-3.5435196135005538,4.2194367594392626,,,
2000-09,2000Q3,624.0,gdp_growth,-0.9173474344508961,3.4512114780961394,2000-09,gdp_growth,-4.368558912547035,-2.7244055283630817,11.901726052322955,,,
2000-09,2000Q3,627.0,gdp_growth,3.8751845383281482,3.4512114780961394,2000-09,gdp_growth,0.42397306023200887,-1.994584655517107,-0.8456501602913951,,,
2000-09,2000Q3,630.0,gdp_growth,-4.187562531556682,3.4512114780961394,2000-09,gdp_growth,-7.638774009652821,-1.3635447653953183,10.415810314899911,,,
2000-09,2000Q3,633.0,gdp_growth,-10.919763226621516,3.4512114780961394,2000-09,gdp_growth,-14.370974704717655,-0.8407736167454322,12.082736378642583,,,
2000-09,2000Q3,636.0,gdp_growth,2.3168815216681486,3.4512114780961394,2000-09,gdp_growth,-1.1343299564279907,-0.43575854697201977,0.49429397359989574,,,
2000-09,2000Q3,639.0,gdp_growth,8.878522005283216,3.4512114780961394,2000-09,gdp_growth,5.4273105271870765,-0.1579716940830569,-0.857361438294551,,,
2000-09,2000Q3,642.0,gdp_growth,8.90136641403972,3.4512114780961394,2000-09,gdp_growth,5.45015493594358,-0.016336918873275475,-0.08903873903529216,,,
2000-11,2000Q4,500.0,BUSINVx,0.0008705277191012328,0.0052921808716289,2000-12,gdp_growth,-0.004421653152527667,2.1117999899458053,-0.009337647083051766,demand_orders_inventories,Demand / orders / inventories,demand
2000-11,2000Q4,500.0,ISRATIOx,-0.010000000000000009,-0.009199781223086003,2000-12,gdp_growth,-0.0008002187769140049,-0.5582353161766561,0.00044671038194108657,demand_orders_inventories,Demand / orders / inventories,demand
2000-11,2000Q4,500.0,NONREVSL,-0.003493632191815088,-0.0012759767559453062,2000-12,gdp_growth,-0.002217655435869782,0.9948594915914395,-0.0022062555594544032,financial_conditions,Financial conditions,financial
2000-11,2000Q4,500.0,gdp_growth,2.7078724458171086,3.947474777343281,2000-12,gdp_growth,-1.2396023315261722,0.15853114894267178,-0.1965155818488588,,,
2000-11,2000Q4,501.0,AMDMNOx,-0.0560930332592573,0.004134080530890613,2000-12,gdp_growth,-0.060227113790147904,0.38235937753517085,-0.023028401739540856,demand_orders_inventories,Demand / orders / inventories,demand
2000-11,2000Q4,501.0,AMDMUOx,-0.006106426603412984,0.009640914496250902,2000-12,gdp_growth,-0.015747341099663886,0.8470775369938193,-0.013339218912904826,demand_orders_inventories,Demand / orders / inventories,demand
2000-11,2000Q4,501.0,ANDENOx,-0.12046448232082518,-0.006352037326588178,2000-12,gdp_growth,-0.11411244499423699,0.0579241463501409,-0.006609865964218586,demand_orders_inventories,Demand / orders / inventories,demand
2000-11,2000Q4,501.0,AWHMAN,41.3,41.19291923068224,2000-12,gdp_growth,0.10708076931775422,-0.0009015474046189006,-9.653838966301652e-05,labor_market,Labor market,labor
2000-11,2000Q4,501.0,BAA,-0.009999999999999789,0.03609208687028997,2000-12,gdp_growth,-0.04609208687028976,-0.007703490305130058,0.0003550699443484896,financial_conditions,Financial conditions,financial
2000-11,2000Q4,501.0,BAAFFM,1.83,1.8509339080005027,2000-12,gdp_growth,-0.020933908000502523,0.0013483009285116465,-2.8225207594454937e-05,financial_conditions,Financial conditions,financial
2000-11,2000Q4,501.0,BUSLOANS,-0.0009259345591203781,0.0009540606240745287,2000-12,gdp_growth,-0.001879995183194907,-1.1123984369765674,0.0020913037033094897,financial_conditions,Financial conditions,financial
2000-11,2000Q4,501.0,CES3000000008,0.008292586654365053,7.907284189361308e-06,2000-12,gdp_growth,0.008284679370175692,-3.504021702509124,-0.029029696311425244,labor_market,Labor market,labor
2000-11,2000Q4,501.0,CLAIMSx,0.019355442952956103,0.008072990841117438,2000-12,gdp_growth,0.011282452111838669,-0.021425048308827795,-0.00024172708153817965,labor_market,Labor market,labor
2000-11,2000Q4,501.0,CLF16OV,0.0019818373637914277,0.0016061681024954484,2000-12,gdp_growth,0.00037566926129597934,-1.6884886581444127,-0.0006343132869117509,labor_market,Labor market,labor
2000-11,2000Q4,501.0,CPIAUCSL,-0.003471197939630244,-0.0007035063926441249,2000-12,gdp_growth,-0.0027676915469861192,4.917951064467393,-0.01361137158961779,prices_inflation,Prices & inflation,prices
2000-11,2000Q4,501.0,CPIULFSL,-0.00345919047276233,-0.0011055659969390049,2000-12,gdp_growth,-0.0023536244758233255,3.798816643834271,-0.00894098783209336,prices_inflation,Prices & inflation,prices
2000-11,2000Q4,501.0,CUMFNS,-0.29999999999999716,0.08907071063219456,2000-12,gdp_growth,-0.3890707106321918,-0.03142350828916107,0.012225966700620467,real_activity_income,Real activity & income,real_activity
2000-11,2000Q4,501.0,CUSR0000SAC,-0.010018548932982263,-0.003725466012325027,2000-12,gdp_growth,-0.006293082920657235,1.42604044915146,-0.008974190794721424,prices_inflation,Prices & inflation,prices
2000-11,2000Q4,501.0,CUSR0000SAS,0.0010062099439736016,0.000733994823899972,2000-12,gdp_growth,0.00027221512007362977,3.714560264209929,0.0010111594683426398,prices_inflation,Prices & inflation,prices
2000-11,2000Q4,501.0,DDURRG3M086SBEA,-0.000878011294767056,-0.0007056468870798312,2000-12,gdp_growth,-0.0001723644076872247,1.7562895433667782,-0.0003027218068696811,prices_inflation,Prices & inflation,prices
2000-11,2000Q4,501.0,DSERRG3M086SBEA,0.0018763359128435297,0.0012679850305178186,2000-12,gdp_growth,0.0006083508823257111,-5.809468996707179,-0.003534195589990676,prices_inflation,Prices & inflation,prices
2000-11,2000Q4,501.0,FEDFUNDS,-0.009999999999999787,0.05405220787613858,2000-12,gdp_growth,-0.06405220787613838,0.01506119444224076,-0.0009647027572773452,financial_conditions,Financial conditions,financial
2000-11,2000Q4,501.0,GS10,-0.059999999999999616,0.010424215628738536,2000-12,gdp_growth,-0.07042421562873816,0.0031471403681570427,-0.00022163489190099798,financial_conditions,Financial conditions,financial
2000-11,2000Q4,501.0,HOUST,7.3343293503005365,7.329532951541579,2000-12,gdp_growth,0.004796398758956911,0.014420445953898336,6.916620907688319e-05,housing_construction,Housing & construction,housing
2000-11,2000Q4,501.0,HOUSTMW,5.768320995793772,5.705055090493273,2000-12,gdp_growth,0.06326590530049855,-0.0021569476543987325,-0.0001364612460413227,housing_construction,Housing & construction,housing
2000-11,2000Q4,501.0,HOUSTNE,5.043425116919247,5.103640653463617,2000-12,gdp_growth,-0.060215536544370576,-0.009126866695361304,0.0005495791750301273,housing_construction,Housing & construction,housing
2000-11,2000Q4,501.0,HOUSTS,6.577861357721047,6.489887147788651,2000-12,gdp_growth,0.08797420993239576,-0.01168390621356198,-0.0010278824180623247,housing_construction,Housing & construction,housing
2000-11,2000Q4,501.0,HOUSTW,5.823045895483019,5.95786262265576,2000-12,gdp_growth,-0.13481672717274132,-0.012025854246707619,0.0016212863109975335,housing_construction,Housing & construction,housing
2000-11,2000Q4,501.0,INDPRO,-0.0011885003755507384,0.004175572397888554,2000-12,gdp_growth,-0.005364072773439293,-0.2707391633633085,0.001452264574900856,real_activity_income,Real activity & income,real_activity
2000-11,2000Q4,501.0,IPCONGD,-0.00406165896981836,0.003077785059251397,2000-12,gdp_growth,-0.007139444029069757,-1.2776820247886782,0.009121939302927286,real_activity_income,Real activity & income,real_activity
2000-11,2000Q4,501.0,IPFINAL,-0.00011097670610293875,0.003754929551460359,2000-12,gdp_growth,-0.003865906257563298,-0.7378175487846445,0.002852333478786571,real_activity_income,Real activity & income,real_activity
2000-11,2000Q4,501.0,IPMANSICS,-0.0004726642596271091,0.004495634808645049,2000-12,gdp_growth,-0.004968299068272157,5.861674078553699,-0.029122549862993397,real_activity_income,Real activity & income,real_activity
2000-11,2000Q4,501.0,MANEMP,0.0,-0.0008369433296966985,2000-12,gdp_growth,0.0008369433296966985,0.934927281832689,0.0007824811522813344,labor_market,Labor market,labor
2000-11,2000Q4,501.0,OILPRICEx,-0.10566195432493108,0.004868540108506667,2000-12,gdp_growth,-0.11053049443343776,0.02155863702704031,-0.002382886809909784,prices_inflation,Prices & inflation,prices
2000-11,2000Q4,501.0,PAYEMS,0.0010395208517763876,0.0010278434827370843,2000-12,gdp_growth,1.167736903930334e-05,6.214099789955762,7.25643364943708e-05,labor_market,Labor market,labor
2000-11,2000Q4,501.0,PCEPI,-0.002046060945084527,-0.00030608756463741487,2000-12,gdp_growth,-0.001739973380447112,-0.9326112719587524,0.0016227187875131515,prices_inflation,Prices & inflation,prices
2000-11,2000Q4,501.0,PERMIT,7.343426229147367,7.288627598753101,2000-12,gdp_growth,0.05479863039426587,0.001488270167982661,8.155516686209382e-05,housing_construction,Housing & construction,housing
2000-11,2000Q4,501.0,REALLN,-0.008584711739766604,-0.0003050356875569232,2000-12,gdp_growth,-0.00827967605220968,1.4670138350202375,-0.012146399318077344,financial_conditions,Financial conditions,financial
2000-11,2000Q4,501.0,RETAILx,0.0005858874531359248,0.005467151556857339,2000-12,gdp_growth,-0.004881264103721414,0.3065936324935394,-0.001496564492720269,demand_orders_inventories,Demand / orders / inventories,demand
2000-11,2000Q4,501.0,RPI,-0.0036345696191162342,0.002545695285939315,2000-12,gdp_growth,-0.006180264905055549,2.6254438808850487,-0.016225938677226708,real_activity_income,Real activity & income,real_activity
2000-11,2000Q4,501.0,T10YFFM,-0.77,-0.6578578302526696,2000-12,gdp_growth,-0.1121421697473304,0.00031488753124317767,-3.531217097999024e-05,financial_conditions,Financial conditions,financial
2000-11,2000Q4,501.0,TB3MS,0.11000000000000032,0.02928693189381398,2000-12,gdp_growth,0.08071306810618632,0.01233294702684453,0.0009954299933276906,financial_conditions,Financial conditions,financial
2000-11,2000Q4,501.0,TWEXAFEGSMTHx,0.01536370578617774,0.004963638883237014,2000-12,gdp_growth,0.010400066902940727,-0.011360874448091253,-0.00011815385433605884,financial_conditions,Financial conditions,financial
2000-11,2000Q4,501.0,UEMPMEAN,0.5,0.10060007053694622,2000-12,gdp_growth,0.3993999294630538,-0.022250691007134886,-0.00888692441875388,labor_market,Labor market,labor
2000-11,2000Q4,501.0,UNRATE,0.0,0.09198396556722303,2000-12,gdp_growth,-0.09198396556722303,-0.054085023684910305,0.004974954956335232,labor_market,Labor market,labor
2000-11,2000Q4,501.0,W875RX1,-0.004080706305748194,0.0019481454931633358,2000-12,gdp_growth,-0.006028851798911531,3.609888307632101,-0.02176348161733749,real_activity_income,Real activity & income,real_activity
2000-11,2000Q4,501.0,WPSFD49207,-0.0050799064204047895,-0.0023314188875548205,2000-12,gdp_growth,-0.002748487532849969,0.16366124239191174,-0.00044982088432490624,prices_inflation,Prices & inflation,prices
2000-12,2000Q4,500.0,CMRMTSPLx,-0.00295055655926646,-0.00013980691142653594,2000-12,gdp_growth,-0.002810749647839924,1.6110031057656893,-0.004528126412199935,demand_orders_inventories,Demand / orders / inventories,demand
2000-12,2000Q4,501.0,BUSINVx,0.006265058854395988,0.003982628399143729,2000-12,gdp_growth,0.0022824304552522597,2.032469392891319,0.004638970041703217,demand_orders_inventories,Demand / orders / inventories,demand
2000-12,2000Q4,501.0,ISRATIOx,0.010000000000000009,0.009073290654687163,2000-12,gdp_growth,0.0009267093453128457,-1.2623776099111985,-0.0011698571284184016,demand_orders_inventories,Demand / orders / inventories,demand
2000-12,2000Q4,501.0,NONREVSL,0.005496116583029398,4.911066841906227e-05,2000-12,gdp_growth,0.005447005914610336,2.3017560002391417,0.012537678547292435,financial_conditions,Financial conditions,financial
2000-12,2000Q4,502.0,AMDMNOx,0.022673490275586516,0.01766886152954652,2000-12,gdp_growth,0.00500462874604,0.5497829226855715,0.002751459418954098,demand_orders_inventories,Demand / orders / inventories,demand
2000-12,2000Q4,502.0,AMDMUOx,0.0064290199035106355,-0.00342335892717193,2000-12,gdp_growth,0.009852378830682566,-1.368787582715253,-0.01348581380364492,demand_orders_inventories,Demand / orders / inventories,demand
2000-12,2000Q4,502.0,ANDENOx,0.06060084804761878,0.03630249934840853,2000-12,gdp_growth,0.024298348699210253,0.20113506228304148,0.004887249878990714,demand_orders_inventories,Demand / orders / inventories,demand
2000-12,2000Q4,502.0,AWHMAN,41.1,41.353121742014544,2000-12,gdp_growth,-0.25312174201454574,0.04371550721161382,-0.011065345338453126,labor_market,Labor market,labor
2000-12,2000Q4,502.0,BAA,-0.060000000000000504,0.017305516025902933,2000-12,gdp_growth,-0.07730551602590344,-0.03293931182465887,0.0025463904981433967,financial_conditions,Financial conditions,financial
2000-12,2000Q4,502.0,BAAFFM,1.77,1.9477846560801721,2000-12,gdp_growth,-0.17778465608017222,0.03699331641974669,-0.006576844036949653,financial_conditions,Financial conditions,financial
2000-12,2000Q4,502.0,BUSLOANS,0.0019452808812356894,-0.00025144526144605034,2000-12,gdp_growth,0.0021967261426817397,0.40950840523162385,0.0008995778194202157,financial_conditions,Financial conditions,financial
2000-12,2000Q4,502.0,CES3000000008,-0.003489204218134922,-0.003720184304651928,2000-12,gdp_growth,0.0002309800865170055,-2.99156893306808,-0.000690992850981651,labor_market,Labor market,labor
2000-12,2000Q4,502.0,CLAIMSx,0.10023558451757175,0.011025248338812372,2000-12,gdp_growth,0.0892103361787594,0.011244157884165216,0.001003095104893427,labor_market,Labor market,labor
2000-12,2000Q4,502.0,CLF16OV,0.0009504557937898284,0.0011611446903924097,2000-12,gdp_growth,-0.00021068889660258146,-0.0071499213462331394,1.5064090392331038e-06,labor_market,Labor market,labor
2000-12,2000Q4,502.0,CPIAUCSL,-2.9760758222252552e-06,-8.28427465720447e-05,2000-12,gdp_growth,7.986667074981943e-05,4.341142326227639,0.00034671258484692804,prices_inflation,Prices & inflation,prices
2000-12,2000Q4,502.0,CPIULFSL,0.0011405550569536516,0.00018790370436315746,2000-12,gdp_growth,0.000952651352590494,2.003192025763273,0.001908343592841874,prices_inflation,Prices & inflation,prices
2000-12,2000Q4,502.0,CUMFNS,-0.8000000000000115,-0.34198021146273366,2000-12,gdp_growth,-0.4580197885372778,0.016652846550153214,-0.007627333255444911,real_activity_income,Real activity & income,real_activity
2000-12,2000Q4,502.0,CUSR0000SAC,0.002663116239025598,0.0026325638847102296,2000-12,gdp_growth,3.055235431536836e-05,2.4518733454092287,7.49105031853503e-05,prices_inflation,Prices & inflation,prices
2000-12,2000Q4,502.0,CUSR0000SAS,-0.0015265542879205896,-0.001431626247074182,2000-12,gdp_growth,-9.49280408464077e-05,0.8832506384922078,-8.384525268840398e-05,prices_inflation,Prices & inflation,prices
2000-12,2000Q4,502.0,DDURRG3M086SBEA,0.002084987991030296,-0.00032741617810715736,2000-12,gdp_growth,0.002412404169137453,0.7968240705954076,0.0019222617099734377,prices_inflation,Prices & inflation,prices
2000-12,2000Q4,502.0,DSERRG3M086SBEA,-0.0007264606361809811,-0.0016120260710889482,2000-12,gdp_growth,0.0008855654349079671,-7.444767090765582,-0.006592828406522344,prices_inflation,Prices & inflation,prices
2000-12,2000Q4,502.0,FEDFUNDS,0.0,0.0021351252594828682,2000-12,gdp_growth,-0.0021351252594828682,-0.01655238343422456,3.534141197505864e-05,financial_conditions,Financial conditions,financial
2000-12,2000Q4,502.0,GS10,-0.020000000000000465,-0.004451651038969773,2000-12,gdp_growth,-0.015548348961030689,-0.016578336250089577,0.0002577657572096977,financial_conditions,Financial conditions,financial
2000-12,2000Q4,502.0,HOUST,7.3537223303996315,7.340004438792946,2000-12,gdp_growth,0.013717891606684702,-0.3379065502824701,-0.004635365429963678,housing_construction,Housing & construction,housing
2000-12,2000Q4,502.0,HOUSTMW,5.749392985908253,5.768715909652707,2000-12,gdp_growth,-0.01932292374445421,-0.05856334408743678,0.0011316150320217742,housing_construction,Housing & construction,housing
2000-12,2000Q4,502.0,HOUSTNE,4.9344739331306915,5.098419359164592,2000-12,gdp_growth,-0.1639454260339007,-0.060682622373692006,0.00994863837790925,housing_construction,Housing & construction,housing
2000-12,2000Q4,502.0,HOUSTS,6.522092798170152,6.56166502195018,2000-12,gdp_growth,-0.03957222378002822,0.051431544828273404,-0.002035260601296988,housing_construction,Housing & construction,housing
2000-12,2000Q4,502.0,HOUSTW,6.061456918928017,5.846720588819934,2000-12,gdp_growth,0.21473633010808307,-0.0017045502291368377,-0.0003660288606897366,housing_construction,Housing & construction,housing
2000-12,2000Q4,502.0,INDPRO,-0.0023122330061973177,-7.379821470664084e-05,2000-12,gdp_growth,-0.0022384347914906773,0.06847066391175854,-0.00015326711629654548,real_activity_income,Real activity & income,real_activity
2000-12,2000Q4,502.0,IPCONGD,0.001470104755895818,-0.00042591855760171866,2000-12,gdp_growth,0.0018960233134975367,-0.4346935419015138,-0.0008241890896720886,real_activity_income,Real activity & income,real_activity
2000-12,2000Q4,502.0,IPFINAL,0.0016699181158248422,-0.00037171550437285327,2000-12,gdp_growth,0.002041633620197696,-0.32442578295741514,-0.0006623585857448194,real_activity_income,Real activity & income,real_activity
2000-12,2000Q4,502.0,IPMANSICS,-0.005098672404652227,-0.0005223770014360493,2000-12,gdp_growth,-0.004576295403216178,0.24997179495298696,-0.001143944776177051,real_activity_income,Real activity & income,real_activity
2000-12,2000Q4,502.0,MANEMP,5.4414365406429965e-05,-0.0013361523233397594,2000-12,gdp_growth,0.0013905666887461894,-1.8522672806995812,-0.0025757011791953254,labor_market,Labor market,labor
2000-12,2000Q4,502.0,OILPRICEx,0.06302369385222528,0.019325489556701075,2000-12,gdp_growth,0.0436982042955242,0.03700620601465176,0.001617104750630509,prices_inflation,Prices & inflation,prices
2000-12,2000Q4,502.0,PAYEMS,0.0007129476133815871,0.0013990408835740447,2000-12,gdp_growth,-0.0006860932701924576,-3.780615897493731,0.002593855124453067,labor_market,Labor market,labor
2000-12,2000Q4,502.0,PCEPI,0.00045977765628091305,-0.0003147334740113262,2000-12,gdp_growth,0.0007745111302922393,-2.789393233331149,-0.0021604161059768324,prices_inflation,Prices & inflation,prices
