haminh109/Nowcasting-GDP-Growth/outputs/layer1_dfm/layer2_residual_design.csv
vintage_period,vintage_timestamp_start,target_quarter,within_quarter_origin,primary_target_available,third_release,dfm_residual_third_release,latest_rtdsm,dfm_residual_latest_rtdsm,gdpplus,dfm_residual_gdpplus,dfm_nowcast,dfm_nowcast_pure_news_fixed_params,dfm_nowcast_previous_vintage_same_target,dfm_nowcast_revision_from_previous,dfm_nowcast_revision_full_refit,dfm_nowcast_revision_reestimation_effect,dfm_nowcast_delta_from_previous_row,dfm_nowcast_delta_from_previous_row_fixed_params,n_monthly_series,n_monthly_obs,llf_final,em_iterations,em_convergence_delta_last,coverage__demand_orders_inventories,coverage__financial_conditions,coverage__housing_construction,coverage__labor_market,coverage__prices_inflation,coverage__real_activity_income,n_series__demand_orders_inventories,n_series__prices_inflation,n_series__real_activity_income,news_signed__demand_orders_inventories,news_signed__financial_conditions,news_signed__housing_construction,news_signed__labor_market,news_signed__prices_inflation,news_signed__quarterly_target_history,news_signed__real_activity_income,news_abs__demand_orders_inventories,news_abs__financial_conditions,news_abs__housing_construction,news_abs__labor_market,news_abs__prices_inflation,news_abs__quarterly_target_history,news_abs__real_activity_income,state__current_smoothed__global,state__current_smoothed__demand,state__current_smoothed__financial,state__current_smoothed__housing,state__current_smoothed__labor,state__current_smoothed__prices,state__current_smoothed__real_activity,state__previous_vintage_smoothed__global,state__previous_vintage_smoothed__demand,state__previous_vintage_smoothed__financial,state__previous_vintage_smoothed__housing,state__previous_vintage_smoothed__labor,state__previous_vintage_smoothed__prices,state__previous_vintage_smoothed__real_activity
2000-01,2000-01-01,2000Q1,1,True,5.4642,0.7689890187913049,1.4466144164989954,-3.2485965647096995,5.979027263900793,1.283816282692098,4.695210981208695,,,,,,,,44,492,-19627.977100542106,73,1.8201894505226121e-06,0.0,0.0,0.0,0.0,0.0,0.0,7,6,7,,,,,,,,,,,,,,,0.477057259840881,-0.01935926740351749,-0.14184769849115825,0.7497637980159912,-0.3974582703928091,0.5788035825585821,-0.7897895812402757,,,,,,,
2000-02,2000-02-01,2000Q1,2,True,5.4642,0.3958845726336442,1.4466144164989954,-3.62170101086736,5.979027263900793,0.9107118365344373,5.068315427366356,5.054846143779869,4.695210981208695,0.3596351625711742,0.3731044461576607,0.013469283586486469,0.3731044461576607,0.3596351625711742,44,493,-19670.886023230167,44,1.8642745261505176e-06,0.19047619047619047,0.3,0.3333333333333333,0.3333333333333333,0.3333333333333333,0.3333333333333333,7,6,7,0.0028882046477814102,0.06534327803448281,0.06290817542611922,0.17287913004840635,0.0035761589847975806,-0.14696305656864286,0.09943123824170981,0.0028882046477814102,0.06534327803448281,0.06290817542611922,0.17287913004840635,0.0035761589847975806,0.14696305656864286,0.09943123824170981,0.6560014077763282,0.20666776211079135,-0.09753326190886501,0.8150799258248478,-0.3674618680956472,-0.4477153396470597,0.16768986804517663,0.477057259840881,-0.01935926740351749,-0.14184769849115825,0.7497637980159912,-0.3974582703928091,0.5788035825585821,-0.7897895812402757
2000-03,2000-03-01,2000Q1,3,True,5.4642,1.0079501299961127,1.4466144164989954,-3.0096354535048917,5.979027263900793,1.5227773938969058,4.456249870003887,4.442648634088201,5.068315427366356,-0.625666793278155,-0.6120655573624685,0.013601235915686516,-0.6120655573624685,-0.625666793278155,44,494,-19710.97935347122,43,1.8893566135910769e-06,0.5238095238095238,0.6333333333333333,0.6666666666666666,0.6666666666666666,0.6666666666666666,0.619047619047619,7,6,7,-0.11998473151174867,-0.05008338860737605,0.042478142883760804,-0.29066540920216927,0.0014795436153291035,,-0.19972732911979685,0.11998473151174867,0.05008338860737605,0.042478142883760804,0.29066540920216927,0.0014795436153291035,,0.19972732911979685,0.08861258647121072,0.008626192951442482,0.1077005763407545,1.1653083861213653,-0.0718828797508769,1.8420485719855526,-0.08791687246701924,0.6560014077763282,0.20666776211079135,-0.09753326190886501,0.8150799258248478,-0.3674618680956472,-0.4477153396470597,0.16768986804517663
2000-04,2000-04-01,2000Q2,1,True,5.6468,2.1507010739805468,7.220732333973104,3.724633407953651,3.1796652972612156,-0.31643362875823744,3.496098926019453,3.4937975386576947,3.786239645508955,-0.29244210685126015,-0.2901407194895018,0.0023013873617583336,-0.9601509439844342,-0.9624523313461926,44,495,-19758.28116583625,43,1.8939808763921948e-06,0.0,0.0,0.0,0.0,0.0,0.0,7,6,7,0.005296276228639167,-0.175374095220752,-0.3103291438461522,0.19719935413475437,0.03313603416458655,,0.09129324974874209,0.005296276228639167,0.175374095220752,0.3103291438461522,0.19719935413475437,0.03313603416458655,,0.09129324974874209,-0.11370493924609879,-0.1940453880348017,0.16418336727005808,0.769427520980762,-0.2460788627052883,0.787476546181352,0.20217183730010432,0.08861258647121072,0.008626192951442482,0.1077005763407545,1.1653083861213653,-0.0718828797508769,1.8420485719855526,-0.08791687246701924
2000-05,2000-05-01,2000Q2,2,True,5.6468,1.2660273707882128,7.220732333973104,2.839959704761317,3.1796652972612156,-1.2011073319505714,4.380772629211787,4.3744230249133595,3.496098926019453,0.8783240988939065,0.884673703192334,0.006349604298427458,0.884673703192334,0.8783240988939065,44,496,-19795.807926925725,43,1.8844872456848523e-06,0.19047619047619047,0.3,0.3333333333333333,0.3333333333333333,0.3333333333333333,0.3333333333333333,7,6,7,-0.2706418191896963,-0.13758699345585818,0.0763306323190401,0.1784721413258395,-0.017527063494903787,-0.05570237759001238,0.5431699138631602,0.2706418191896963,0.13758699345585818,0.0763306323190401,0.1784721413258395,0.017527063494903787,0.05570237759001238,0.5431699138631602,0.3169706142707045,0.03597686882345595,0.32766053658648925,0.699276052770263,0.4196805228248161,-3.620107211910803,0.5316098299738462,-0.11370493924609879,-0.1940453880348017,0.16418336727005808,0.769427520980762,-0.2460788627052883,0.787476546181352,0.20217183730010432
2000-06,2000-06-01,2000Q2,3,True,5.6468,1.6820172849584836,7.220732333973104,3.255949618931588,3.1796652972612156,-0.7851174177803006,3.9647827150415162,3.966428665318738,4.380772629211787,-0.41434396389304906,-0.41598991417027076,-0.0016459502772216972,-0.41598991417027076,-0.41434396389304906,44,497,-19842.462676049596,43,1.8816708639056559e-06,0.5238095238095238,0.6333333333333333,0.6666666666666666,0.6666666666666666,0.6666666666666666,0.6666666666666666,7,6,7,-0.05434930740270059,0.09247750969674452,-0.006727853437264757,-0.3543557280617231,-0.020322146362059826,,-0.04649685954382318,0.05434930740270059,0.09247750969674452,0.006727853437264757,0.3543557280617231,0.020322146362059826,,0.04649685954382318,-0.06926331975979026,-0.6868266313480967,0.3082291359688909,0.7076367510314315,-0.11694733543249838,0.4014611972813948,-0.06146319908757191,0.3169706142707045,0.03597686882345595,0.32766053658648925,0.699276052770263,0.4196805228248161,-3.620107211910803,0.5316098299738462
2000-07,2000-07-01,2000Q3,1,True,2.1897,-1.2608438551156649,0.4074098003230849,-3.04313405479258,2.756709504781469,-0.6938343503341962,3.450543855115665,3.4730612576972084,3.2800683403491373,0.1929929173480711,0.17047551476652778,-0.022517402581543333,-0.5142388599258512,-0.49172145734430783,44,498,-19901.133452370785,43,1.885632913191114e-06,0.0,0.0,0.0,0.0,0.0,0.0,7,6,7,0.8026538251231439,-0.5088698828612563,-0.11766200239555535,-0.2874966358199334,0.04986325864067266,,0.07542765539115258,0.8026538251231439,0.5088698828612563,0.11766200239555535,0.2874966358199334,0.04986325864067266,,0.07542765539115258,0.00614932684969174,-0.820486686163699,0.5388975442312851,0.5436870322059817,-0.27280556702706743,2.391272975193592,0.08516667736744321,-0.06926331975979026,-0.6868266313480967,0.3082291359688909,0.7076367510314315,-0.11694733543249838,0.4014611972813948,-0.06146319908757191
2000-08,2000-08-01,2000Q3,2,True,2.1897,-0.695681980332989,0.4074098003230849,-2.477972180009904,2.756709504781469,-0.12867247555152028,2.885381980332989,2.9272919120933674,3.450543855115665,-0.5232519430222977,-0.5651618747826759,-0.04190993176037816,-0.5651618747826759,-0.5232519430222977,47,499,-21729.6874419125,73,1.851955747657989e-06,0.19047619047619047,0.3,0.3333333333333333,0.3333333333333333,0.3333333333333333,0.3333333333333333,7,9,7,-0.3664627558223351,-0.03400808715443902,-0.010984615503355258,-0.06656303761399614,0.006453050881780983,-0.04990994123062327,0.05121423067372653,0.3664627558223351,0.03400808715443902,0.010984615503355258,0.06656303761399614,0.006453050881780983,0.04990994123062327,0.05121423067372653,-0.2565383565894962,0.43299980183192316,0.6129384748795507,0.5687293279946808,-0.48151159727903,-1.2575076729918506,0.8181502169536596,0.00614932684969174,-0.820486686163699,0.5388975442312851,0.5436870322059817,-0.27280556702706743,2.391272975193592,0.08516667736744321
2000-09,2000-09-01,2000Q3,3,True,2.1897,0.02414225862696151,0.4074098003230849,-1.7581479410499539,2.756709504781469,0.5911517634084302,2.1655577413730387,2.161601820950645,2.885381980332989,-0.7237801593823443,-0.7198242389599505,0.003955920422393788,-0.7198242389599505,-0.7237801593823443,47,500,-21770.65648764514,43,1.8849016448962542e-06,0.4761904761904762,0.6333333333333333,0.6666666666666666,0.6666666666666666,0.6666666666666666,0.6666666666666666,7,9,7,-0.12794235495623382,-0.05797872180817462,-0.0030919585307104744,-0.35318924623077647,-0.03282830425758267,,0.02168948500032347,0.12794235495623382,0.05797872180817462,0.0030919585307104744,0.35318924623077647,0.03282830425758267,,0.02168948500032347,-0.8034910086924264,-0.26468397483438044,0.5718156015311375,0.9795543666989692,-0.7192529106700999,-1.3873756575600373,0.6308865744018067,-0.2565383565894962,0.43299980183192316,0.6129384748795507,0.5687293279946808,-0.48151159727903,-1.2575076729918506,0.8181502169536596
2000-10,2000-10-01,2000Q4,1,True,1.0371,-2.308677596626681,2.3823775011405703,-0.9634000954861102,1.067137391701403,-2.2786402049252774,3.3457775966266805,3.3451753305401946,2.1949574479078255,1.150217882632369,1.150820148718855,0.0006022660864859475,1.1802198552536418,1.1796175891671559,47,501,-21814.58339229351,42,1.905531559173244e-06,0.0,0.0,0.0,0.0,0.0,0.0,7,9,7,0.23376059691475526,-0.08026162498694395,-0.01433828674200835,0.16570487166284603,0.03553238054429152,,0.7309557003409499,0.23376059691475526,0.08026162498694395,0.01433828674200835,0.16570487166284603,0.03553238054429152,,0.7309557003409499,-0.10256771956079395,0.18531281198579372,0.5980005813784028,0.5429549013529815,-0.8167750357254641,2.887498943310274,-0.043239381378161676,-0.8034910086924264,-0.26468397483438044,0.5718156015311375,0.9795543666989692,-0.7192529106700999,-1.3873756575600373,0.6308865744018067
2000-11,2000-11-01,2000Q4,2,True,1.0371,-1.681882736227254,2.3823775011405703,-0.3366052350866835,1.067137391701403,-1.6518453445258507,2.718982736227254,2.7153073774126577,3.3457775966266805,-0.6304702192140228,-0.6267948603994267,0.0036753588145961302,-0.6267948603994267,-0.6304702192140228,47,502,-21855.97139433453,42,1.8943133237974461e-06,0.19047619047619047,0.3,0.3333333333333333,0.3333333333333333,0.3333333333333333,0.3333333333333333,7,9,7,-0.2802593639770315,-0.13140500191336524,0.02549486918423692,0.05445641267191513,-0.008193862274610922,-0.004381926225283004,-0.5038965446863859,0.2802593639770315,0.13140500191336524,0.02549486918423692,0.05445641267191513,0.008193862274610922,0.004381926225283004,0.5038965446863859,-0.4435538286538195,-0.1204797415150182,0.5378385531190201,0.7845927031108862,-0.28213615504395295,-1.6732094337975656,-0.09103137211876293,-0.10256771956079395,0.18531281198579372,0.5980005813784028,0.5429549013529815,-0.8167750357254641,2.887498943310274,-0.043239381378161676
2000-12,2000-12-01,2000Q4,3,True,1.0371,-1.0884953902778676,2.3823775011405703,0.25678211086270286,1.067137391701403,-1.0584579985764644,2.1255953902778675,2.1261307609143074,2.718982736227254,-0.5928519753129464,-0.5933873459493864,-0.0005353706364399358,-0.5933873459493864,-0.5928519753129464,47,503,-21892.776686814384,42,1.8631452944871337e-06,0.4761904761904762,0.6333333333333333,0.6666666666666666,0.6666666666666666,0.6666666666666666,0.6666666666666666,7,9,7,-0.04225560237874887,0.02095294971179876,-0.004856850716080266,-0.2385101684258874,-0.007670667473962569,,-0.4503268760614552,0.04225560237874887,0.02095294971179876,0.004856850716080266,0.2385101684258874,0.007670667473962569,,0.4503268760614552,-0.8559655365723564,-0.5506429938681813,0.5013522762896231,1.1664053814464466,0.15526019634166538,0.29426612012322234,-0.5345403325116562,-0.4435538286538195,-0.1204797415150182,0.5378385531190201,0.7845927031108862,-0.28213615504395295,-1.6732094337975656,-0.09103137211876293
2001-01,2001-01-01,2001Q1,1,True,1.2449,1.220862711193944,-1.3148968828437897,-1.3389341716498455,2.2088694199020913,2.1848321310960355,0.024037288806055823,0.02435219574254699,1.746631783257501,-1.722279587514954,-1.722594494451445,-0.0003149069364911661,-2.1015581014718117,-2.1012431945353205,47,504,-21933.780616486787,42,1.8861509896848105e-06,0.0,0.0,0.0,0.0,0.0,0.0,7,9,7,-0.018124730087213,-0.41193756185467406,-0.0994199363592955,-0.36753483051936453,0.011451765510340672,,-0.6879640696869292,0.018124730087213,0.41193756185467406,0.0994199363592955,0.36753483051936453,0.011451765510340672,,0.6879640696869292,-1.5432051138934804,0.03219657388301548,0.43035752202470384,1.6279739995973734,0.06066859304995613,-0.25299196072730895,-0.7123094913948059,-0.8559655365723564,-0.5506429938681813,0.5013522762896231,1.1664053814464466,0.15526019634166538,0.29426612012322234,-0.5345403325116562
2001-02,2001-02-01,2001Q1,2,True,1.2449,-0.011171979101005203,-1.3148968828437897,-2.570968861944795,2.2088694199020913,0.9527974408010862,1.256071979101005,1.2621674352945411,0.024037288806055823,1.2381301464884853,1.2320346902949493,-0.00609545619353602,1.2320346902949493,1.2381301464884853,47,505,-22002.106736500733,42,1.8783818495493623e-06,0.19047619047619047,0.3,0.3333333333333333,0.3333333333333333,0.2222222222222222,0.23809523809523808,7,9,7,0.016225352692088454,-0.09833426176967965,0.12756100990964053,0.7249166698599006,0.0890250349222109,0.018688620167953543,0.4227871589063068,0.016225352692088454,0.09833426176967965,0.12756100990964053,0.7249166698599006,0.0890250349222109,0.018688620167953543,0.4227871589063068,-0.5819790462950122,0.17611792563107614,0.23846059921732654,1.2911081842096082,0.03793166957129603,1.7653724510836728,0.18362802539330683,-1.5432051138934804,0.03219657388301548,0.43035752202470384,1.6279739995973734,0.06066859304995613,-0.25299196072730895,-0.7123094913948059
2001-03,2001-03-01,2001Q1,3,True,1.2449,0.7807503926665262,-1.3148968828437897,-1.7790464901772634,2.2088694199020913,1.7447198125686176,0.46414960733347366,0.4632788179539311,1.256071979101005,-0.792793161147074,-0.7919223717675314,0.000870789379542547,-0.7919223717675314,-0.792793161147074,47,506,-22048.66231195625,42,1.8751051702321816e-06,0.5238095238095238,0.6333333333333333,0.6666666666666666,0.6666666666666666,0.6666666666666666,0.6666666666666666,7,9,7,-0.10182075738400483,0.022984670209217403,0.002717474128538322,-0.11084301853777817,-0.03710347831880292,,-0.3048698986126949,0.10182075738400483,0.022984670209217403,0.002717474128538322,0.11084301853777817,0.03710347831880292,,0.3048698986126949,-0.9920357812240763,-0.20739605205989256,-0.14132161709741276,1.5401740428482635,-0.1115927106987818,-1.2156126015179909,0.01504327880002564,-0.5819790462950122,0.17611792563107614,0.23846059921732654,1.2911081842096082,0.03793166957129603,1.7653724510836728,0.18362802539330683
2001-04,2001-04-01,2001Q2,1,True,0.3089,-1.5396050360645837,2.4909761820986183,0.6424711460340347,-0.0474104509818436,-1.8959154870464272,1.8485050360645836,1.8462652158954238,1.6432759318128967,0.20298928408252714,0.20522910425168694,0.0022398201691598008,1.38435542873111,1.3821156085619501,47,507,-22100.431456300677,42,1.871288154255131e-06,0.0,0.0,0.0,0.0,0.0,0.0,7,9,7,0.12952996359018343,-0.10450611797292378,-0.02670812780922524,-0.42793827584947863,-0.027770798930111494,,0.5415290479600093,0.12952996359018343,0.10450611797292378,0.02670812780922524,0.42793827584947863,0.027770798930111494,,0.5415290479600093,-0.6957693129623892,-0.36788225848692485,-0.1986844527473819,1.246338450096869,-0.47370749366419984,-1.3603246999916874,0.7350435464579127,-0.9920357812240763,-0.20739605205989256,-0.14132161709741276,1.5401740428482635,-0.1115927106987818,-1.2156126015179909,0.01504327880002564
2001-05,2001-05-01,2001Q2,2,True,0.3089,-0.1692314165309478,2.4909761820986183,2.0128447655676704,-0.0474104509818436,-0.5255418675127914,0.4781314165309478,0.4491742483513317,1.8485050360645836,-1.399330787713252,-1.3703736195336358,0.028957168179616133,-1.3703736195336358,-1.399330787713252,48,508,-22305.54276505108,76,1.8391621151277751e-06,0.125,0.3,0.3333333333333333,0.3333333333333333,0.3333333333333333,0.3333333333333333,8,9,7,-0.09357165351845939,0.11600216886650434,-0.019434264230787784,-0.7140695107871975,0.006922931217009123,-0.13121754952302694,-0.09593123842957277,0.09357165351845939,0.11600216886650434,0.019434264230787784,0.7140695107871975,0.006922931217009123,0.13121754952302694,0.09593123842957277,-1.1083703996023249,0.14596605596168216,-0.7202552111059748,1.5640267149356069,-0.534330656212437,1.5984869554404675,0.3775033669459608,-0.6957693129623892,-0.36788225848692485,-0.1986844527473819,1.246338450096869,-0.47370749366419984,-1.3603246999916874,0.7350435464579127
2001-06,2001-06-01,2001Q2,3,True,0.3089,0.11463337458301753,2.4909761820986183,2.296709556681636,-0.0474104509818436,-0.24167707639882607,0.19426662541698247,0.19478453628218473,0.4781314165309478,-0.2833468802487631,-0.28386479111396534,-0.0005179108652022535,-0.28386479111396534,-0.2833468802487631,48,509,-22349.021927738453,43,1.8597233644223768e-06,0.4583333333333333,0.6333333333333333,0.6666666666666666,0.6666666666666666,0.5555555555555556,0.5714285714285714,8,9,7,-0.024871117919282665,0.12236067364084723,-0.002076328877284444,-0.1602506382948496,0.02667537314651405,,-0.1405109271859313,0.024871117919282665,0.12236067364084723,0.002076328877284444,0.1602506382948496,0.02667537314651405,,0.1405109271859313,-1.0136136152039614,0.2552342185432354,-1.1432934048729817,1.5212091759327508,-0.6635831986419871,0.26703697688384126,-0.45998150900019624,-1.1083703996023249,0.14596605596168216,-0.7202552111059748,1.5640267149356069,-0.534330656212437,1.5984869554404675,0.3775033669459608
2001-07,2001-07-01,2001Q3,1,True,-1.3335,-2.5668758668303178,-1.606394025947396,-2.839769892777714,-0.8125240924915009,-2.045899959321819,1.2333758668303179,1.2366988289924823,1.7542747070049967,-0.5175758780125144,-0.5208988401746788,-0.0033229621621644334,1.0391092414133354,1.0424322035754998,48,510,-22398.498504003008,42,1.8748044455554852e-06,0.0,0.0,0.0,0.0,0.0,0.0,8,9,7,0.016022482920690116,0.056144782804264666,0.06924358264045488,-0.23152621463456857,0.005564034609668671,,-0.49618624949880175,0.016022482920690116,0.056144782804264666,0.06924358264045488,0.23152621463456857,0.005564034609668671,,0.49618624949880175,-1.06648225789539,-0.1629821158658871,-1.193305259146619,1.6433650380459923,-1.0513714868849282,-0.4963755957013373,-0.660780290883656,-1.0136136152039614,0.2552342185432354,-1.1432934048729817,1.5212091759327508,-0.6635831986419871,0.26703697688384126,-0.45998150900019624
2001-08,2001-08-01,2001Q3,2,True,-1.3335,-2.9020317216563694,-1.606394025947396,-3.1749257476037656,-0.8125240924915009,-2.381055814147871,1.5685317216563697,1.605835307040923,1.2333758668303179,0.3724594402106052,0.3351558548260518,-0.03730358538455336,0.3351558548260518,0.3724594402106052,48,511,-22446.135251919284,42,1.8688925391932357e-06,0.20833333333333331,0.3,0.3333333333333333,0.3333333333333333,0.3333333333333333,0.3333333333333333,8,9,7,-0.10219523187210135,0.1291004897388024,0.04132251240993896,0.22537130585027082,-0.07465965729114696,-0.023455364139281135,0.3194958707694197,0.10219523187210135,0.1291004897388024,0.04132251240993896,0.22537130585027082,0.07465965729114696,0.023455364139281135,0.3194958707694197,-0.5595856620354225,0.17503464172197464,-1.1464641243314637,1.3456733441441668,-0.9668944970993459,-2.079854870190489,0.2068398738041445,-1.06648225789539,-0.1629821158658871,-1.193305259146619,1.6433650380459923,-1.0513714868849282,-0.4963755957013373,-0.660780290883656
2001-09,2001-09-01,2001Q3,3,True,-1.3335,-2.0557336053611053,-1.606394025947396,-2.3286276313085015,-0.8125240924915009,-1.5347576978526063,0.7222336053611054,0.7185338734167699,1.5685317216563697,-0.8499978482395998,-0.8462981162952643,0.0036997319443354826,-0.8462981162952643,-0.8499978482395998,48,512,-22472.66191005335,42,1.8538919127647448e-06,0.4583333333333333,0.6333333333333333,0.6666666666666666,0.6666666666666666,0.5555555555555556,0.5714285714285714,8,9,7,-0.02846448989603751,-0.029634259972240097,-0.029430834021690954,-0.40543128980550636,0.006485516621991951,,-0.30689098503005663,0.02846448989603751,0.029634259972240097,0.029430834021690954,0.40543128980550636,0.006485516621991951,,0.30689098503005663,-1.2173780538819448,-0.0067143474056890915,-1.1390359240882604,1.2865463738457261,-1.285441117069627,1.7137023575535721,-0.7617491020393771,-0.5595856620354225,0.17503464172197464,-1.1464641243314637,1.3456733441441668,-0.9668944970993459,-2.079854870190489,0.2068398738041445
2001-10,2001-10-01,2001Q4,1,True,1.6513,2.227104393210761,1.0987744060549363,1.6745787992656973,-0.3908808334222782,0.18492355978848285,-0.575804393210761,-0.5210931017042126,1.0856627376093373,-1.60675583931355,-1.6614671308200983,-0.05471129150654841,-1.2980379985718664,-1.243326707065318,48,513,-22297.13821472239,41,1.8860929182040074e-06,0.0,0.0,0.0,0.0,0.0,0.0,8,9,7,-0.5548758204887521,0.0889946363187099,-0.08668774247152805,-0.6982236371603184,-0.002916939758672646,,-0.45993199099813337,0.5548758204887521,0.0889946363187099,0.08668774247152805,0.6982236371603184,0.002916939758672646,,0.45993199099813337,-1.8009884079483642,-1.181244665826951,-1.593251628962356,1.779031975106892,-0.5539356934842137,2.382170039583658,-0.18565677351768817,-1.2173780538819448,-0.0067143474056890915,-1.1390359240882604,1.2865463738457261,-1.285441117069627,1.7137023575535721,-0.7617491020393771
2001-11,2001-11-01,2001Q4,2,True,1.6513,2.116715720015415,1.0987744060549363,1.5641901260703512,-0.3908808334222782,0.07453488659313678,-0.465415720015415,-0.42648692718490144,-0.575804393210761,0.1493174660258596,0.11038867319534607,-0.03892879283051354,0.11038867319534607,0.1493174660258596,48,514,-22394.382344746926,41,1.8761583893905727e-06,0.16666666666666666,0.3,0.3333333333333333,0.3333333333333333,0.2222222222222222,0.23809523809523808,8,9,7,0.7211592443114705,0.18517243792886157,0.009016328980149084,-0.9486228918923687,0.14676290139065423,0.062330527000601,-0.21777029388792657,0.7211592443114705,0.18517243792886157,0.009016328980149084,0.9486228918923687,0.14676290139065423,0.062330527000601,0.21777029388792657,-1.5048120142308812,3.1895323874122683,-1.8373093745037496,1.4905422285374548,-1.3200401032131739,-2.7979794027098754,-0.8759264084350062,-1.8009884079483642,-1.181244665826951,-1.593251628962356,1.779031975106892,-0.5539356934842137,2.382170039583658,-0.18565677351768817
2001-12,2001-12-01,2001Q4,3,True,1.6513,2.198686165901925,1.0987744060549363,1.6461605719568613,-0.3908808334222782,0.15650533247964682,-0.547386165901925,-0.5399814105740339,-0.465415720015415,-0.07456569055861895,-0.08197044588651003,-0.007404755327891088,-0.08197044588651003,-0.07456569055861895,48,515,-22901.301686456678,54,1.9298435675565213e-06,0.5,0.6333333333333333,0.6666666666666666,0.6666666666666666,0.6666666666666666,0.6666666666666666,8,9,7,0.0412134644483403,0.13093286601629972,0.038074326787911006,-0.13760294596248435,-0.09743603981010028,,-0.3842751798263658,0.0412134644483403,0.13093286601629972,0.038074326787911006,0.13760294596248435,0.09743603981010028,,0.3842751798263658,-1.2075156746330764,-1.6427843824297848,-1.8864122318268222,1.5923873510141198,-2.4297369110293263,-0.09037852747959672,0.6200338488957475,-1.5048120142308812,3.1895323874122683,-1.8373093745037496,1.4905422285374548,-1.3200401032131739,-2.7979794027098754,-0.8759264084350062
2002-01,2002-01-01,2002Q1,1,True,6.1261,3.94978278262834,3.331210042072778,1.1548928247011179,2.8378298436151574,0.6615126262434972,2.1763172173716603,2.176358855929209,0.9333768761288761,1.2429819798003328,1.2429403412427842,-4.1638557548573374e-05,2.7237033832735853,2.723745021831134,48,516,-22970.3057121137,54,1.90832476712264e-06,0.0,0.0,0.0,0.0,0.0,0.0,8,9,7,0.013488326535979187,0.4588400471728191,-0.14773641751173905,0.30496299400452104,0.08194201852278826,,0.5519529815488742,0.013488326535979187,0.4588400471728191,0.14773641751173905,0.30496299400452104,0.08194201852278826,,0.5519529815488742,-0.3222869381910413,-0.5074428164111331,-1.9481675355253352,0.8457677845754707,-2.769419471694855,-0.55400709590229,-0.35165257209488876,-1.2075156746330764,-1.6427843824297848,-1.8864122318268222,1.5923873510141198,-2.4297369110293263,-0.09037852747959672,0.6200338488957475
2002-02,2002-02-01,2002Q1,2,True,6.1261,3.838858765919249,3.331210042072778,1.043968807992027,2.8378298436151574,0.5505886095344064,2.287241234080751,2.304344877142875,2.1763172173716603,0.12802765977121489,0.1109240167090908,-0.017103643062124085,0.1109240167090908,0.12802765977121489,48,517,-23020.212196891956,54,1.921096716895925e-06,0.16666666666666666,0.3,0.3333333333333333,0.3333333333333333,0.2222222222222222,0.23809523809523808,8,9,7,0.03500732513520584,0.06013790398887579,0.0972140074082733,0.2456667947233827,0.006751261553301621,-0.02086744687350179,0.014537721052992225,0.03500732513520584,0.06013790398887579,0.0972140074082733,0.2456667947233827,0.006751261553301621,0.02086744687350179,0.014537721052992225,-0.11638060979261651,-0.019299459362074025,-1.762254384614087,1.0804452437078003,-2.6502558025824117,1.8018937695473918,-0.4632125278796145,-0.3222869381910413,-0.5074428164111331,-1.9481675355253352,0.8457677845754707,-2.769419471694855,-0.55400709590229,-0.35165257209488876
2002-03,2002-03-01,2002Q1,3,True,6.1261,3.2175122754802605,3.331210042072778,0.4226223175530386,2.8378298436151574,-0.07075788090458213,2.9085877245197396,2.9070825431981278,2.287241234080751,0.6198413091173767,0.6213464904389885,0.0015051813216118148,0.6213464904389885,0.6198413091173767,48,518,-23069.75792188326,54,1.9068144808069955e-06,0.5,0.6333333333333333,0.6666666666666666,0.6666666666666666,0.6666666666666666,0.6666666666666666,8,9,7,0.14391038329734016,0.10091727228732938,0.008399648047410939,0.16015486507375898,0.0005410737167315764,,0.0460929837972934,0.14391038329734016,0.10091727228732938,0.008399648047410939,0.16015486507375898,0.0005410737167315764,,0.0460929837972934,0.38627885319448446,-0.5042345690428954,-1.496038408844178,1.0279822241673846,-2.452087217811696,-0.01898009325193581,-0.5357553856931312,-0.11638060979261651,-0.019299459362074025,-1.762254384614087,1.0804452437078003,-2.6502558025824117,1.8018937695473918,-0.4632125278796145
2002-04,2002-04-01,2002Q2,1,True,1.2533,-2.9796655053298133,2.4416034968073506,-1.791362008522463,2.793588846914245,-1.4393766584155685,4.232965505329814,4.244421997857454,4.388711403926662,-0.14428940606920726,-0.15574589859684806,-0.011456492527640805,1.324377780810074,1.3358342733377149,48,519,-23115.846467101903,54,1.927125425956503e-06,0.0,0.0,0.0,0.0,0.0,0.0,8,9,7,-0.11601206200597047,0.3269103387727911,-0.09200914952637737,-0.37141107251065725,-0.012732919072067552,,0.18791060441098456,0.11601206200597047,0.3269103387727911,0.09200914952637737,0.37141107251065725,0.012732919072067552,,0.18791060441098456,0.25323418834545985,0.02460382984476638,-1.4956206483376018,0.7217658910014123,-1.5539605985422802,0.9875444841964134,0.560035044445521,0.38627885319448446,-0.5042345690428954,-1.496038408844178,1.0279822241673846,-2.452087217811696,-0.01898009325193581,-0.5357553856931312
2002-05,2002-05-01,2002Q2,2,True,1.2533,-1.618893388786948,2.4416034968073506,-0.4305898919795976,2.793588846914245,-0.07860454187270305,2.872193388786948,2.845213498796294,4.232965505329814,-1.3877520065335198,-1.3607721165428655,0.02697988999065437,-1.3607721165428655,-1.3877520065335198,48,520,-23166.348681219846,54,1.934809965535796e-06,0.20833333333333331,0.3,0.3333333333333333,0.3333333333333333,0.3333333333333333,0.3333333333333333,8,9,7,0.0580434319005191,0.038777454126411086,-0.1397391452496499,-0.3358313956245356,0.05216086585124331,-0.25904783392355235,-0.32445255069402296,0.0580434319005191,0.038777454126411086,0.1397391452496499,0.3358313956245356,0.05216086585124331,0.25904783392355235,0.32445255069402296,-0.33848154695840293,1.1367174268953524,-1.4505747700989133,0.8676304360192713,-1.2380878671001208,0.5330353332626192,0.45096952333855056,0.25323418834545985,0.02460382984476638,-1.4956206483376018,0.7217658910014123,-1.5539605985422802,0.9875444841964134,0.560035044445521
2002-06,2002-06-01,2002Q2,3,True,1.2533,-2.0564023939375637,2.4416034968073506,-0.868098897130213,2.793588846914245,-0.5161135470233185,3.3097023939375636,3.304019296929928,2.872193388786948,0.43182590814297983,0.4375090051506154,0.005683097007635585,0.4375090051506154,0.43182590814297983,48,521,-23209.238090082607,55,1.9034816939050041e-06,0.5,0.6333333333333333,0.6666666666666666,0.6666666666666666,0.6666666666666666,0.6666666666666666,8,9,7,0.029164845371235842,0.11875551748349854,0.05277575568642656,0.29822665016916505,0.006604250306121336,,0.1235465897147377,0.029164845371235842,0.11875551748349854,0.05277575568642656,0.29822665016916505,0.006604250306121336,,0.1235465897147377,0.2246121883115494,-0.7807628305294773,-1.2881832102216253,1.0532310114735173,-1.5928948262663527,-2.7519160139536685,-0.40569200211382245,-0.33848154695840293,1.1367174268953524,-1.4505747700989133,0.8676304360192713,-1.2380878671001208,0.5330353332626192,0.45096952333855056
2002-07,2002-07-01,2002Q3,1,True,4.0286,-0.022306723313660903,1.623168229200497,-2.427738494113164,1.7229743182488702,-2.3279324050647907,4.050906723313661,4.044985417118868,3.9654768104229228,0.07950860669594517,0.08542991289073809,0.005921306194792919,0.7412043293760973,0.7352830231813043,48,522,-23245.647524683143,55,1.9170989179539014e-06,0.0,0.0,0.0,0.0,0.0,0.0,8,9,7,-0.30641927145187603,0.03710418429723693,-0.009729096586775121,0.01757764730733423,-0.03934801834288447,,0.10533126800862985,0.30641927145187603,0.03710418429723693,0.009729096586775121,0.01757764730733423,0.03934801834288447,,0.10533126800862985,0.1694687508013952,0.2961300878981026,-1.1781871770511072,0.8946130535109152,-1.5303644077861935,0.5993276350792534,0.553040573074074,0.2246121883115494,-0.7807628305294773,-1.2881832102216253,1.0532310114735173,-1.5928948262663527,-2.7519160139536685,-0.40569200211382245
2002-08,2002-08-01,2002Q3,2,True,4.0286,0.3560706583083437,1.623168229200497,-2.0493611124911593,1.7229743182488702,-1.949555023442786,3.6725293416916562,3.715864260474372,4.050906723313661,-0.33504246283928873,-0.3783773816220046,-0.04333491878271589,-0.3783773816220046,-0.33504246283928873,48,523,-23290.415672122275,55,1.9242476902318187e-06,0.16666666666666666,0.3,0.3333333333333333,0.3333333333333333,0.3333333333333333,0.3333333333333333,8,9,7,0.19910053816831116,0.0210410564262839,-0.0056831042653681454,-0.19808946028924962,-0.012622281240504088,0.17584708062240928,-0.35420878031010594,0.19910053816831116,0.0210410564262839,0.0056831042653681454,0.19808946028924962,0.012622281240504088,0.17584708062240928,0.35420878031010594,-0.09809867972792279,0.43901228363379025,-1.0761279612488048,0.9861382349008403,-1.2784446132741052,0.27405759994740414,-0.23914868862640062,0.1694687508013952,0.2961300878981026,-1.1781871770511072,0.8946130535109152,-1.5303644077861935,0.5993276350792534,0.553040573074074
2002-09,2002-09-01,2002Q3,3,True,4.0286,0.46860777080031024,1.623168229200497,-1.9368239999991927,1.7229743182488702,-1.8370179109508196,3.5599922291996897,3.5592834739392014,3.6725293416916562,-0.11324586775245482,-0.11253711249196652,0.000708755260488303,-0.11253711249196652,-0.11324586775245482,48,524,-23337.97354888513,55,1.928158940518793e-06,0.4583333333333333,0.6333333333333333,0.6666666666666666,0.6666666666666666,0.6666666666666666,0.6666666666666666,8,9,7,0.1182045266029203,-6.606102846705908e-05,-0.01782568553330613,-0.091777362653842,0.02935040198150919,,-0.29500986300133514,0.1182045266029203,6.606102846705908e-05,0.01782568553330613,0.091777362653842,0.02935040198150919,,0.29500986300133514,-0.2844123131541803,0.18607392101994963,-0.8095779664086759,0.9895834753171169,-0.8772708462437443,0.8347856094066692,-0.36257890950620414,-0.09809867972792279,0.43901228363379025,-1.0761279612488048,0.9861382349008403,-1.2784446132741052,0.27405759994740414,-0.23914868862640062
2002-10,2002-10-01,2002Q4,1,True,1.3818,-0.49966241751437956,0.49557431004891045,-1.385888107465469,2.2352585167387122,0.35379609922433275,1.8814624175143795,1.8847616150594706,2.4442560635196147,-0.5594944484601441,-0.5627936460052352,-0.003299197545091115,-1.6785298116853102,-1.6752306141402191,48,525,-23379.938526435923,55,1.924595724091316e-06,0.0,0.0,0.0,0.0,0.0,0.0,8,9,7,-0.5147118876376884,-0.08287756520828561,0.35092023285529567,-0.17289738589818304,-0.028290020201502206,,-0.33424397701656805,0.5147118876376884,0.08287756520828561,0.35092023285529567,0.17289738589818304,0.028290020201502206,,0.33424397701656805,-0.5139865136003092,-0.6629354361066819,-0.6178555091411767,1.78130564404507,-0.7281505842977011,-0.44264576812230755,-0.3291569248656214,-0.2844123131541803,0.18607392101994963,-0.8095779664086759,0.9895834753171169,-0.8772708462437443,0.8347856094066692,-0.36257890950620414
2002-11,2002-11-01,2002Q4,2,True,1.3818,0.36821673196169225,0.49557431004891045,-0.5180089579893972,2.2352585167387122,1.2216752487004046,1.0135832680383077,1.0089727424309998,1.8814624175143795,-0.8724896750833797,-0.8678791494760718,0.004610525607307903,-0.8678791494760718,-0.8724896750833797,48,526,-23435.4910429603,55,1.9256911091349043e-06,0.16666666666666666,0.3,0.3333333333333333,0.3333333333333333,0.3333333333333333,0.3333333333333333,8,9,7,0.022077979518824887,0.12873219320351667,-0.22183978446788524,0.025274024470931244,-0.0034475562668721503,0.020359680320402876,-0.7666600310503935,0.022077979518824887,0.12873219320351667,0.22183978446788524,0.025274024470931244,0.0034475562668721503,0.020359680320402876,0.7666600310503935,-0.9231715332774348,-0.10659106195049238,-0.6240161869053902,1.3520152891753139,-0.6595609320703095,0.3479335309778118,-0.6810863258710659,-0.5139865136003092,-0.6629354361066819,-0.6178555091411767,1.78130564404507,-0.7281505842977011,-0.44264576812230755,-0.3291569248656214
2002-12,2002-12-01,2002Q4,3,True,1.3818,0.07431152798595853,0.49557431004891045,-0.8119141619651309,2.2352585167387122,0.9277700447246708,1.3074884720140414,1.4332815398095935,1.0135832680383077,0.4196982717712858,0.2939052039757337,-0.1257930677955521,0.2939052039757337,0.4196982717712858,49,527,-24061.37894679004,85,1.8701493078883844e-06,0.5,0.6333333333333333,0.6666666666666666,0.6666666666666666,0.6666666666666666,0.6666666666666666,8,9,8,0.004698417349858716,0.005056168912845273,0.010572438540424622,-0.0030643690815066182,0.01227691631543372,,0.01237201254568275,0.004698417349858716,0.005056168912845273,0.010572438540424622,0.0030643690815066182,0.01227691631543372,,0.01237201254568275,-0.5103594533285131,-0.09887751110013088,-0.8964390368655875,1.365146871525237,-1.016978938082255,-0.9315586329623543,0.2506045099329993,-0.9231715332774348,-0.10659106195049238,-0.6240161869053902,1.3520152891753139,-0.6595609320703095,0.3479335309778118,-0.6810863258710659
2003-01,2003-01-01,2003Q1,1,True,1.428,-1.1326055215218571,2.099367806476623,-0.46123771504523425,1.694643075565467,-0.8659624459563902,2.560605521521857,2.557422408420326,2.6702971552117853,-0.11287474679145948,-0.10969163368992829,0.0031831131015311875,1.2531170495078157,1.2499339364062845,49,528,-24106.655962804492,54,1.917967741871291e-06,0.0,0.0,0.0,0.0,0.0,0.0,8,9,8,0.04534488579562615,0.07555247733343398,0.13515565496056187,-0.42841744350498756,-0.012212724907653131,,-0.019370481473662847,0.04534488579562615,0.07555247733343398,0.13515565496056187,0.42841744350498756,0.012212724907653131,,0.019370481473662847,-0.4417429123027763,0.3639269895942138,-0.7811453413117532,1.7102825880461128,-1.079998265559226,-0.10579373578517946,-0.33255979113692374,-0.5103594533285131,-0.09887751110013088,-0.8964390368655875,1.365146871525237,-1.016978938082255,-0.9315586329623543,0.2506045099329993
2003-02,2003-02-01,2003Q1,2,True,1.428,-1.7898051530807013,2.099367806476623,-1.1184373466040785,1.694643075565467,-1.5231620775152344,3.2178051530807013,3.231079260081124,2.560605521521857,0.670473738559267,0.6571996315588442,-0.013274107000422752,0.6571996315588442,0.670473738559267,49,529,-24145.819628673413,54,1.8867011783053917e-06,0.16666666666666666,0.3,0.3333333333333333,0.3333333333333333,0.2222222222222222,0.25,8,9,8,0.027807069293225836,0.06657391474694074,-0.023929225002726845,0.5887842126307017,-0.006551714740546551,0.022743610010281,0.28942905586954304,0.027807069293225836,0.06657391474694074,0.023929225002726845,0.5887842126307017,0.006551714740546551,0.022743610010281,0.28942905586954304,0.019309600838336657,-0.19518306448300543,-0.6603252807830043,1.4457089371489302,-1.2061898591155717,1.5185896615814611,0.36645742781576035,-0.4417429123027763,0.3639269895942138,-0.7811453413117532,1.7102825880461128,-1.079998265559226,-0.10579373578517946,-0.33255979113692374
2003-03,2003-03-01,2003Q1,3,True,1.428,-0.8835020948794572,2.099367806476623,-0.21213428840283433,1.694643075565467,-0.6168590193139902,2.311502094879457,2.302594149085128,3.2178051530807013,-0.9152110039955734,-0.9063030582012441,0.008907945794329297,-0.9063030582012441,-0.9152110039955734,49,530,-24200.410028378574,53,1.936381853915783e-06,0.5,0.6333333333333333,0.6666666666666666,0.6666666666666666,0.6666666666666666,0.6666666666666666,8,9,8,-0.03538241293256051,0.027942776386090492,-0.06232920773029568,-0.3377559863705457,-0.002464172723248145,,-0.4015588032979698,0.03538241293256051,0.027942776386090492,0.06232920773029568,0.3377559863705457,0.002464172723248145,,0.4015588032979698,-0.7547307155981604,-1.0886887103729064,-0.5487173396976857,1.2742340168160755,-0.9813664785759236,1.432446758942078,0.35860599256396636,0.019309600838336657,-0.19518306448300543,-0.6603252807830043,1.4457089371489302,-1.2061898591155717,1.5185896615814611,0.36645742781576035
2003-04,2003-04-01,2003Q2,1,True,3.2808,1.6281420427598021,3.528909688198931,1.8762517309587328,3.461147051245602,1.808489094005404,1.652657957240198,1.6471386716302359,1.7998055399171855,-0.15266686828694964,-0.14714758267698747,0.005519285609962177,-0.6588441376392591,-0.6643634232492213,49,531,-24231.92577139569,52,1.9221918638990228e-06,0.0,0.0,0.0,0.0,0.0,0.0,8,9,8,0.09639610052900784,-0.0045296783931369575,0.23203596180645858,-0.20091729953794152,0.005542155656800158,,-0.02703957451774204,0.09639610052900784,0.0045296783931369575,0.23203596180645858,0.20091729953794152,0.005542155656800158,,0.02703957451774204,-0.623145890902715,1.0758705926035033,-0.37469306743138653,1.6303493419619282,-0.8406449975331337,-1.18661536424556,-0.04474755391178372,-0.7547307155981604,-1.0886887103729064,-0.5487173396976857,1.2742340168160755,-0.9813664785759236,1.432446758942078,0.35860599256396636
2003-05,2003-05-01,2003Q2,2,True,3.2808,2.4360686400068983,3.528909688198931,2.684178328205829,3.461147051245602,2.6164156912525,0.8447313599931019,0.8481021060758116,1.652657957240198,-0.8045558511643864,-0.8079265972470961,-0.003370746082709708,-0.8079265972470961,-0.8045558511643864,49,532,-24263.32155379757,52,1.9152274632812074e-06,0.16666666666666666,0.3,0.3333333333333333,0.3333333333333333,0.3333333333333333,0.3333333333333333,8,9,8,-0.028698270801237463,0.0827733512172796,-0.10548051850409217,-0.41001865995516096,0.013765892852031177,0.03275531572418175,-0.45954958025965115,0.028698270801237463,0.0827733512172796,0.10548051850409217,0.41001865995516096,0.013765892852031177,0.03275531572418175,0.45954958025965115,-1.0093786408168859,-0.29159376926661673,-0.2821888339535916,1.4509531952350683,-1.1986287430179952,-3.8294458639619706,-0.36395788681414853,-0.623145890902715,1.0758705926035033,-0.37469306743138653,1.6303493419619282,-0.8406449975331337,-1.18661536424556,-0.04474755391178372
2003-06,2003-06-01,2003Q2,3,True,3.2808,2.129863883718927,3.528909688198931,2.377973571917858,3.461147051245602,2.310210934964529,1.150936116281073,1.1387585469770203,0.8447313599931019,0.2940271869839184,0.30620475628797106,0.012177569304052671,0.30620475628797106,0.2940271869839184,49,533,-24347.9799523704,51,1.8772857064701446e-06,0.5,0.6333333333333333,0.6666666666666666,0.6666666666666666,0.6666666666666666,0.6666666666666666,8,9,8,-0.06522666944483618,-0.014527592503640241,0.013783961518669213,0.08299886910823152,0.023516350989847317,,0.4216647387509747,0.06522666944483618,0.014527592503640241,0.013783961518669213,0.08299886910823152,0.023516350989847317,,0.4216647387509747,-0.4536583141919779,-0.01559914909082533,-0.1548416335206888,1.4431227079976507,-1.1186182416089754,1.3742574752312047,0.3856263469153874,-1.0093786408168859,-0.29159376926661673,-0.2821888339535916,1.4509531952350683,-1.1986287430179952,-3.8294458639619706,-0.36395788681414853
2003-07,2003-07-01,2003Q3,1,True,8.2034,5.647499148096331,6.597666088606294,4.041765236702624,3.9214020916825034,1.3655012397788338,2.5559008519036697,2.556514381982502,2.5405038944795146,0.01601048750298739,0.015396957424155033,-0.0006135300788323583,1.4049647356225967,1.405578265701429,49,534,-24386.51928896251,51,1.8748857746014227e-06,0.0,0.0,0.0,0.0,0.0,0.0,8,9,8,0.06886889415992223,-0.0740826312690862,0.1082589454485389,-0.2807202166833103,-0.04290813020466371,,0.2923607658189694,0.06886889415992223,0.0740826312690862,0.1082589454485389,0.2807202166833103,0.04290813020466371,,0.2923607658189694,-0.3128016551576565,0.11711957157017722,-0.050629669918041145,1.5570395438992088,-1.465622779400425,1.5349381896255327,0.6861825171592127,-0.4536583141919779,-0.01559914909082533,-0.1548416335206888,1.4431227079976507,-1.1186182416089754,1.3742574752312047,0.3856263469153874
2003-08,2003-08-01,2003Q3,2,True,8.2034,5.311524076247327,6.597666088606294,3.7057901648536213,3.9214020916825034,1.0295261679298306,2.8918759237526728,2.9016187450819766,2.5559008519036697,0.3457178931783069,0.3359750718490031,-0.009742821329303819,0.3359750718490031,0.3457178931783069,49,535,-24460.244340961726,51,1.8820198274654566e-06,0.16666666666666666,0.3,0.3333333333333333,0.3333333333333333,0.3333333333333333,0.3333333333333333,8,9,8,0.11552158691650992,0.33906295886864113,0.10069665546394974,-0.06290238900330444,-0.006109747792545709,-0.07923784803783367,-0.11929793336153019,0.11552158691650992,0.33906295886864113,0.10069665546394974,0.06290238900330444,0.006109747792545709,0.07923784803783367,0.11929793336153019,-0.026034102337587323,0.46444476430247433,-0.28248030939662694,1.532690275868694,-1.9846228937998331,-0.11181934820692528,-0.1834839944628113,-0.3128016551576565,0.11711957157017722,-0.050629669918041145,1.5570395438992088,-1.465622779400425,1.5349381896255327,0.6861825171592127
2003-09,2003-09-01,2003Q3,3,True,8.2034,5.491591500033858,6.597666088606294,3.8858575886401523,3.9214020916825034,1.2095935917163616,2.711808499966142,2.71238983878632,2.8918759237526728,-0.17948608496635288,-0.18006742378653096,-0.0005813388201780789,-0.18006742378653096,-0.17948608496635288,49,536,-24505.62378020887,51,1.9137778728797098e-06,0.5,0.6333333333333333,0.6666666666666666,0.6666666666666666,0.6666666666666666,0.6666666666666666,8,9,8,0.07298896918666942,0.06245904879500921,-0.016465205158540212,-0.09382890654000013,0.005988099212616915,,-0.43745621287369246,0.07298896918666942,0.06245904879500921,0.016465205158540212,0.09382890654000013,0.005988099212616915,,0.43745621287369246,-0.2194846102887651,-0.41857299907305734,-0.47436928019704766,1.4994284517456682,-1.6784035277982041,0.7760435139881846,-0.49374429480510357,-0.026034102337587323,0.46444476430247433,-0.28248030939662694,1.532690275868694,-1.9846228937998331,-0.11181934820692528,-0.1834839944628113
2003-10,2003-10-01,2003Q4,1,True,4.1417,0.7059468036483687,4.616721675473258,1.1809684791216264,3.385368055728176,-0.05038514062345545,3.4357531963516315,3.4331601565979066,3.145949876872182,0.28721027972572477,0.2898033194794496,0.002593039753724824,0.7239446963854896,0.7213516566317648,49,537,-24552.059828914927,50,1.9169591229018213e-06,0.0,0.0,0.0,0.0,0.0,0.0,8,9,8,-0.0919446050188816,-0.15816962385030997,0.15604772819425708,0.042838305497735915,0.005208592586807704,,0.17533301744991703,0.0919446050188816,0.15816962385030997,0.15604772819425708,0.042838305497735915,0.005208592586807704,,0.17533301744991703,-0.02830465678300634,-0.05432954496794598,-0.45593673075527585,1.5552509383964503,-1.2890162242726775,-0.3150022298648043,0.8919884422999351,-0.2194846102887651,-0.41857299907305734,-0.47436928019704766,1.4994284517456682,-1.6784035277982041,0.7760435139881846,-0.49374429480510357
2003-11,2003-11-01,2003Q4,2,True,4.1417,0.73180640192466,4.616721675473258,1.2068280773979176,3.385368055728176,-0.024525542347164198,3.40989359807534,3.3751102299313955,3.4357531963516315,-0.06064296642023592,-0.02585959827629125,0.03478336814394467,-0.02585959827629125,-0.06064296642023592,49,538,-24580.433015296363,51,1.9256034061401493e-06,0.041666666666666664,0.3,0.3333333333333333,0.3333333333333333,0.3333333333333333,0.3333333333333333,8,9,8,-0.04181817778052532,-0.06490578607852734,0.02335364358538895,0.08183408510514396,-0.0101104769721111,-0.2967102348918941,-0.11099831183957082,0.04181817778052532,0.06490578607852734,0.02335364358538895,0.08183408510514396,0.0101104769721111,0.2967102348918941,0.11099831183957082,0.06085240563573017,-0.5093384880758344,-0.384334354072796,1.690360035092367,-0.9791277900623121,-1.6721918681834795,-0.48921461960052504,-0.02830465678300634,-0.05432954496794598,-0.45593673075527585,1.5552509383964503,-1.2890162242726775,-0.3150022298648043,0.8919884422999351
2003-12,2003-12-01,2003Q4,3,True,4.1417,-0.6281508205971029,4.616721675473258,-0.15312914512384523,3.385368055728176,-1.384482764868927,4.769850820597103,4.666989321315626,3.40989359807534,1.2570957232402855,1.3599572225217629,0.10286149928147736,1.3599572225217629,1.2570957232402855,44,539,-21470.341120394012,93,1.9171359250368498e-06,0.4583333333333333,0.6333333333333333,0.6666666666666666,0.6666666666666666,0.6666666666666666,0.6666666666666666,8,6,6,0.06155317734847493,-0.0035277139818359997,0.08118982756803148,0.1537944859007648,-0.03220294424257359,,0.2567441732012721,0.06155317734847493,0.0035277139818359997,0.08118982756803148,0.1537944859007648,0.03220294424257359,,0.2567441732012721,0.7016507919098064,-0.07859762887091756,-0.36606659458540197,1.5476645914124498,-1.5424317133309897,-0.8484303775064987,0.20373729219879264,0.06085240563573017,-0.5093384880758344,-0.384334354072796,1.690360035092367,-0.9791277900623121,-1.6721918681834795,-0.48921461960052504
2004-01,2004-01-01,2004Q1,1,True,3.9049,-0.8802478530752302,2.2596775153232187,-2.5254703377520116,3.4831910198162053,-1.301956833259025,4.78514785307523,4.728572886339781,4.430404782632965,0.298168103706816,0.3547430704422654,0.05657496673544937,0.015297032478127193,-0.04127793425732218,50,540,-25508.36108356602,86,1.9094368577233395e-06,0.0,0.0,0.0,0.0,0.0,0.0,9,9,8,-0.20543248724140192,0.09941673768198489,0.11403470621647784,-0.21510522007858357,0.034349438078138055,0.6603255726714731,-0.24127932955702341,0.20543248724140192,0.09941673768198489,0.11403470621647784,0.21510522007858357,0.034349438078138055,0.6603255726714731,0.24127932955702341,0.3544151853159638,-0.1536113075883759,-0.36001449427085025,1.7055319811364245,-1.6408130104297527,1.8800819496139305,-0.5001165974341697,0.7016507919098064,-0.07859762887091756,-0.36606659458540197,1.5476645914124498,-1.5424317133309897,-0.8484303775064987,0.20373729219879264
2004-02,2004-02-01,2004Q1,2,True,3.9049,-0.35852412281256063,2.2596775153232187,-2.003746607489342,3.4831910198162053,-0.7802331029963554,4.263424122812561,4.259355823970531,4.78514785307523,-0.5257920291046991,-0.5217237302626696,0.004068298842029527,-0.5217237302626696,-0.5257920291046991,50,541,-25553.55866309733,54,1.9050673398766427e-06,0.14814814814814814,0.3,0.3333333333333333,0.3333333333333333,0.18518518518518517,0.25,9,9,8,-0.10011611637905156,0.04631127103632497,-0.1800348717819765,0.14267427357105378,0.030441146346475028,0.0071314172905832,-0.42599288386442546,0.10011611637905156,0.04631127103632497,0.1800348717819765,0.14267427357105378,0.030441146346475028,0.0071314172905832,0.42599288386442546,0.00024217697833284898,-0.5229235291162742,-0.31668882281418165,1.4522577911715673,-0.9303723610418899,1.4478699698668387,0.07450885267478136,0.3544151853159638,-0.1536113075883759,-0.36001449427085025,1.7055319811364245,-1.6408130104297527,1.8800819496139305,-0.5001165974341697
2004-03,2004-03-01,2004Q1,3,True,3.9049,-0.5621166856975166,2.2596775153232187,-2.207339170374298,3.4831910198162053,-0.9838256658813114,4.467016685697517,4.465058026610473,4.263424122812561,0.20163390379791224,0.20359256288495597,0.001958659087043735,0.20359256288495597,0.20163390379791224,50,542,-25607.290538248053,52,1.928621746279316e-06,0.5185185185185185,0.6333333333333333,0.6666666666666666,0.6666666666666666,0.6296296296296297,0.6666666666666666,9,9,8,0.005126478186826523,0.03177675902010789,-0.0012727667040514992,-0.05007239983795796,0.00016258807248594538,,0.08468542651403985,0.005126478186826523,0.03177675902010789,0.0012727667040514992,0.05007239983795796,0.00016258807248594538,,0.08468542651403985,0.23738461115361142,-0.36751199475518387,-0.19982554005927994,1.2025196726496818,-0.9873282868221777,-0.9237381198194978,1.0125725841137163,0.00024217697833284898,-0.5229235291162742,-0.31668882281418165,1.4522577911715673,-0.9303723610418899,1.4478699698668387,0.07450885267478136
2004-04,2004-04-01,2004Q2,1,True,3.3007,-0.39401935786694553,3.088636833138961,-0.6060825247279844,4.102211095553569,0.4074917376866236,3.6947193578669455,3.692540630737451,3.429662361966437,0.26287826877101406,0.2650569959005087,0.0021787271294946287,-0.7722973278305711,-0.7744760549600658,50,543,-25642.608749567775,53,1.8958946342711263e-06,0.0,0.0,0.0,0.0,0.0,0.0,9,9,8,0.12309856428532256,-0.06533395565951786,0.16388260876240976,0.07750337004378904,0.016621909979481375,,-0.42980544506434953,0.12309856428532256,0.06533395565951786,0.16388260876240976,0.07750337004378904,0.016621909979481375,,0.42980544506434953,0.2971796678900065,0.5531157298226104,-0.137233365856483,1.5572218024404518,-0.8034457173087839,0.8141520922480848,-0.9218040588219515,0.23738461115361142,-0.36751199475518387,-0.19982554005927994,1.2025196726496818,-0.9873282868221777,-0.9237381198194978,1.0125725841137163
2004-05,2004-05-01,2004Q2,2,True,3.3007,-1.190409439776146,3.088636833138961,-1.4024726066371849,4.102211095553569,-0.38889834422257685,4.491109439776146,4.498459563020111,3.6947193578669455,0.8037402051531655,0.7963900819092005,-0.007350123243965001,0.7963900819092005,0.8037402051531655,50,544,-25690.831241353626,52,1.945135582696958e-06,0.18518518518518517,0.3,0.3333333333333333,0.3333333333333333,0.3333333333333333,0.3333333333333333,9,9,8,0.0233145694165662,0.228026025889239,0.02471541412463919,0.044473400245368604,-0.0031356983519171063,0.06254449721478574,0.15211773297728218,0.0233145694165662,0.228026025889239,0.02471541412463919,0.044473400245368604,0.0031356983519171063,0.06254449721478574,0.15211773297728218,0.583277766257492,-0.9174740171780297,-0.22829182111734742,1.3453941551620454,-0.5608584364780372,-1.2533821862564685,0.017356305007697734,0.2971796678900065,0.5531157298226104,-0.137233365856483,1.5572218024404518,-0.8034457173087839,0.8141520922480848,-0.9218040588219515
2004-06,2004-06-01,2004Q2,3,True,3.3007,-1.343656972325932,3.088636833138961,-1.5557201391869708,4.102211095553569,-0.5421458767723628,4.644356972325932,4.6463034221562705,4.491109439776146,0.1551939823801245,0.15324753254978596,-0.001946449830338537,0.15324753254978596,0.1551939823801245,50,545,-25732.167892267986,52,1.9311723712249593e-06,0.5185185185185185,0.6333333333333333,0.6666666666666666,0.6666666666666666,0.6666666666666666,0.6666666666666666,9,9,8,-0.13219170088905843,0.018319319103376232,-0.01765497929583561,-0.03301766911808507,-0.012879871294063353,,0.029588197592326816,0.13219170088905843,0.018319319103376232,0.01765497929583561,0.03301766911808507,0.012879871294063353,,0.029588197592326816,0.6311161175383491,0.020226518350910043,-0.3611905958010435,1.3354507510338314,-0.052246494001909664,2.033852440047374,0.45543699828768314,0.583277766257492,-0.9174740171780297,-0.22829182111734742,1.3453941551620454,-0.5608584364780372,-1.2533821862564685,0.017356305007697734
2004-07,2004-07-01,2004Q3,1,True,4.0013,0.7397208275683407,3.7747005292557776,0.5131213568241186,4.180469799842558,0.918890627410899,3.261579172431659,3.2621294725563925,4.61067591297895,-1.3485464404225573,-1.349096740547291,-0.0005503001247335604,-1.382777799894273,-1.3822274997695394,50,546,-25774.44370510817,52,1.9120535616137176e-06,0.0,0.0,0.0,0.0,0.0,0.0,9,9,8,-0.12787067470349664,0.0007142492695934768,-0.20794364837716653,-0.4080711331014455,0.011952563802019698,,-0.30280027291828104,0.12787067470349664,0.0007142492695934768,0.20794364837716653,0.4080711331014455,0.011952563802019698,,0.30280027291828104,-0.1560180756215,-0.8845930257839256,-0.3976062604728568,1.3552031359789916,-0.2631000253189937,-1.6034457331728356,-0.5057173995070611,0.6311161175383491,0.020226518350910043,-0.3611905958010435,1.3354507510338314,-0.052246494001909664,2.033852440047374,0.45543699828768314
2004-08,2004-08-01,2004Q3,2,True,4.0013,0.19761803864382044,3.7747005292557776,-0.028981432100401605,4.180469799842558,0.37678783848637876,3.803681961356179,3.7899054978701474,3.261579172431659,0.5283263254384885,0.5421027889245202,0.013776463486031787,0.5421027889245202,0.5283263254384885,50,547,-25849.91658326875,51,1.9462065489150066e-06,0.18518518518518517,0.3,0.3333333333333333,0.3333333333333333,0.3333333333333333,0.3333333333333333,9,9,8,0.14680853012741177,-0.08025338732962695,0.12265426791136,-0.034760727997764695,-0.019893056583718767,0.11330445649372374,0.12920832066444654,0.14680853012741177,0.08025338732962695,0.12265426791136,0.034760727997764695,0.019893056583718767,0.11330445649372374,0.12920832066444654,0.1504254127367033,0.3555243356771176,-0.09424921842909086,1.6534521474510022,-0.17631850090415455,-1.8604704342508436,0.4648717085648542,-0.1560180756215,-0.8845930257839256,-0.3976062604728568,1.3552031359789916,-0.2631000253189937,-1.6034457331728356,-0.5057173995070611
2004-09,2004-09-01,2004Q3,3,True,4.0013,-0.10653964472129118,3.7747005292557776,-0.3331391154655132,4.180469799842558,0.07263015512126714,4.107839644721291,4.108505865990481,3.803681961356179,0.304823904634302,0.3041576833651116,-0.0006662212691903591,0.3041576833651116,0.304823904634302,50,548,-25898.927799350815,51,1.918401527592894e-06,0.5185185185185185,0.6333333333333333,0.6666666666666666,0.6666666666666666,0.6666666666666666,0.6666666666666666,9,9,8,-0.13777571594703214,-0.0015177517139406517,0.023596898731685502,-0.03466303902204395,-0.015139748027338801,,-0.0660050539466514,0.13777571594703214,0.0015177517139406517,0.023596898731685502,0.03466303902204395,0.015139748027338801,,0.0660050539466514,0.16478107474222062,-0.3886696166687866,0.13487734926055894,1.67783150792634,-0.275713920060727,0.4440553903347392,0.22470496910758195,0.1504254127367033,0.3555243356771176,-0.09424921842909086,1.6534521474510022,-0.17631850090415455,-1.8604704342508436,0.4648717085648542
2004-10,2004-10-01,2004Q4,1,True,3.8483,1.5705277455604971,4.06115695315297,1.7833846987134674,3.1720738435199647,0.8943015890804618,2.277772254439503,2.272838309593438,3.3311409509898473,-1.0583026413964092,-1.0533686965503444,0.004933944846064797,-1.8300673902817879,-1.8350013351278527,50,549,-25939.567236621322,51,1.9129160337780052e-06,0.0,0.0,0.0,0.0,0.0,0.0,9,9,8,0.06952885698240088,-0.057464059934981666,-0.18114815241709625,-0.2141327324313563,0.015581288044385003,,-0.4994443833280098,0.06952885698240088,0.057464059934981666,0.18114815241709625,0.2141327324313563,0.015581288044385003,,0.4994443833280098,-0.4535038260273894,0.3359706518973043,0.31259053736637143,1.753949207094936,-0.25130625736222173,0.6863695358661122,-0.46486891821246784,0.16478107474222062,-0.3886696166687866,0.13487734926055894,1.67783150792634,-0.275713920060727,0.4440553903347392,0.22470496910758195
2004-11,2004-11-01,2004Q4,2,True,3.8483,0.8503451473906196,4.06115695315297,1.0632021005435899,3.1720738435199647,0.17411899091058425,2.9979548526093804,2.9956647927293005,2.277772254439503,0.7178925382897976,0.7201825981698775,0.002290059880079909,0.7201825981698775,0.7178925382897976,50,550,-25979.31457393532,51,1.901301436411434e-06,0.037037037037037035,0.3,0.3333333333333333,0.3333333333333333,0.2222222222222222,0.25,9,9,8,-0.03673487588965553,-0.01195726081136073,0.18095661086948084,0.1856933638120371,-0.011713759708944149,0.012725176842970561,0.25175058908954817,0.03673487588965553,0.01195726081136073,0.18095661086948084,0.1856933638120371,0.011713759708944149,0.012725176842970561,0.25175058908954817,0.09286918016770339,-0.1525484325420717,0.44325959504447154,1.762769819107923,-0.09064309945462734,2.5134071359089387,0.7442756817169754,-0.4535038260273894,0.3359706518973043,0.31259053736637143,1.753949207094936,-0.25130625736222173,0.6863695358661122,-0.46486891821246784
2004-12,2004-12-01,2004Q4,3,True,3.8483,0.8843491913322015,4.06115695315297,1.0972061444851717,3.1720738435199647,0.2081230348521661,2.9639508086677986,2.9537928730153378,2.9979548526093804,-0.044161979594042666,-0.03400404394158185,0.010157935652460814,-0.03400404394158185,-0.044161979594042666,50,551,-26013.596119879337,51,1.911587924240155e-06,0.5185185185185185,0.6333333333333333,0.6666666666666666,0.6666666666666666,0.6666666666666666,0.6666666666666666,9,9,8,-0.02486088436237833,0.013108296981742443,-0.0790824728887883,0.02187741049821275,0.009552235888018162,,0.005753263262822515,0.02486088436237833,0.013108296981742443,0.0790824728887883,0.02187741049821275,0.009552235888018162,,0.005753263262822515,-0.1464810547341816,-0.4376758401507501,0.5149813974375828,1.2554029272815355,-0.28625085425125846,-2.4453125627161554,0.0630899439049722,0.09286918016770339,-0.1525484325420717,0.44325959504447154,1.762769819107923,-0.09064309945462734,2.5134071359089387,0.7442756817169754
2005-01,2005-01-01,2005Q1,1,True,3.7592,-2.4452270499031563,4.411828095660334,-1.7925989542428225,3.2144751660915842,-2.989951883811572,6.204427049903156,6.298538215985134,3.2663309133358296,3.032207302649305,2.9380961365673266,-0.09411116608197823,3.2404762412353576,3.334587407317336,50,552,-26061.18702568239,51,1.9056443372435646e-06,0.0,0.0,0.0,0.0,0.0,0.0,9,9,8,0.09070690951916174,-0.03927953091996759,0.24959514972593172,0.06038025702279506,0.016096307276796416,,2.5908654059305105,0.09070690951916174,0.03927953091996759,0.24959514972593172,0.06038025702279506,0.016096307276796416,,2.5908654059305105,1.3881582464333586,0.4480304744761978,0.705709896007144,1.0274887861644666,-1.3922436034862706,-1.4973333783608385,-1.1495825675522893,-0.1464810547341816,-0.4376758401507501,0.5149813974375828,1.2554029272815355,-0.28625085425125846,-2.4453125627161554,0.0630899439049722
2005-02,2005-02-01,2005Q1,2,True,3.7592,-0.1826747771745163,4.411828095660334,0.46995331848581756,3.2144751660915842,-0.7273996110829319,3.941874777174516,3.842096653331181,6.204427049903156,-2.3623303965719753,-2.26255227272864,0.09977812384333529,-2.26255227272864,-2.3623303965719753,50,553,-26107.831612997637,51,1.8951009150355181e-06,0.18518518518518517,0.3,0.3333333333333333,0.3333333333333333,0.3333333333333333,0.3333333333333333,9,9,8,-0.25808386093018953,-0.02608413187894573,0.05321481179125581,-0.32194668393446985,-0.023757253293586543,0.08815506660996607,-1.743089993746455,0.25808386093018953,0.02608413187894573,0.05321481179125581,0.32194668393446985,0.023757253293586543,0.08815506660996607,1.743089993746455,-0.11183906876031963,-0.7053572239134989,0.716327193247827,2.1776817022971997,-0.6425575856383985,0.9568841329690988,0.4376739810951754,1.3881582464333586,0.4480304744761978,0.705709896007144,1.0274887861644666,-1.3922436034862706,-1.4973333783608385,-1.1495825675522893
2005-03,2005-03-01,2005Q1,3,True,3.7592,-0.017763706665337775,4.411828095660334,0.6348643889949961,3.2144751660915842,-0.5624885405737534,3.7769637066653377,3.7579631960940403,3.941874777174516,-0.1839115810804759,-0.16491107050917853,0.01900051057129737,-0.16491107050917853,-0.1839115810804759,50,554,-26166.31495402046,51,1.9032826847064195e-06,0.5555555555555555,0.6333333333333333,0.6666666666666666,0.6666666666666666,0.6666666666666666,0.6666666666666666,9,9,8,0.04118182321752005,-0.024925981933817606,0.048396570981021715,0.140635657362788,0.010435904104522,,-0.5265343765463663,0.04118182321752005,0.024925981933817606,0.048396570981021715,0.140635657362788,0.010435904104522,,0.5265343765463663,-0.16199112232206772,-0.18621562381754933,0.9005284461102171,2.275016153974179,-0.28181410876171137,1.0334423241377533,0.6927424704877592,-0.11183906876031963,-0.7053572239134989,0.716327193247827,2.1776817022971997,-0.6425575856383985,0.9568841329690988,0.4376739810951754
2005-04,2005-04-01,2005Q2,1,True,3.3096,1.3671934619245478,1.9667939208364422,0.02438738276098995,3.4961336991724385,1.5537271610969863,1.9424065380754523,1.9384658059310615,3.000817360975172,-1.0623515550441105,-1.0584108228997198,0.003940732144390724,-1.8345571685898854,-1.838497900734276,50,555,-26218.571511328133,50,1.943781843178124e-06,0.0,0.0,0.0,0.0,0.0,0.0,9,9,8,-0.22224817591892218,0.10985894694926525,-0.4073567708157456,-0.15358364919375378,0.0251162062199617,,-0.3843312522482408,0.22224817591892218,0.10985894694926525,0.4073567708157456,0.15358364919375378,0.0251162062199617,,0.3843312522482408,-0.6975702508775051,0.06116762394610356,0.8019136430106111,1.6763853263176187,0.2741923405468559,1.4417663104910454,0.11353057132813892,-0.16199112232206772,-0.18621562381754933,0.9005284461102171,2.275016153974179,-0.28181410876171137,1.0334423241377533,0.6927424704877592
2005-05,2005-05-01,2005Q2,2,True,3.3096,0.6094128591660071,1.9667939208364422,-0.7333932199975508,3.4961336991724385,0.7959465583384455,2.700187140833993,2.6904249133538536,1.9424065380754523,0.7480183752784013,0.7577806027585408,0.00976222748013944,0.7577806027585408,0.7480183752784013,50,556,-26280.71279734947,51,1.896476836318206e-06,0.18518518518518517,0.3,0.3333333333333333,0.3333333333333333,0.3333333333333333,0.3333333333333333,9,9,8,0.10435978110048,-0.12956875039043844,0.08242090674803147,0.36225353292669304,-0.006118589122940662,0.05418127401423833,0.24706814790417866,0.10435978110048,0.12956875039043844,0.08242090674803147,0.36225353292669304,0.006118589122940662,0.05418127401423833,0.24706814790417866,-0.15044712584502498,0.3241280047188089,0.8707883175146008,1.929675243247539,0.20177143154841284,-0.423509560637884,-0.31303317482416204,-0.6975702508775051,0.06116762394610356,0.8019136430106111,1.6763853263176187,0.2741923405468559,1.4417663104910454,0.11353057132813892
2005-06,2005-06-01,2005Q2,3,True,3.3096,0.5633535336151101,1.9667939208364422,-0.7794525455484478,3.4961336991724385,0.7498872327875485,2.74624646638489,2.7454354487455928,2.700187140833993,0.04524830791159973,0.04605932555089698,0.0008110176392972512,0.04605932555089698,0.04524830791159973,50,557,-26326.593348276438,50,1.9058702902270347e-06,0.5185185185185185,0.6333333333333333,0.6666666666666666,0.6666666666666666,0.6666666666666666,0.6666666666666666,9,9,8,0.1882154727430056,-0.07836013689298356,0.02019483140033181,-0.0784406614198172,-0.016622840001212752,,0.13952047570509063,0.1882154727430056,0.07836013689298356,0.02019483140033181,0.0784406614198172,0.016622840001212752,,0.13952047570509063,-0.040765994842225386,-0.7202287072509235,1.0159599376187152,1.7886757978917547,0.001961132334678643,-2.8510404406704755,0.6216387248930814,-0.15044712584502498,0.3241280047188089,0.8707883175146008,1.929675243247539,0.20177143154841284,-0.423509560637884,-0.31303317482416204
2005-07,2005-07-01,2005Q3,1,True,4.1425,0.9845535308478355,3.1229045345441,-0.03504193460806437,3.4700760224428264,0.31212955329066183,3.1579464691521646,3.1548567500708633,3.3164972592867197,-0.16164050921585638,-0.1585507901345551,0.00308971908130129,0.4117000027672746,0.4086102836859733,50,558,-26371.602824374895,50,1.924888074645666e-06,0.0,0.0,0.0,0.0,0.0,0.0,9,9,8,0.26773060361988466,-0.10943875545995685,-0.028402712913885533,-0.10839214872907481,-0.022938815562907132,,-0.09724716136972944,0.26773060361988466,0.10943875545995685,0.028402712913885533,0.10839214872907481,0.022938815562907132,,0.09724716136972944,-0.13133993506937486,0.525395052028543,1.0060966622435048,1.8263687690191908,0.03544919489405887,0.4228526332518098,0.40923202750209153,-0.040765994842225386,-0.7202287072509235,1.0159599376187152,1.7886757978917547,0.001961132334678643,-2.8510404406704755,0.6216387248930814
2005-08,2005-08-01,2005Q3,2,True,4.1425,0.570192582155705,3.1229045345441,-0.44940288330019484,3.4700760224428264,-0.10223139540146864,3.572307417844295,3.5951881518375775,3.1579464691521646,0.43724168268541286,0.41436094869213047,-0.022880733993282387,0.41436094869213047,0.43724168268541286,50,559,-26396.15435674557,49,1.9368319982589444e-06,0.18518518518518517,0.3,0.3333333333333333,0.3333333333333333,0.2222222222222222,0.25,9,9,8,-0.11346313668530855,0.08323088958443707,0.05328577945524489,0.04252801956496787,0.03751029109447854,-0.06937998003373705,0.2095105384166908,0.11346313668530855,0.08323088958443707,0.05328577945524489,0.04252801956496787,0.03751029109447854,0.06937998003373705,0.2095105384166908,0.0955047113708372,0.5940738269050203,1.1141795927723677,1.7763920280132346,-0.2206158478966942,2.42786808342319,-0.4543538722555259,-0.13133993506937486,0.525395052028543,1.0060966622435048,1.8263687690191908,0.03544919489405887,0.4228526332518098,0.40923202750209153
2005-09,2005-09-01,2005Q3,3,True,4.1425,1.3322605651905368,3.1229045345441,0.31266509973463696,3.4700760224428264,0.6598365876333632,2.8102394348094633,2.80534612134202,3.572307417844295,-0.766961296502275,-0.7620679830348318,0.00489331346744315,-0.7620679830348318,-0.766961296502275,50,560,-26451.960123680936,49,1.9204452078443284e-06,0.5185185185185185,0.6333333333333333,0.6666666666666666,0.6666666666666666,0.6666666666666666,0.6666666666666666,9,9,8,-0.1053679592753714,-0.039913734872571494,-0.011632430355661246,0.051858420511153774,-0.004841648343624689,,-0.6923485815243247,0.1053679592753714,0.039913734872571494,0.011632430355661246,0.051858420511153774,0.004841648343624689,,0.6923485815243247,-0.5086929793224867,-2.0918147981602466,1.1325699194662169,2.016043495307476,0.06378319193142817,0.571149501649183,0.7300896385636211,0.0955047113708372,0.5940738269050203,1.1141795927723677,1.7763920280132346,-0.2206158478966942,2.42786808342319,-0.4543538722555259
2005-10,2005-10-01,2005Q4,1,True,1.6527,0.7826058388017214,2.2147501142611516,1.344655953062873,4.920275449617585,4.0501812884193065,0.8700941611982786,0.8687601441270094,2.4956916293785243,-1.6269314852515149,-1.6255974681802456,0.0013340170712692334,-1.9401452736111846,-1.9414792906824538,50,561,-26498.79295082244,49,1.8998983604636173e-06,0.0,0.0,0.0,0.0,0.0,0.0,9,9,8,-0.010013119602722338,-0.18685364861986,0.06651958175334485,-0.8004710070872068,0.029448711192132222,,-0.2314804966004569,0.010013119602722338,0.18685364861986,0.06651958175334485,0.8004710070872068,0.029448711192132222,,0.2314804966004569,-1.2354141465192139,-0.583557028111527,1.082704480351363,2.6106120417412177,0.9180098154506985,3.3907118944792005,-0.031596975886748827,-0.5086929793224867,-2.0918147981602466,1.1325699194662169,2.016043495307476,0.06378319193142817,0.571149501649183,0.7300896385636211
2005-11,2005-11-01,2005Q4,2,True,1.6527,-1.6192029007173663,2.2147501142611516,-1.0571527864562147,4.920275449617585,1.6483725489002188,3.2719029007173663,3.306283317229663,0.8700941611982786,2.4361891560313844,2.4018087395190877,-0.03438041651229673,2.4018087395190877,2.4361891560313844,50,562,-26524.205721364946,48,1.9112831954109935e-06,0.14814814814814814,0.3,0.3333333333333333,0.3333333333333333,0.2222222222222222,0.25,9,9,8,0.28916503819847944,0.05318026865244286,-0.12936488561930656,0.6599921009633728,0.02401990980867387,-0.1483397948375054,1.8808704928099282,0.28916503819847944,0.05318026865244286,0.12936488561930656,0.6599921009633728,0.02401990980867387,0.1483397948375054,1.8808704928099282,0.4510659259675451,-0.4564617279818579,1.1497330204327212,1.4690746754287347,-0.21424697047633487,-5.248842596096285,1.6878929901114623,-1.2354141465192139,-0.583557028111527,1.082704480351363,2.6106120417412177,0.9180098154506985,3.3907118944792005,-0.031596975886748827
2005-12,2005-12-01,2005Q4,3,True,1.6527,-2.767592926838769,2.2147501142611516,-2.2055428125776175,4.920275449617585,0.49998252277881594,4.420292926838769,4.4282473945463225,3.2719029007173663,1.1563444938289562,1.1483900261214028,-0.00795446770755337,1.1483900261214028,1.1563444938289562,50,563,-26585.16003067931,48,1.9323210299449415e-06,0.5185185185185185,0.6333333333333333,0.6666666666666666,0.6666666666666666,0.6666666666666666,0.6666666666666666,9,9,8,0.0980231427576063,-0.05207421571472901,0.030655896754462418,0.06630166442282469,-0.007198243727072125,,0.645630799462114,0.0980231427576063,0.05207421571472901,0.030655896754462418,0.06630166442282469,0.007198243727072125,,0.645630799462114,0.9635643221704236,-0.13179174038758026,1.1526276209307007,1.4464688994304762,-1.1908131725287974,-3.9286797604657586,-1.248862126007086,0.4510659259675451,-0.4564617279818579,1.1497330204327212,1.4690746754287347,-0.21424697047633487,-5.248842596096285,1.6878929901114623
2006-01,2006-01-01,2006Q1,1,True,5.638,1.3829323048487137,5.34564210829771,1.090574413146424,4.273313729416203,0.018246034264916666,4.255067695151286,4.259563805052543,5.188803464014573,-0.9292396589620298,-0.9337357688632864,-0.004496109901256595,-0.16522523168748293,-0.16072912178622634,50,564,-26639.775322346137,49,1.8949245136995212e-06,0.0,0.0,0.0,0.0,0.0,0.0,9,9,8,0.041945314350878136,-0.12338129374766513,-0.21164261094654682,-0.18556738559908342,-0.043953958565238385,,-0.6230659226013125,0.041945314350878136,0.12338129374766513,0.21164261094654682,0.18556738559908342,0.043953958565238385,,0.6230659226013125,0.22695187518105045,0.6652277689609244,1.0814087170214148,1.387087172822026,-0.7840701205170715,2.9170903006832174,-0.5563909884456638,0.9635643221704236,-0.13179174038758026,1.1526276209307007,1.4464688994304762,-1.1908131725287974,-3.9286797604657586,-1.248862126007086
2006-02,2006-02-01,2006Q1,2,True,5.638,-0.006380416053517024,5.34564210829771,-0.2987383077558068,4.273313729416203,-1.371066686637314,5.644380416053517,5.647463466629491,4.255067695151286,1.3923957714782045,1.3893127209022307,-0.0030830505759738003,1.3893127209022307,1.3923957714782045,50,565,-26692.39031481812,49,1.8995763887369723e-06,0.14814814814814814,0.3,0.3333333333333333,0.3333333333333333,0.2222222222222222,0.25,9,9,8,-0.48610784424373943,-0.01952700672151523,0.35280123240914757,0.3967328902287335,0.04483432551191557,0.3036045321657378,0.2919202107708321,0.48610784424373943,0.01952700672151523,0.35280123240914757,0.3967328902287335,0.04483432551191557,0.3036045321657378,0.2919202107708321,0.7325263707386975,0.49641582520616817,1.1603972023017286,1.8757024620624836,-1.006911772129935,2.9375443911504164,-0.20307429543701208,0.22695187518105045,0.6652277689609244,1.0814087170214148,1.387087172822026,-0.7840701205170715,2.9170903006832174,-0.5563909884456638
2006-03,2006-03-01,2006Q1,3,True,5.638,0.9499947556294188,5.34564210829771,0.6576368639271291,4.273313729416203,-0.41469151495437817,4.688005244370581,4.679842675495977,5.644380416053517,-0.9645377405575397,-0.9563751716829358,0.00816256887460387,-0.9563751716829358,-0.9645377405575397,50,566,-26730.007980843413,48,1.9165622280349776e-06,0.5555555555555555,0.6333333333333333,0.6666666666666666,0.6666666666666666,0.6666666666666666,0.6666666666666666,9,9,8,-0.1694552609424661,-0.042624243692627635,-0.026803568391708936,-0.18968335312688658,0.0007819272303066331,,-0.6682530200321656,0.1694552609424661,0.042624243692627635,0.026803568391708936,0.18968335312688658,0.0007819272303066331,,0.6682530200321656,-0.19321003165115053,-1.4767939945046182,1.1481347236292638,1.999400488230835,-0.19304127223149822,-2.6917799920763597,-0.24505406804903135,0.7325263707386975,0.49641582520616817,1.1603972023017286,1.8757024620624836,-1.006911772129935,2.9375443911504164,-0.20307429543701208
2006-04,2006-04-01,2006Q2,1,True,2.5586,-0.24193380356917116,1.0357257695122115,-1.7648080340569599,2.156767937712172,-0.6437658658569996,2.8005338035691714,2.8015487904353114,2.4614272864052142,0.3401215040300971,0.3391065171639571,-0.0010149868661399886,-1.8874714408014097,-1.8864564539352697,50,567,-26770.26791896538,48,1.9049560584858926e-06,0.0,0.0,0.0,0.0,0.0,0.0,9,9,8,0.390478979074924,-0.06671566405027889,-0.17898262853182756,0.07308002188094974,-0.020726523097010265,,0.2615993341703513,0.390478979074924,0.06671566405027889,0.17898262853182756,0.07308002188094974,0.020726523097010265,,0.2615993341703513,0.03647855217566299,0.07778197492782776,1.0483908291022814,1.4999642912805367,-0.05393460243092031,1.6038621287199666,0.4652729256201198,-0.19321003165115053,-1.4767939945046182,1.1481347236292638,1.999400488230835,-0.19304127223149822,-2.6917799920763597,-0.24505406804903135
2006-05,2006-05-01,2006Q2,2,True,2.5586,-0.4247924782059709,1.0357257695122115,-1.9476667086937596,2.156767937712172,-0.8266245404937993,2.983392478205971,2.977373883821608,2.8005338035691714,0.17684008025243658,0.18285867463679972,0.006018594384363141,0.18285867463679972,0.17684008025243658,50,568,-26818.79733111085,48,1.9195060000107363e-06,0.18518518518518517,0.3,0.3333333333333333,0.3333333333333333,0.3333333333333333,0.3333333333333333,9,9,8,-0.07191582767162795,0.030452863478059398,-0.029630313448768274,-0.08129646584653076,-0.011410937900948177,-0.0041975662934579765,0.27096936317315745,0.07191582767162795,0.030452863478059398,0.029630313448768274,0.08129646584653076,0.011410937900948177,0.0041975662934579765,0.27096936317315745,0.11614158292424805,-0.24052740411817716,1.0117672908894904,1.191099213801482,0.016649591437141967,1.0936098232016918,0.7717145257759542,0.03647855217566299,0.07778197492782776,1.0483908291022814,1.4999642912805367,-0.05393460243092031,1.6038621287199666,0.4652729256201198
2006-06,2006-06-01,2006Q2,3,True,2.5586,0.2954474067911095,1.0357257695122115,-1.2274268236966792,2.156767937712172,-0.10638465549671894,2.2631525932088907,2.2628449190347855,2.983392478205971,-0.7205475591711856,-0.7202398849970804,0.00030767417410526576,-0.7202398849970804,-0.7205475591711856,50,569,-26861.807199049905,48,1.9416663379734087e-06,0.5185185185185185,0.6333333333333333,0.6666666666666666,0.6666666666666666,0.6666666666666666,0.6666666666666666,9,9,8,-0.11108868099911345,-0.0063978279594924985,0.006684555406690178,-0.17448112671571303,0.013264309436321325,,-0.37695320544504085,0.11108868099911345,0.0063978279594924985,0.006684555406690178,0.17448112671571303,0.013264309436321325,,0.37695320544504085,-0.4229805250652213,-0.30467961567100516,0.9061509042697975,1.7435974305733133,0.08877007632583045,-0.7753993984741607,-0.23151876702332494,0.11614158292424805,-0.24052740411817716,1.0117672908894904,1.191099213801482,0.016649591437141967,1.0936098232016918,0.7717145257759542
2006-07,2006-07-01,2006Q3,1,True,1.9601,-1.9946557405099459,0.5972533554793498,-3.357502385030596,1.8257975104501358,-2.12895823005981,3.954755740509946,3.9526906065092686,3.064581390264751,0.8881092162445174,0.8901743502451946,0.0020651340006772045,1.691603147301055,1.689538013300378,50,570,-26903.780223907987,48,1.936550098339751e-06,0.0,0.0,0.0,0.0,0.0,0.0,9,9,8,0.20293940840576633,-0.11227971923117396,-0.09065919135663852,0.2541050471986196,-0.005554616296327545,,0.3065412392836935,0.20293940840576633,0.11227971923117396,0.09065919135663852,0.2541050471986196,0.005554616296327545,,0.3065412392836935,0.08921333036508584,-0.5479697797719453,0.860963255204913,1.196203526337825,-0.1414328045288958,-1.2594787743271771,0.8215423164785582,-0.4229805250652213,-0.30467961567100516,0.9061509042697975,1.7435974305733133,0.08877007632583045,-0.7753993984741607,-0.23151876702332494
2006-08,2006-08-01,2006Q3,2,True,1.9601,-1.6970653116138308,0.5972533554793498,-3.059911956134481,1.8257975104501358,-1.831367801163695,3.6571653116138307,3.685787505295783,3.954755740509946,-0.2689682352141629,-0.2975904288961151,-0.02862219368195218,-0.2975904288961151,-0.2689682352141629,50,571,-26957.73902918916,48,1.9240846536455874e-06,0.2222222222222222,0.3,0.3333333333333333,0.3333333333333333,0.3333333333333333,0.3333333333333333,9,9,8,-0.07554412516606605,-0.06406765645476654,-0.011426425183373234,-0.1665573919968575,0.007355505010772086,0.04747815630232493,0.05343411257893117,0.07554412516606605,0.06406765645476654,0.011426425183373234,0.1665573919968575,0.007355505010772086,0.04747815630232493,0.05343411257893117,-0.08859290718150323,0.3556648551863459,0.9863580737141586,1.1323638325620773,-0.2895971896832685,1.254174506830494,-0.1770955323552904,0.08921333036508584,-0.5479697797719453,0.860963255204913,1.196203526337825,-0.1414328045288958,-1.2594787743271771,0.8215423164785582
2006-09,2006-09-01,2006Q3,3,True,1.9601,-1.292151987376365,0.5972533554793498,-2.654998631897015,1.8257975104501358,-1.426454476926229,3.252251987376365,3.2502324451905458,3.6571653116138307,-0.40693286642328497,-0.40491332423746584,0.002019542185819123,-0.40491332423746584,-0.40693286642328497,50,572,-27005.744110422907,48,1.890806945865253e-06,0.5185185185185185,0.6333333333333333,0.6666666666666666,0.6666666666666666,0.6666666666666666,0.6666666666666666,9,9,8,-0.09256373455843203,-0.0681109534626439,-0.029509243111270875,-0.03831412549868535,-0.0022150303812183913,,-0.30486291913700475,0.09256373455843203,0.0681109534626439,0.029509243111270875,0.03831412549868535,0.0022150303812183913,,0.30486291913700475,-0.5640726854787634,-0.21502905582783574,0.9465848266363607,1.035337305795745,-0.13632130185698949,-0.8538511965223995,0.08055987498927554,-0.08859290718150323,0.3556648551863459,0.9863580737141586,1.1323638325620773,-0.2895971896832685,1.254174506830494,-0.1770955323552904
2006-10,2006-10-01,2006Q4,1,True,2.4515,-0.4805735887675424,3.424857048665644,0.492783459898102,1.1398521248816893,-1.792221463885853,2.932073588767542,2.939503427339325,2.150193269956778,0.789310157382547,0.7818803188107641,-0.00742983857178281,-0.3201783986088227,-0.3127485600370399,50,573,-27049.93138757119,48,1.9026315204923764e-06,0.0,0.0,0.0,0.0,0.0,0.0,9,9,8,0.46783405439519243,-0.17768752194963755,0.09367814333679794,0.025075269012271736,-0.0006580087566031602,,0.14977556734630423,0.46783405439519243,0.17768752194963755,0.09367814333679794,0.025075269012271736,0.0006580087566031602,,0.14977556734630423,-0.011588264384325957,-0.5579395373610198,0.9263128333824422,1.0132420187489573,-0.5523563222559791,-3.7961053824899174,-1.255112462236455,-0.5640726854787634,-0.21502905582783574,0.9465848266363607,1.035337305795745,-0.13632130185698949,-0.8538511965223995,0.08055987498927554
2006-11,2006-11-01,2006Q4,2,True,2.4515,-0.3489402433697735,3.424857048665644,0.624416805295871,1.1398521248816893,-1.660588118488084,2.8004402433697733,2.822064227281782,2.932073588767542,-0.11000936148576024,-0.13163334539776894,-0.021623983912008704,-0.13163334539776894,-0.11000936148576024,50,574,-27117.409546321585,44,1.920756079434717e-06,0.18518518518518517,0.3,0.3333333333333333,0.3333333333333333,0.3333333333333333,0.3333333333333333,9,9,8,-0.3830678771168807,0.1360416927474032,-0.18189929158809792,-0.0856921311078018,-0.012729472899245477,0.19874844705582112,-0.12921345897878694,0.3830678771168807,0.1360416927474032,0.18189929158809792,0.0856921311078018,0.012729472899245477,0.19874844705582112,0.12921345897878694,-0.2962041256031257,-0.1341923251096095,0.8586616742518935,0.3244889939995467,-0.18223422754248855,0.29697605763277013,-0.7033910391058722,-0.011588264384325957,-0.5579395373610198,0.9263128333824422,1.0132420187489573,-0.5523563222559791,-3.7961053824899174,-1.255112462236455
2006-12,2006-12-01,2006Q4,3,True,2.4515,0.09840662436958203,3.424857048665644,1.0717636730352265,1.1398521248816893,-1.2132412507487285,2.3530933756304178,2.3284602266096015,2.8004402433697733,-0.47198001676017176,-0.4473468677393555,0.02463314902081626,-0.4473468677393555,-0.47198001676017176,50,575,-27137.679813744002,45,1.8871372006541446e-06,0.5185185185185185,0.6333333333333333,0.6666666666666666,0.6666666666666666,0.6666666666666666,0.6666666666666666,9,9,8,0.006661053459801612,-0.1512090888441257,0.01645248520209231,-0.10909796495987452,-0.014100254930049707,,0.17697053227279266,0.006661053459801612,0.1512090888441257,0.01645248520209231,0.10909796495987452,0.014100254930049707,,0.17697053227279266,-0.391789392490999,0.264633383818703,0.8597396369887134,0.6897418715705239,0.024392747390881906,2.452068288976447,0.45281611191625726,-0.2962041256031257,-0.1341923251096095,0.8586616742518935,0.3244889939995467,-0.18223422754248855,0.29697605763277013,-0.7033910391058722
2007-01,2007-01-01,2007Q1,1,True,0.6897,-2.647756592767786,1.2009558783977574,-2.1365007143700288,0.8269071303663977,-2.5105494624013884,3.3374565927677864,3.3343223722678808,2.622820635283105,0.7115017369847756,0.7146359574846812,0.0031342204999056378,0.9843632171373686,0.981228996637463,50,576,-27176.35260113977,46,1.889091265314275e-06,0.0,0.0,0.0,0.0,0.0,0.0,9,9,8,0.2772708617498626,-0.12443930576039018,0.11575113901613512,0.1420794356993434,0.025371758644593814,,0.5666184000185327,0.2772708617498626,0.12443930576039018,0.11575113901613512,0.1420794356993434,0.025371758644593814,,0.5666184000185327,0.12485072724946761,0.20008725571487437,0.8273980851090805,0.5786782628343556,-0.22893507371921643,2.416047645199152,0.6748592914740995,-0.391789392490999,0.264633383818703,0.8597396369887134,0.6897418715705239,0.024392747390881906,2.452068288976447,0.45281611191625726
2007-02,2007-02-01,2007Q1,2,True,0.6897,-1.0698105850554656,1.2009558783977574,-0.5585547066577081,0.8269071303663977,-0.9326034546890678,1.7595105850554655,1.7479577376540294,3.3374565927677864,-1.589498855113757,-1.5779460077123209,0.01155284740143614,-1.5779460077123209,-1.589498855113757,50,577,-27177.703033718288,46,1.8702538226673153e-06,0.14814814814814814,0.3,0.3333333333333333,0.3333333333333333,0.2222222222222222,0.25,9,9,8,-0.3352779280491997,0.024704744157840634,-0.29329895078321017,-0.17306921979772338,0.020890195488796774,-0.08783541697757499,-0.8747514866181547,0.3352779280491997,0.024704744157840634,0.29329895078321017,0.17306921979772338,0.020890195488796774,0.08783541697757499,0.8747514866181547,-0.8621764329791207,-0.5367554561828148,0.6937590897906996,0.39639939290150666,-0.04324598752590417,-1.620754858186581,-0.9476918951837784,0.12485072724946761,0.20008725571487437,0.8273980851090805,0.5786782628343556,-0.22893507371921643,2.416047645199152,0.6748592914740995
2007-03,2007-03-01,2007Q1,3,True,0.6897,-1.5802600098418023,1.2009558783977574,-1.0690041314440448,0.8269071303663977,-1.4430528794754045,2.2699600098418022,2.272637306623536,1.7595105850554655,0.5131267215680704,0.5104494247863367,-0.0026772967817336735,0.5104494247863367,0.5131267215680704,50,578,-27238.20211033706,46,1.875540889688045e-06,0.5185185185185185,0.6333333333333333,0.6666666666666666,0.6666666666666666,0.6666666666666666,0.6666666666666666,9,9,8,-0.026978466122227245,-0.013654923385519657,-0.025172931711636804,-0.055764486655226486,-0.013292539267037872,,0.3581249039697967,0.026978466122227245,0.013654923385519657,0.025172931711636804,0.055764486655226486,0.013292539267037872,,0.3581249039697967,-0.5306669499041081,-0.22269363630867323,0.6579244518627853,0.6350938277797651,0.16471784047505858,1.2705003235819161,0.8961130477551483,-0.8621764329791207,-0.5367554561828148,0.6937590897906996,0.39639939290150666,-0.04324598752590417,-1.620754858186581,-0.9476918951837784
2007-04,2007-04-01,2007Q2,1,True,3.8213,0.26795072148930643,2.4390173093054877,-1.1143319692052058,1.0338312437586823,-2.519518034752011,3.5533492785106935,3.554807131355123,2.4721082341546463,1.0826988972004767,1.0812410443560472,-0.0014578528444295635,1.2833892686688912,1.2848471215133208,50,579,-27307.960612336046,45,1.8766319698574955e-06,0.0,0.0,0.0,0.0,0.0,0.0,9,9,8,0.2052902567286777,-0.21806158858266664,0.036875755480713465,0.3722580810798575,-0.006140138250473672,,0.837737998530115,0.2052902567286777,0.21806158858266664,0.036875755480713465,0.3722580810798575,0.006140138250473672,,0.837737998530115,0.17256961021279113,-0.21295480777763773,0.6624532526728464,0.25714079783705407,-0.2955765969968481,0.9756983054367262,0.5121823648655921,-0.5306669499041081,-0.22269363630867323,0.6579244518627853,0.6350938277797651,0.16471784047505858,1.2705003235819161,0.8961130477551483
2007-05,2007-05-01,2007Q2,2,True,3.8213,0.3111285835811044,2.4390173093054877,-1.0711541071134079,1.0338312437586823,-2.4763401726602132,3.5101714164188955,3.5259912200898946,3.5533492785106935,-0.02735805842079886,-0.04317786209179797,-0.01581980367099911,-0.04317786209179797,-0.02735805842079886,50,580,-27341.42003230608,44,1.8908940436297365e-06,0.14814814814814814,0.3,0.3333333333333333,0.3333333333333333,0.2222222222222222,0.25,9,9,8,0.14835486323503747,0.05655914903250909,0.056638365583029766,-0.3610263591392714,-0.005072229422186799,0.11630497593807596,-0.005131439080230005,0.14835486323503747,0.05655914903250909,0.056638365583029766,0.3610263591392714,0.005072229422186799,0.11630497593807596,0.005131439080230005,0.026607607594927106,-0.5579869532828916,0.5101023076307998,0.376238295855339,-0.5526295136390917,-0.8187424431326414,0.39234711089563756,0.17256961021279113,-0.21295480777763773,0.6624532526728464,0.25714079783705407,-0.2955765969968481,0.9756983054367262,0.5121823648655921
2007-06,2007-06-01,2007Q2,3,True,3.8213,0.9982083645109299,2.4390173093054877,-0.3840743261835824,1.0338312437586823,-1.7892603917303878,2.82309163548907,2.8226897317683446,3.5101714164188955,-0.6874816846505509,-0.6870797809298255,0.00040190372072546054,-0.6870797809298255,-0.6874816846505509,50,581,-27408.17430658012,44,1.8809581276988152e-06,0.5185185185185185,0.6333333333333333,0.6666666666666666,0.6666666666666666,0.6666666666666666,0.6666666666666666,9,9,8,-0.04364947020024111,0.006273921738285555,0.004524226439969148,0.0582207112641253,0.0078056191003731245,,-0.5647939363986566,0.04364947020024111,0.006273921738285555,0.004524226439969148,0.0582207112641253,0.0078056191003731245,,0.5647939363986566,-0.375457856276763,0.14288926628231116,0.425703320338629,0.4182373169626132,-0.3090105451318513,1.1590693615160994,0.027881220131634254,0.026607607594927106,-0.5579869532828916,0.5101023076307998,0.376238295855339,-0.5526295136390917,-0.8187424431326414,0.39234711089563756
2007-07,2007-07-01,2007Q3,1,True,4.9072,2.030294960087689,2.298136853237112,-0.5787681866751986,-0.9123358327191031,-3.7892408726314137,2.8769050399123106,2.880940920194654,2.390230111012193,0.490710809182461,0.48667492890011754,-0.004035880282343474,0.05381340442324056,0.057849284705584036,50,582,-27443.978011699277,44,1.8873970019634915e-06,0.0,0.0,0.0,0.0,0.0,0.0,9,9,8,0.04173135923460381,0.10998206708185827,0.015006731279111623,-0.030377994025304722,0.001642172231527508,,0.24744120045039533,0.04173135923460381,0.10998206708185827,0.015006731279111623,0.030377994025304722,0.001642172231527508,,0.24744120045039533,-0.022634620755488454,-0.9994213467894999,0.28755300899453984,0.2129268978102276,-0.1369170259838085,-2.258869708372501,0.6235831703612558,-0.375457856276763,0.14288926628231116,0.425703320338629,0.4182373169626132,-0.3090105451318513,1.1590693615160994,0.027881220131634254
2007-08,2007-08-01,2007Q3,2,True,4.9072,1.535778903691467,2.298136853237112,-1.0732842430714205,-0.9123358327191031,-4.283756929027636,3.3714210963085325,3.3937775042232023,2.8769050399123106,0.5168724643108917,0.49451605639622187,-0.022356407914669862,0.49451605639622187,0.5168724643108917,50,583,-27498.471215264875,44,1.8841015388302913e-06,0.2222222222222222,0.3,0.3333333333333333,0.3333333333333333,0.3333333333333333,0.3333333333333333,9,9,8,0.2620422190685631,-0.04392538167314876,-0.07259494981518867,-0.02901849185531165,-0.014196555560030943,-0.007459866948919729,0.391895259181573,0.2620422190685631,0.04392538167314876,0.07259494981518867,0.02901849185531165,0.014196555560030943,0.007459866948919729,0.391895259181573,0.23421204699057974,0.13929635146480007,0.25074698037356663,-0.22336107318180265,-0.6844781990464526,-0.2872720192491976,0.3182119690902645,-0.022634620755488454,-0.9994213467894999,0.28755300899453984,0.2129268978102276,-0.1369170259838085,-2.258869708372501,0.6235831703612558
2007-09,2007-09-01,2007Q3,3,True,4.9072,2.1618024690983004,2.298136853237112,-0.4472606776645871,-0.9123358327191031,-3.6577333636208023,2.745397530901699,2.7402278474868096,3.3714210963085325,-0.6311932488217229,-0.6260235654068333,0.005169683414889548,-0.6260235654068333,-0.6311932488217229,50,584,-27547.33861722291,44,1.8647261040534649e-06,0.5185185185185185,0.6333333333333333,0.6666666666666666,0.6666666666666666,0.6666666666666666,0.6666666666666666,9,9,8,-0.06692386844787954,-0.05173422626031335,-0.026970445209180707,-0.3096712207668667,-0.0013209387642557843,,-0.33407358308488394,0.06692386844787954,0.05173422626031335,0.026970445209180707,0.3096712207668667,0.0013209387642557843,,0.33407358308488394,-0.5825525822264022,0.03930304144226489,-0.06627811907285862,0.03651633650387228,-0.6154618783487589,-1.2544677209927342,-0.37047064123939966,0.23421204699057974,0.13929635146480007,0.25074698037356663,-0.22336107318180265,-0.6844781990464526,-0.2872720192491976,0.3182119690902645
2007-10,2007-10-01,2007Q4,1,True,0.5776,-1.766407846361103,2.504989684109269,0.160981837748166,-0.37536097663888524,-2.7193688229999884,2.344007846361103,2.3436159359418434,2.584076262388147,-0.24046032644630344,-0.24006841602704387,0.0003919104192595668,-0.4013896845405962,-0.40178159495985577,50,585,-27578.572174153996,44,1.8643061723689733e-06,0.0,0.0,0.0,0.0,0.0,0.0,9,9,8,-0.13010854326586122,0.01094990152327907,-0.3257166502756788,0.12205604949295193,0.0035080269969120746,,0.11242982724371509,0.13010854326586122,0.01094990152327907,0.3257166502756788,0.12205604949295193,0.0035080269969120746,,0.11242982724371509,-0.5784435207715579,-0.04518275624455786,-0.0640596400138291,-0.48384856222639827,-0.16823638451073553,2.0011009101512838,0.28756025895913057,-0.5825525822264022,0.03930304144226489,-0.06627811907285862,0.03651633650387228,-0.6154618783487589,-1.2544677209927342,-0.37047064123939966
2007-11,2007-11-01,2007Q4,2,True,0.5776,-1.5905055029025066,2.504989684109269,0.33688418120676245,-0.37536097663888524,-2.543466479541392,2.1681055029025065,2.1603336648408167,2.344007846361103,-0.18367418152028625,-0.17590234345859646,0.007771838061689795,-0.17590234345859646,-0.18367418152028625,50,586,-27634.10781736048,44,1.8711592112525328e-06,0.18518518518518517,0.3,0.3333333333333333,0.3333333333333333,0.3333333333333333,0.3333333333333333,9,9,8,0.030113925567442325,0.038383292427611626,0.05674300034509394,-0.012576241445152537,0.011958699913576433,-0.10038206351125753,-0.2791513881969191,0.030113925567442325,0.038383292427611626,0.05674300034509394,0.012576241445152537,0.011958699913576433,0.10038206351125753,0.2791513881969191,-0.519865001257967,-0.345094946286989,-0.17050513274560697,-0.38549613349254114,-0.11273308321321229,0.10120035082996338,-0.661156784112339,-0.5784435207715579,-0.04518275624455786,-0.0640596400138291,-0.48384856222639827,-0.16823638451073553,2.0011009101512838,0.28756025895913057
2007-12,2007-12-01,2007Q4,3,True,0.5776,-1.299095714385925,2.504989684109269,0.6282939697233438,-0.37536097663888524,-2.2520566910248103,1.876695714385925,1.8681034454419658,2.1681055029025065,-0.30000205746054065,-0.2914097885165814,0.008592268943959258,-0.2914097885165814,-0.30000205746054065,50,587,-27672.48924257905,43,1.9228111738987572e-06,0.5185185185185185,0.6333333333333333,0.6666666666666666,0.6666666666666666,0.6666666666666666,0.6666666666666666,9,9,8,0.1325485718229411,-0.11156689866354928,-0.02521615522805784,-0.0020739121019981467,-0.0032149900418770097,,0.06369077458268284,0.1325485718229411,0.11156689866354928,0.02521615522805784,0.0020739121019981467,0.0032149900418770097,,0.06369077458268284,-0.5797861208305184,0.45161546553399967,-0.4288963025875233,-0.523895042480532,0.17354974730890516,2.369701746409007,0.9527650725221163,-0.519865001257967,-0.345094946286989,-0.17050513274560697,-0.38549613349254114,-0.11273308321321229,0.10120035082996338,-0.661156784112339
2008-01,2008-01-01,2008Q1,1,True,0.9593,-0.952822242830212,-1.7109943086117685,-3.6231165514419805,-0.1694233300950705,-2.0815455729252825,1.912122242830212,1.9095287274159827,2.5148052702256125,-0.6052765428096298,-0.6026830273954005,0.0025935154142293637,0.03542652844428695,0.03283301303005759,50,588,-27711.4674437993,43,1.913412146619441e-06,0.0,0.0,0.0,0.0,0.0,0.0,9,9,8,0.2635882024371322,0.049965241747885844,-0.5398704428333206,-0.3170318463111045,0.014340673926469372,,0.028690450576352423,0.2635882024371322,0.049965241747885844,0.5398704428333206,0.3170318463111045,0.014340673926469372,,0.028690450576352423,-0.8145786919050524,-0.4842441045678586,-0.5880444979997566,-1.1702654517835602,-0.062618456152329,-2.422094329100779,0.4271684804406989,-0.5797861208305184,0.45161546553399967,-0.4288963025875233,-0.523895042480532,0.17354974730890516,2.369701746409007,0.9527650725221163
2008-02,2008-02-01,2008Q1,2,True,0.9593,-0.969035809072748,-1.7109943086117685,-3.6393301176845165,-0.1694233300950705,-2.0977591391678185,1.928335809072748,1.9338733505248,1.912122242830212,0.02175110769458799,0.016213566242536004,-0.005537541452051986,0.016213566242536004,0.02175110769458799,50,589,-27783.055443213583,43,1.9125696293965283e-06,0.18518518518518517,0.3,0.3333333333333333,0.3333333333333333,0.3333333333333333,0.3333333333333333,9,9,8,-0.17370566510326857,-0.0859676483246149,-0.046729064282018506,0.09985063988478497,0.0018310902252160707,0.11302399875874684,-0.01433005203329344,0.17370566510326857,0.0859676483246149,0.046729064282018506,0.09985063988478497,0.0018310902252160707,0.11302399875874684,0.01433005203329344,-0.7245451351259004,-0.06786388642700014,-0.7668554982222642,-1.1501713757154552,-0.23374533927421337,0.27403145023038344,0.4546685598794495,-0.8145786919050524,-0.4842441045678586,-0.5880444979997566,-1.1702654517835602,-0.062618456152329,-2.422094329100779,0.4271684804406989
2008-03,2008-03-01,2008Q1,3,True,0.9593,-0.8240121141691841,-1.7109943086117685,-3.4943064227809524,-0.1694233300950705,-1.9527354442642546,1.7833121141691841,1.7633128503791582,1.928335809072748,-0.16502295869358985,-0.14502369490356393,0.019999263790025923,-0.14502369490356393,-0.16502295869358985,50,590,-27831.49963182921,44,1.9013101809951542e-06,0.5185185185185185,0.6333333333333333,0.6666666666666666,0.6666666666666666,0.6666666666666666,0.6666666666666666,9,9,8,0.004030328277297955,0.0004966230038294355,-0.018919752557684008,-0.10192634460576791,-0.018736080214264365,,-0.012132846188192128,0.004030328277297955,0.0004966230038294355,0.018919752557684008,0.10192634460576791,0.018736080214264365,,0.012132846188192128,-0.748677844319246,-0.7728616964426644,-1.6574102823193329,-0.9284551434983568,-0.3780156735061448,-1.4137072554731773,-0.09108441075261449,-0.7245451351259004,-0.06786388642700014,-0.7668554982222642,-1.1501713757154552,-0.23374533927421337,0.27403145023038344,0.4546685598794495
2008-04,2008-04-01,2008Q2,1,True,2.8253,2.042933947836492,2.374934092158616,1.592568039995108,-1.2530003831214813,-2.035366435284989,0.7823660521635079,0.7783094265023354,1.7535908028690745,-0.9752813763667392,-0.9712247507055667,0.004056625661172486,-1.0009460620056763,-1.0050026876668487,50,591,-27848.978437796482,45,1.8630946218669057e-06,0.0,0.0,0.0,0.0,0.0,0.0,9,9,8,-0.019461620516393743,0.055237052432995475,-0.4616004603795883,-0.5962701033345836,0.015439835158720876,,0.12350666482839723,0.019461620516393743,0.055237052432995475,0.4616004603795883,0.5962701033345836,0.015439835158720876,,0.12350666482839723,-1.110593738865799,0.09032198167194586,-1.8880155387764979,-1.312796593736366,-0.08397187082850696,1.3745862300315135,1.013651822909838,-0.748677844319246,-0.7728616964426644,-1.6574102823193329,-0.9284551434983568,-0.3780156735061448,-1.4137072554731773,-0.09108441075261449
2008-05,2008-05-01,2008Q2,2,True,2.8253,2.14794681692009,2.374934092158616,1.697580909078706,-1.2530003831214813,-1.9303535662013913,0.67735318307991,0.6836179779599578,0.7823660521635079,-0.09874807420355003,-0.10501286908359786,-0.00626479488004783,-0.10501286908359786,-0.09874807420355003,50,592,-27900.245103651516,44,1.922322600682622e-06,0.18518518518518517,0.3,0.3333333333333333,0.3333333333333333,0.3333333333333333,0.3333333333333333,9,9,8,0.025183113600286862,0.17157561034639052,0.023505562446412304,0.028201843555773144,0.004115939338905943,0.08275508617196274,-0.45657354017444185,0.025183113600286862,0.17157561034639052,0.023505562446412304,0.028201843555773144,0.004115939338905943,0.08275508617196274,0.45657354017444185,-0.9650091889989153,-0.4811317460296703,-1.8875468409971459,-0.953610729645191,-0.4754172941244186,-0.6125859339135248,-0.9386519360830652,-1.110593738865799,0.09032198167194586,-1.8880155387764979,-1.312796593736366,-0.08397187082850696,1.3745862300315135,1.013651822909838
2008-06,2008-06-01,2008Q2,3,True,2.8253,1.664441298484129,2.374934092158616,1.214075390642745,-1.2530003831214813,-2.413859084637352,1.160858701515871,1.1610031441886424,0.67735318307991,0.4836499611087324,0.4835055184359609,-0.00014444267277147205,0.4835055184359609,0.4836499611087324,50,593,-27945.499268322645,44,1.9215250407801613e-06,0.5185185185185185,0.6333333333333333,0.6666666666666666,0.6666666666666666,0.6666666666666666,0.6666666666666666,9,9,8,0.19183256741486138,0.0737983986655075,-0.03061767803296916,-0.11706751002707741,0.020122213148980675,,0.2696085976699626,0.19183256741486138,0.0737983986655075,0.03061767803296916,0.11706751002707741,0.020122213148980675,,0.2696085976699626,-0.4855180647005802,0.1869788612723676,-1.8718051874166557,-1.4722999157762982,-0.796146214584978,1.8692240668361577,0.0336419320302229,-0.9650091889989153,-0.4811317460296703,-1.8875468409971459,-0.953610729645191,-0.4754172941244186,-0.6125859339135248,-0.9386519360830652
