haminh109/Nowcasting-GDP-Growth/outputs/layer1_dfm_3/dfm_news_series.csv
vintage_period,target_quarter,update_date,updated_variable,observed,forecast_(prev),impact_date,impacted_variable,news,weight,impact,block,block_label,factor_name
2000-01,2000Q1,,,,,,,,,,,,
2000-02,2000Q1,1999-12,BUSINVx,0.005332411996201714,0.007325114380259748,2000-03,gdp_growth,-0.0019927023840580343,4.990825670040437,-0.009945230211107617,demand_orders_inventories,Demand / orders / inventories,demand
2000-02,2000Q1,1999-12,CMRMTSPLx,0.008455223126899725,0.002983183128195022,2000-03,gdp_growth,0.005472039998704704,6.064474009226021,0.03318504434958987,demand_orders_inventories,Demand / orders / inventories,demand
2000-02,2000Q1,1999-12,ISRATIOx,-0.01000000000000001,-0.006369554023633308,2000-03,gdp_growth,-0.003630445976366702,-2.292512674167764,0.008322843413702027,demand_orders_inventories,Demand / orders / inventories,demand
2000-02,2000Q1,1999-12,NONREVSL,-0.005648526945737586,-0.003531619459906387,2000-03,gdp_growth,-0.0021169074858311994,1.6062166144326375,-0.0034002119749588955,financial_conditions,Financial conditions,financial
2000-02,2000Q1,1999-12,gdp_growth,5.636127272434405,3.8251584457272045,2000-03,gdp_growth,1.8109688267072004,-0.08109476130669721,-0.14686008473568993,,,
2000-02,2000Q1,2000-01,AMDMNOx,-0.012778204719948505,-0.008218301600990706,2000-03,gdp_growth,-0.0045599031189578025,2.8039474945329212,-0.012785728925714583,demand_orders_inventories,Demand / orders / inventories,demand
2000-02,2000Q1,2000-01,AMDMUOx,0.005720390663997321,0.01586399717984544,2000-03,gdp_growth,-0.010143606515848117,4.823145482008334,-0.048924089938183146,demand_orders_inventories,Demand / orders / inventories,demand
2000-02,2000Q1,2000-01,ANDENOx,0.05809319406824365,-0.034248217002678216,2000-03,gdp_growth,0.09234141107092186,0.4432917111614223,0.04093418212468926,demand_orders_inventories,Demand / orders / inventories,demand
2000-02,2000Q1,2000-01,AWHMAN,41.7,41.53979607442069,2000-03,gdp_growth,0.16020392557930677,0.14341293495314913,0.022975315158344264,labor_market,Labor market,labor
2000-02,2000Q1,2000-01,BAA,0.14000000000000057,0.017218206651482132,2000-03,gdp_growth,0.12278179334851842,0.13002400314494528,0.01596458028448978,financial_conditions,Financial conditions,financial
2000-02,2000Q1,2000-01,BAAFFM,2.88,2.8521934547254695,2000-03,gdp_growth,0.027806545274530452,-0.0573500600766853,-0.0015947070420193911,financial_conditions,Financial conditions,financial
2000-02,2000Q1,2000-01,BUSLOANS,0.0012801232252543926,0.004182379361817076,2000-03,gdp_growth,-0.0029022561365626837,1.7759101807335484,-0.005154146220018085,financial_conditions,Financial conditions,financial
2000-02,2000Q1,2000-01,CES3000000008,0.002123381619163034,-0.0007597232611579803,2000-03,gdp_growth,0.0028831048803210145,6.269088757726152,0.018074440392565876,labor_market,Labor market,labor
2000-02,2000Q1,2000-01,CLAIMSx,-0.010619568827460846,-0.015854199702788598,2000-03,gdp_growth,0.005234630875327751,-2.9939097609345593,-0.015672012472533168,labor_market,Labor market,labor
2000-02,2000Q1,2000-01,CLF16OV,0.005707834924363553,0.0014605525013919394,2000-03,gdp_growth,0.004247282422971613,5.128688469533485,0.021782988389546756,labor_market,Labor market,labor
2000-02,2000Q1,2000-01,CPIAUCSL,-0.0005968066109529602,-3.474710817435352e-05,2000-03,gdp_growth,-0.0005620595027786066,7.631465105820546,-0.004289337482849782,prices_inflation,Prices & inflation,prices
2000-02,2000Q1,2000-01,CPIULFSL,-5.588824585345265e-06,-7.358162375551211e-05,2000-03,gdp_growth,6.799279917016683e-05,4.3862755923610575,0.00029823515545640995,prices_inflation,Prices & inflation,prices
2000-02,2000Q1,2000-01,CUMFNS,0.39999999999999153,0.28074959976376335,2000-03,gdp_growth,0.11925040023622814,-0.0711679600183047,-0.008486807716178718,real_activity_income,Real activity & income,real_activity
2000-02,2000Q1,2000-01,CUSR0000SAC,-0.003421611932953539,-0.002185833425329565,2000-03,gdp_growth,-0.0012357785076239742,-3.2614214393075587,0.0040303945190003285,prices_inflation,Prices & inflation,prices
2000-02,2000Q1,2000-01,CUSR0000SAS,0.0010419220584916289,0.0011488923496876173,2000-03,gdp_growth,-0.00010697029119598853,7.390557975462923,-0.0007905701387361044,prices_inflation,Prices & inflation,prices
2000-02,2000Q1,2000-01,FEDFUNDS,0.15000000000000036,-0.03462511219339894,2000-03,gdp_growth,0.1846251121933993,0.11334270673912267,0.020925909948014076,financial_conditions,Financial conditions,financial
2000-02,2000Q1,2000-01,GS10,0.3799999999999999,0.09713300633044478,2000-03,gdp_growth,0.28286699366955514,0.11332453169628165,0.0320557695899374,financial_conditions,Financial conditions,financial
2000-02,2000Q1,2000-01,HOUST,7.4815557019095165,7.437197427446992,2000-03,gdp_growth,0.04435827446252489,1.6263410802575087,0.07214168400774179,housing_construction,Housing & construction,housing
2000-02,2000Q1,2000-01,HOUSTMW,6.021023349349527,5.967484220939682,2000-03,gdp_growth,0.05353912840984412,0.18305921568033764,0.009800830854914948,housing_construction,Housing & construction,housing
2000-02,2000Q1,2000-01,HOUSTNE,5.0106352940962555,5.089124634574217,2000-03,gdp_growth,-0.07848934047796126,0.02656821642591196,-0.0020853217849455667,housing_construction,Housing & construction,housing
2000-02,2000Q1,2000-01,HOUSTS,6.720220155135295,6.671236215280848,2000-03,gdp_growth,0.048983939854447774,-0.18466353889452533,-0.009045547682518905,housing_construction,Housing & construction,housing
2000-02,2000Q1,2000-01,HOUSTW,5.950642552587727,5.908934362725194,2000-03,gdp_growth,0.041708189862532316,-0.14864338940440053,-0.006199646707089061,housing_construction,Housing & construction,housing
2000-02,2000Q1,2000-01,INDPRO,0.009730190404086512,0.005656826682226189,2000-03,gdp_growth,0.004073363721860323,1.4727097836100491,0.005998882605385941,real_activity_income,Real activity & income,real_activity
2000-02,2000Q1,2000-01,IPCONGD,0.009820184024651013,0.005494480425065961,2000-03,gdp_growth,0.004325703599585051,-9.8589763801895,-0.042647009616009715,real_activity_income,Real activity & income,real_activity
2000-02,2000Q1,2000-01,IPFINAL,0.01208661007054257,0.005695562558586255,2000-03,gdp_growth,0.0063910475119563145,-5.809532017660449,-0.03712899514709936,real_activity_income,Real activity & income,real_activity
2000-02,2000Q1,2000-01,IPMANSICS,0.00909449191686118,0.0068286644392776446,2000-03,gdp_growth,0.002265827477583535,81.83537131996943,0.18542483297503828,real_activity_income,Real activity & income,real_activity
2000-02,2000Q1,2000-01,MANEMP,0.0007080031883575089,0.0010884353922748949,2000-03,gdp_growth,-0.0003804322039173861,37.54449417821075,-0.014283134665180186,labor_market,Labor market,labor
2000-02,2000Q1,2000-01,OILPRICEx,-0.0021809611022249875,0.021851261939100686,2000-03,gdp_growth,-0.024032223041325674,-0.05150347897795387,0.0012377430942024155,prices_inflation,Prices & inflation,prices
2000-02,2000Q1,2000-01,PAYEMS,0.002974671386445138,0.0020443059739241373,2000-03,gdp_growth,0.0009303654125210009,89.49616144813527,0.08326413316474046,labor_market,Labor market,labor
2000-02,2000Q1,2000-01,PERMIT,7.4798641311650265,7.404435827839872,2000-03,gdp_growth,0.0754283033251549,-0.020966914588927375,-0.0015814987934062296,housing_construction,Housing & construction,housing
2000-02,2000Q1,2000-01,REALLN,-0.012801845769600638,-0.004183313177487957,2000-03,gdp_growth,-0.008618532592112682,7.965825376563754,-0.06865372563099299,financial_conditions,Financial conditions,financial
2000-02,2000Q1,2000-01,RETAILx,0.0033464522959398835,0.0051486770162534525,2000-03,gdp_growth,-0.001802224720313569,4.406105816490852,-0.007940792822797216,demand_orders_inventories,Demand / orders / inventories,demand
2000-02,2000Q1,2000-01,RPI,0.004926409553561939,0.004789969400416327,2000-03,gdp_growth,0.0001364401531456121,29.7322804491097,0.004056676897844816,real_activity_income,Real activity & income,real_activity
2000-02,2000Q1,2000-01,T10YFFM,1.21,0.9341518652680968,2000-03,gdp_growth,0.27584813473190317,0.2519074656776438,0.06948820453221898,financial_conditions,Financial conditions,financial
2000-02,2000Q1,2000-01,TB3MS,0.1200000000000001,0.06248942991176385,2000-03,gdp_growth,0.05751057008823626,0.10703708102230006,0.006155763550173211,financial_conditions,Financial conditions,financial
2000-02,2000Q1,2000-01,TWEXAFEGSMTHx,-0.0009658207543710162,0.0007324360590656133,2000-03,gdp_growth,-0.0016982568134366297,0.2557818796247297,-0.0004343833198263251,financial_conditions,Financial conditions,financial
2000-02,2000Q1,2000-01,UEMPMEAN,0.3999999999999986,0.09912724947555407,2000-03,gdp_growth,0.3008727505244445,0.07922786742900971,0.023837506391552202,labor_market,Labor market,labor
2000-02,2000Q1,2000-01,UNRATE,-0.09999999999999964,-0.04842354359623711,2000-03,gdp_growth,-0.05157645640376252,-0.6358061330379579,0.03279262730187707,labor_market,Labor market,labor
2000-02,2000Q1,2000-01,W875RX1,0.004633166305886505,0.004873084997724422,2000-03,gdp_growth,-0.000239918691837918,33.04513415890736,-0.007928145359013553,real_activity_income,Real activity & income,real_activity
2000-02,2000Q1,2000-01,WPSFD49207,-0.0007410152247198099,0.0007593848206211833,2000-03,gdp_growth,-0.0015004000453409932,-2.0605090144214016,0.003091587818663396,prices_inflation,Prices & inflation,prices
2000-03,2000Q1,2000-01,BUSINVx,0.005487579643391527,0.0053377752292397135,2000-03,gdp_growth,0.00014980441415181353,5.187484213799653,0.000777108033570038,demand_orders_inventories,Demand / orders / inventories,demand
2000-03,2000Q1,2000-01,CMRMTSPLx,0.008436774885030474,0.006067738517160529,2000-03,gdp_growth,0.0023690363678699443,7.485901716699263,0.0177343734131606,demand_orders_inventories,Demand / orders / inventories,demand
2000-03,2000Q1,2000-01,ISRATIOx,-0.010000000000000007,-0.007040938511480717,2000-03,gdp_growth,-0.0029590614885192912,-3.001619621478841,0.00888197702510189,demand_orders_inventories,Demand / orders / inventories,demand
2000-03,2000Q1,2000-01,NONREVSL,0.006546062811824349,0.0033633861547816015,2000-03,gdp_growth,0.0031826766570427485,1.929512179796433,0.006141013374117778,financial_conditions,Financial conditions,financial
2000-03,2000Q1,2000-02,AMDMNOx,-0.027301488912240046,0.024982574071964338,2000-03,gdp_growth,-0.05228406298420438,2.129290182187663,-0.11132794199714778,demand_orders_inventories,Demand / orders / inventories,demand
2000-03,2000Q1,2000-02,AMDMUOx,0.005179234886886874,0.007957254383719591,2000-03,gdp_growth,-0.002778019496832717,1.739715759574844,-0.0048329642990460565,demand_orders_inventories,Demand / orders / inventories,demand
2000-03,2000Q1,2000-02,ANDENOx,-0.100182329393947,0.013923023662386999,2000-03,gdp_growth,-0.114105353056334,0.3538335459132682,-0.04037430167960804,demand_orders_inventories,Demand / orders / inventories,demand
2000-03,2000Q1,2000-02,AWHMAN,41.9,41.62541816588307,2000-03,gdp_growth,0.2745818341169311,0.030199694993371322,0.008292287641051799,labor_market,Labor market,labor
2000-03,2000Q1,2000-02,BAA,-0.040000000000000924,0.06869246356605693,2000-03,gdp_growth,-0.10869246356605786,0.061205514302156504,-0.006652578133328979,financial_conditions,Financial conditions,financial
2000-03,2000Q1,2000-02,BAAFFM,2.56,2.842010275527929,2000-03,gdp_growth,-0.2820102755279289,0.010352778394614142,-0.0029195898875447237,financial_conditions,Financial conditions,financial
2000-03,2000Q1,2000-02,BUSLOANS,0.010133453460230868,0.0006382544072833896,2000-03,gdp_growth,0.009495199052947479,1.2823551762566576,0.012176217655134512,financial_conditions,Financial conditions,financial
2000-03,2000Q1,2000-02,CES3000000008,-0.0007219576606898315,-0.0006755345434543918,2000-03,gdp_growth,-4.642311723543969e-05,5.124550901826908,-0.00023789762729448878,labor_market,Labor market,labor
2000-03,2000Q1,2000-02,CLAIMSx,0.007092228309492298,-0.017306632241063588,2000-03,gdp_growth,0.024398860550555884,-2.358797293154407,-0.05755196622270306,labor_market,Labor market,labor
2000-03,2000Q1,2000-02,CLF16OV,0.001808030271847727,0.0005132317395090313,2000-03,gdp_growth,0.0012947985323386957,3.8382702777690794,0.004969786722374642,labor_market,Labor market,labor
2000-03,2000Q1,2000-02,CPIAUCSL,0.003532507403049223,0.0003450914501407957,2000-03,gdp_growth,0.0031874159529084274,5.844164739500856,0.018627783922109953,prices_inflation,Prices & inflation,prices
2000-03,2000Q1,2000-02,CPIULFSL,0.0029312971800887766,6.956356657482753e-05,2000-03,gdp_growth,0.002861733613513949,3.501531492125381,0.010020450369792855,prices_inflation,Prices & inflation,prices
2000-03,2000Q1,2000-02,CUMFNS,0.0,0.24758565115437547,2000-03,gdp_growth,-0.24758565115437547,-0.08370318797539304,0.02072370829858478,real_activity_income,Real activity & income,real_activity
2000-03,2000Q1,2000-02,CUSR0000SAC,0.007469858066122548,0.001720243569241542,2000-03,gdp_growth,0.005749614496881006,-2.6846850912079216,-0.015435904319969372,prices_inflation,Prices & inflation,prices
2000-03,2000Q1,2000-02,CUSR0000SAS,0.0005136167088997112,-0.0003986109925588658,2000-03,gdp_growth,0.000912227701458577,6.137863135783406,0.00559912878022303,prices_inflation,Prices & inflation,prices
2000-03,2000Q1,2000-02,FEDFUNDS,0.28000000000000025,0.09857759358589556,2000-03,gdp_growth,0.18142240641410468,0.06106927489467536,0.011079334809356472,financial_conditions,Financial conditions,financial
2000-03,2000Q1,2000-02,GS10,-0.14000000000000057,0.15604243728933168,2000-03,gdp_growth,-0.2960424372893322,0.06103178539334999,-0.018067998499966795,financial_conditions,Financial conditions,financial
2000-03,2000Q1,2000-02,HOUST,7.484930283289661,7.440000745260702,2000-03,gdp_growth,0.04492953802895882,0.49134844188587734,0.022076058505181188,housing_construction,Housing & construction,housing
2000-03,2000Q1,2000-02,HOUSTMW,6.118097198041348,5.893486525623064,2000-03,gdp_growth,0.22461067241828378,0.06365089347030262,0.014296669982389218,housing_construction,Housing & construction,housing
2000-03,2000Q1,2000-02,HOUSTNE,5.236441962829949,5.074916299305135,2000-03,gdp_growth,0.16152566352481407,0.008581276027009161,0.001386096304152235,housing_construction,Housing & construction,housing
2000-03,2000Q1,2000-02,HOUSTS,6.608000625296087,6.680482777556737,2000-03,gdp_growth,-0.07248215226065048,-0.06248058610718456,0.004528727355555634,housing_construction,Housing & construction,housing
2000-03,2000Q1,2000-02,HOUSTW,5.986452005284438,5.976283466493758,2000-03,gdp_growth,0.010168538790679787,-0.0601685093029526,-0.0006118258208244511,housing_construction,Housing & construction,housing
2000-03,2000Q1,2000-02,INDPRO,0.002812326744083826,0.005459331349225222,2000-03,gdp_growth,-0.002647004605141396,0.6294980121736556,-0.0016662841371510209,real_activity_income,Real activity & income,real_activity
2000-03,2000Q1,2000-02,IPCONGD,-0.0003680499251075271,0.004748514342946356,2000-03,gdp_growth,-0.0051165642680538834,-6.9992833310239915,0.03581228299350252,real_activity_income,Real activity & income,real_activity
2000-03,2000Q1,2000-02,IPFINAL,4.541979243910532e-05,0.006042208271364688,2000-03,gdp_growth,-0.0059967884789255835,-4.033894563455131,0.024190412443328275,real_activity_income,Real activity & income,real_activity
2000-03,2000Q1,2000-02,IPMANSICS,0.003130700716344137,0.006421891285789138,2000-03,gdp_growth,-0.0032911905694450005,57.15781351965978,-0.18811725682600022,real_activity_income,Real activity & income,real_activity
2000-03,2000Q1,2000-02,MANEMP,0.00027196823578812257,0.0015173988757343345,2000-03,gdp_growth,-0.001245430639946212,22.686704585582028,-0.028254717010292085,labor_market,Labor market,labor
2000-03,2000Q1,2000-02,OILPRICEx,0.03549846588656269,0.0010344740498829412,2000-03,gdp_growth,0.03446399183667975,-0.038564158278689746,-0.0013290748361051894,prices_inflation,Prices & inflation,prices
2000-03,2000Q1,2000-02,PAYEMS,0.000329998813464627,0.0022646711360192885,2000-03,gdp_growth,-0.0019346723225546613,57.135715732974,-0.11053888785793571,labor_market,Labor market,labor
2000-03,2000Q1,2000-02,PERMIT,7.410347097821024,7.4040209870087255,2000-03,gdp_growth,0.006326110812298152,-0.0019267836277083819,-1.218904674020505e-05,housing_construction,Housing & construction,housing
2000-03,2000Q1,2000-02,REALLN,-0.0013952851636522823,0.004845080836832907,2000-03,gdp_growth,-0.006240366000485189,5.570499879670146,-0.03476195805480042,financial_conditions,Financial conditions,financial
2000-03,2000Q1,2000-02,RETAILx,0.010834317565532103,0.008165549879565323,2000-03,gdp_growth,0.002668767685966781,2.919579755286127,0.007791680107510419,demand_orders_inventories,Demand / orders / inventories,demand
2000-03,2000Q1,2000-02,T10YFFM,0.79,1.152855105668798,2000-03,gdp_growth,-0.362855105668798,0.06697535413526794,-0.024302349201957812,financial_conditions,Financial conditions,financial
2000-03,2000Q1,2000-02,TB3MS,0.22999999999999954,0.0755111543028115,2000-03,gdp_growth,0.15448884569718807,0.05825013561371349,0.008998996212667263,financial_conditions,Financial conditions,financial
2000-03,2000Q1,2000-02,TWEXAFEGSMTHx,0.02303099939530373,-0.0008100126621154428,2000-03,gdp_growth,0.023841012057419175,0.10844609259219726,0.002585464601070571,financial_conditions,Financial conditions,financial
2000-03,2000Q1,2000-02,UEMPMEAN,-0.6999999999999993,-0.08936120034803142,2000-03,gdp_growth,-0.6106387996519679,0.0728169102319655,-0.04446483065841251,labor_market,Labor market,labor
2000-03,2000Q1,2000-02,UNRATE,0.09999999999999964,-0.03597843278139157,2000-03,gdp_growth,0.1359784327813912,-0.4722002604605097,-0.06420905137638484,labor_market,Labor market,labor
2000-03,2000Q1,2000-02,W875RX1,-0.0003472353309099674,0.0032875290948468847,2000-03,gdp_growth,-0.0036347644257568525,25.666929404133814,-0.09329324191655812,real_activity_income,Real activity & income,real_activity
2000-03,2000Q1,2000-02,WPSFD49207,0.010316966970932206,0.00022693703550610194,2000-03,gdp_growth,0.010090029935426105,-1.5444976938496977,-0.015584027966140033,prices_inflation,Prices & inflation,prices
2000-04,2000Q2,2000-02,BUSINVx,0.005417342635423594,0.004702499293187032,2000-06,gdp_growth,0.000714843342236563,4.506571057108358,0.0032214923164898997,demand_orders_inventories,Demand / orders / inventories,demand
2000-04,2000Q2,2000-02,CMRMTSPLx,-0.0038228725178548473,0.003024115961467159,2000-06,gdp_growth,-0.006846988479322006,4.346689841422532,-0.029761735267406074,demand_orders_inventories,Demand / orders / inventories,demand
2000-04,2000Q2,2000-02,ISRATIOx,0.0,-0.0035325250966725436,2000-06,gdp_growth,0.003532525096672544,-1.6114622664393452,-0.005692530898537804,demand_orders_inventories,Demand / orders / inventories,demand
2000-04,2000Q2,2000-02,NONREVSL,-0.0035648296696102477,-0.004485032492300593,2000-06,gdp_growth,0.0009202028226903453,1.1770669921592603,0.0010831403686805859,financial_conditions,Financial conditions,financial
2000-04,2000Q2,2000-02,RPI,-0.00021025519802009285,0.0027131434863835787,2000-06,gdp_growth,-0.002923398684403671,11.951973325561442,-0.03494038309597409,real_activity_income,Real activity & income,real_activity
2000-04,2000Q2,2000-03,AMDMNOx,0.025655825409881317,0.015078370147097774,2000-06,gdp_growth,0.010577455262783543,3.09438770500261,0.03273074751537254,demand_orders_inventories,Demand / orders / inventories,demand
2000-04,2000Q2,2000-03,AMDMUOx,0.01063910992719741,0.006325454349888777,2000-06,gdp_growth,0.004313655577308633,6.976766520508773,0.030095367812772816,demand_orders_inventories,Demand / orders / inventories,demand
2000-04,2000Q2,2000-03,ANDENOx,0.01998325132366041,0.05205886241528693,2000-06,gdp_growth,-0.032075611091626516,0.4814872533899659,-0.015443997885311977,demand_orders_inventories,Demand / orders / inventories,demand
2000-04,2000Q2,2000-03,AWHMAN,41.6,41.73944853725171,2000-06,gdp_growth,-0.1394485372517089,0.22857688464457196,-0.031874712213238156,labor_market,Labor market,labor
2000-04,2000Q2,2000-03,BAA,0.08000000000000007,-0.008263223019521145,2000-06,gdp_growth,0.0882632230195212,0.1768493920865434,0.015609297334601329,financial_conditions,Financial conditions,financial
2000-04,2000Q2,2000-03,BAAFFM,2.52,2.5700017763593594,2000-06,gdp_growth,-0.050001776359359366,-0.10641127603774565,0.005320752826553414,financial_conditions,Financial conditions,financial
2000-04,2000Q2,2000-03,BUSLOANS,-0.0009684618874450379,-0.0007277843626578097,2000-06,gdp_growth,-0.00024067752478722828,1.9247828301624197,-0.0004632519673164472,financial_conditions,Financial conditions,financial
2000-04,2000Q2,2000-03,CES3000000008,-0.0021223541449417738,2.8869447187805623e-05,2000-06,gdp_growth,-0.002151223592129579,6.64173150170216,-0.014287849499051904,labor_market,Labor market,labor
2000-04,2000Q2,2000-03,CLAIMSx,-0.06571707165701568,-0.0036314898228161185,2000-06,gdp_growth,-0.062085581834199564,-3.2827636551496506,0.20381229155412972,labor_market,Labor market,labor
2000-04,2000Q2,2000-03,CLF16OV,-0.002113236163980403,0.0013770622172757049,2000-06,gdp_growth,-0.003490298381256108,6.2934427642929585,-0.02196599309273968,labor_market,Labor market,labor
2000-04,2000Q2,2000-03,CPIAUCSL,0.0017258455116522244,-0.0013084322382219413,2000-06,gdp_growth,0.0030342777498741655,8.068983687299497,0.024483537666470465,prices_inflation,Prices & inflation,prices
2000-04,2000Q2,2000-03,CPIULFSL,0.002885042299463514,-0.001092576380429973,2000-06,gdp_growth,0.003977618679893487,4.810034481742662,0.019132483005511396,prices_inflation,Prices & inflation,prices
2000-04,2000Q2,2000-03,CUMFNS,0.0,0.00994751260597846,2000-06,gdp_growth,-0.009947512605978462,-0.1582857128783891,0.001574549124204063,real_activity_income,Real activity & income,real_activity
2000-04,2000Q2,2000-03,CUSR0000SAC,0.001945476969491544,-0.003142906469289946,2000-06,gdp_growth,0.00508838343878149,-3.4443227538848986,-0.01752603485868617,prices_inflation,Prices & inflation,prices
2000-04,2000Q2,2000-03,CUSR0000SAS,0.001545061898844402,5.681490948030502e-05,2000-06,gdp_growth,0.0014882469893640969,8.203475032202787,0.012208797018999335,prices_inflation,Prices & inflation,prices
2000-04,2000Q2,2000-03,FEDFUNDS,0.1199999999999992,0.13990677287504405,2000-06,gdp_growth,-0.019906772875044852,0.14742898272073035,-0.002934835274220491,financial_conditions,Financial conditions,financial
2000-04,2000Q2,2000-03,GS10,-0.2599999999999998,-0.03931614686567028,2000-06,gdp_growth,-0.2206838531343295,0.1479339866937256,-0.032646642193093996,financial_conditions,Financial conditions,financial
2000-04,2000Q2,2000-03,HOUST,7.38025578842646,7.475601706002434,2000-06,gdp_growth,-0.09534591757597326,2.3798921259685906,-0.226912998482309,housing_construction,Housing & construction,housing
2000-04,2000Q2,2000-03,HOUSTMW,5.768320995793772,6.092044772821823,2000-06,gdp_growth,-0.32372377702805133,0.25954768586249327,-0.08402175718629648,housing_construction,Housing & construction,housing
2000-04,2000Q2,2000-03,HOUSTNE,5.0689042022202315,5.274100813293245,2000-06,gdp_growth,-0.20519661107301362,0.03382466990004357,-0.0069407076341523105,housing_construction,Housing & construction,housing
2000-04,2000Q2,2000-03,HOUSTS,6.61472560020376,6.602905697129796,2000-06,gdp_growth,0.011819903073963878,-0.2543086638544457,-0.00300590375762881,housing_construction,Housing & construction,housing
2000-04,2000Q2,2000-03,HOUSTW,5.937536205082426,6.000717612285428,2000-06,gdp_growth,-0.06318140720300236,-0.2053079930347686,0.012971647909960887,housing_construction,Housing & construction,housing
2000-04,2000Q2,2000-03,INDPRO,0.0027499276964668695,0.003236398344414105,2000-06,gdp_growth,-0.0004864706479472355,1.2245829324098325,-0.0005957236525945369,real_activity_income,Real activity & income,real_activity
2000-04,2000Q2,2000-03,IPCONGD,-0.0022165883704037266,0.002606300257231913,2000-06,gdp_growth,-0.00482288862763564,-11.537528251401032,0.055644213794706944,real_activity_income,Real activity & income,real_activity
2000-04,2000Q2,2000-03,IPFINAL,0.0016350757594203458,0.00292374159022423,2000-06,gdp_growth,-0.001288665830803884,-6.937955504078692,0.008940706193743948,real_activity_income,Real activity & income,real_activity
2000-04,2000Q2,2000-03,IPMANSICS,0.0042908322277561695,0.0034839037067540056,2000-06,gdp_growth,0.0008069285210021638,89.47492741561621,0.07219987084625915,real_activity_income,Real activity & income,real_activity
2000-04,2000Q2,2000-03,MANEMP,-0.0002723089089080588,8.197309651840283e-05,2000-06,gdp_growth,-0.00035428200542646167,46.52370463420104,-0.016482511377673113,labor_market,Labor market,labor
2000-04,2000Q2,2000-03,OILPRICEx,-0.05857970752936703,-0.012861466351930313,2000-06,gdp_growth,-0.04571824117743672,-0.05426086809778969,0.002480711454191831,prices_inflation,Prices & inflation,prices
2000-04,2000Q2,2000-03,PAYEMS,0.003187571181886284,0.0023368506606486136,2000-06,gdp_growth,0.0008507205212376707,108.30956107233314,0.09214116625047857,labor_market,Labor market,labor
2000-04,2000Q2,2000-03,PERMIT,7.382746449738912,7.440315736559968,2000-06,gdp_growth,-0.057569286821055776,-0.014933988837895778,0.0008597390867912674,housing_construction,Housing & construction,housing
2000-04,2000Q2,2000-03,REALLN,-0.001641669121903,0.0002869227332337968,2000-06,gdp_growth,-0.0019285918551367966,7.563914118426168,-0.01458770316175093,financial_conditions,Financial conditions,financial
2000-04,2000Q2,2000-03,RETAILx,0.0020270073552808294,0.004067115979143019,2000-06,gdp_growth,-0.002040108623862189,5.290964962403008,-0.01079414324835106,demand_orders_inventories,Demand / orders / inventories,demand
2000-04,2000Q2,2000-03,T10YFFM,0.41,0.7964413357307247,2000-06,gdp_growth,-0.3864413357307248,0.38186425028332827,-0.14756813094730117,financial_conditions,Financial conditions,financial
2000-04,2000Q2,2000-03,TB3MS,0.14000000000000057,0.11145098639788285,2000-06,gdp_growth,0.028549013602117722,0.1388162100438209,0.003963065868735473,financial_conditions,Financial conditions,financial
2000-04,2000Q2,2000-03,TWEXAFEGSMTHx,0.003456405640589466,0.007801544336896947,2000-06,gdp_growth,-0.004345138696307481,0.371268447769305,-0.0016132128991204202,financial_conditions,Financial conditions,financial
2000-04,2000Q2,2000-03,UEMPMEAN,0.3000000000000007,0.2119780749271191,2000-06,gdp_growth,0.0880219250728816,0.0779308533278648,0.006859623732491041,labor_market,Labor market,labor
2000-04,2000Q2,2000-03,UNRATE,0.0,-0.032048098095443296,2000-06,gdp_growth,0.032048098095443296,-0.7165861592016326,-0.022965223523930867,labor_market,Labor market,labor
2000-04,2000Q2,2000-03,W875RX1,0.0032243997259069346,0.0035807394781002633,2000-06,gdp_growth,-0.00035633975219332873,36.41727082162522,-0.012976921260135273,real_activity_income,Real activity & income,real_activity
2000-04,2000Q2,2000-03,WPSFD49207,-0.0008313066456846485,-0.004274394067732964,2000-06,gdp_growth,0.003443087422048315,-2.080997034883875,-0.007165054716128509,prices_inflation,Prices & inflation,prices
2000-05,2000Q2,2000-03,BUSINVx,0.0032893495195445155,0.005297830787704426,2000-06,gdp_growth,-0.00200848126815991,5.115724305173826,-0.010274836440012,demand_orders_inventories,Demand / orders / inventories,demand
2000-05,2000Q2,2000-03,CMRMTSPLx,0.005730407775349278,0.004548764420015182,2000-06,gdp_growth,0.001181643355334096,6.1310306043119605,0.007244691574935215,demand_orders_inventories,Demand / orders / inventories,demand
2000-05,2000Q2,2000-03,ISRATIOx,-0.010000000000000009,-0.0001766536450994348,2000-06,gdp_growth,-0.009823346354900574,-2.379146651824247,0.02337118158997162,demand_orders_inventories,Demand / orders / inventories,demand
2000-05,2000Q2,2000-03,NONREVSL,-0.005691422154327164,0.0022355860784729867,2000-06,gdp_growth,-0.007927008232800152,1.6340118351843367,-0.012952825269999121,financial_conditions,Financial conditions,financial
2000-05,2000Q2,2000-03,RPI,0.002073709268954005,0.003418525824697079,2000-06,gdp_growth,-0.001344816555743074,25.963682132228833,-0.03491638957947197,real_activity_income,Real activity & income,real_activity
2000-05,2000Q2,2000-03,gdp_growth,5.2502155318310395,4.522435662148012,2000-06,gdp_growth,0.7277798696830273,-0.07577038169889758,-0.055144158518656915,,,
2000-05,2000Q2,2000-04,AMDMNOx,-0.06649474767589503,-0.007131685613549838,2000-06,gdp_growth,-0.05936306206234519,2.8438652964204474,-0.16882055208835672,demand_orders_inventories,Demand / orders / inventories,demand
2000-05,2000Q2,2000-04,AMDMUOx,-0.008425311954015413,0.010891845279049463,2000-06,gdp_growth,-0.019317157233064874,4.927807278608966,-0.09519122801513091,demand_orders_inventories,Demand / orders / inventories,demand
2000-05,2000Q2,2000-04,ANDENOx,0.00473833169646376,-0.010951731330606706,2000-06,gdp_growth,0.015690063027070465,0.4474700745577647,0.007020833672539248,demand_orders_inventories,Demand / orders / inventories,demand
2000-05,2000Q2,2000-04,AWHMAN,42.1,41.640897369459196,2000-06,gdp_growth,0.45910263054080824,0.14963671109172952,0.06869860768768796,labor_market,Labor market,labor
2000-05,2000Q2,2000-04,BAA,0.030000000000001137,0.05591228408771354,2000-06,gdp_growth,-0.025912284087712397,0.13411834132707265,-0.0034753125618398844,financial_conditions,Financial conditions,financial
2000-05,2000Q2,2000-04,BAAFFM,2.38,2.534736189837105,2000-06,gdp_growth,-0.15473618983710488,-0.05596501512533311,0.00865981320466999,financial_conditions,Financial conditions,financial
2000-05,2000Q2,2000-04,BUSLOANS,-0.00026873113024539213,6.36007141306931e-05,2000-06,gdp_growth,-0.0003323318443760852,1.8069583096061461,-0.0006005097877421038,financial_conditions,Financial conditions,financial
2000-05,2000Q2,2000-04,CES3000000008,0.004906630624681441,0.0019855327201282378,2000-06,gdp_growth,0.002921097904553203,6.330100903200854,0.01849084448395035,labor_market,Labor market,labor
2000-05,2000Q2,2000-04,CLAIMSx,0.047891287704414864,0.0037071531791916757,2000-06,gdp_growth,0.044184134525223184,-3.053729596857407,-0.13492639931120323,labor_market,Labor market,labor
2000-05,2000Q2,2000-04,CLF16OV,0.0025735842660914443,0.0024864637046468387,2000-06,gdp_growth,8.71205614446054e-05,5.498635618083021,0.00047904422222669763,labor_market,Labor market,labor
2000-05,2000Q2,2000-04,CPIAUCSL,-0.0070340266573794,-0.0006236853910943915,2000-06,gdp_growth,-0.006410341266285008,7.580430062448251,-0.048593143645499465,prices_inflation,Prices & inflation,prices
2000-05,2000Q2,2000-04,CPIULFSL,-0.008177615665232452,-0.0012532364953850563,2000-06,gdp_growth,-0.006924379169847395,4.496856798056873,-0.03113794154225167,prices_inflation,Prices & inflation,prices
2000-05,2000Q2,2000-04,CUMFNS,0.40000000000000574,-0.008514626800058399,2000-06,gdp_growth,0.4085146268000641,-0.07071626014045512,-0.028888626619974274,real_activity_income,Real activity & income,real_activity
2000-05,2000Q2,2000-04,CUSR0000SAC,-0.012780460886223644,-0.000638340372045344,2000-06,gdp_growth,-0.012142120514178302,-3.3506951580135267,0.04068454441487395,prices_inflation,Prices & inflation,prices
2000-05,2000Q2,2000-04,CUSR0000SAS,-0.0026023698629087377,-0.0006371993957490873,2000-06,gdp_growth,-0.001965170467159651,7.795695981279702,-0.015319871513366045,prices_inflation,Prices & inflation,prices
2000-05,2000Q2,2000-04,FEDFUNDS,0.16999999999999993,0.10200884043294235,2000-06,gdp_growth,0.06799115956705758,0.11675455702189709,0.007938277716656927,financial_conditions,Financial conditions,financial
2000-05,2000Q2,2000-04,GS10,-0.2699999999999996,-0.07056610042085498,2000-06,gdp_growth,-0.19943389957914462,0.11656298751456057,-0.02324661114662396,financial_conditions,Financial conditions,financial
2000-05,2000Q2,2000-04,HOUST,7.416378479192928,7.372137361119342,2000-06,gdp_growth,0.04424111807358595,1.6432145378873921,0.0726976483909091,housing_construction,Housing & construction,housing
2000-05,2000Q2,2000-04,HOUSTMW,5.918893854273146,5.792073165318817,2000-06,gdp_growth,0.12682068895432963,0.18127985511249783,0.02299003611890803,housing_construction,Housing & construction,housing
2000-05,2000Q2,2000-04,HOUSTNE,4.955827057601261,5.094111644080137,2000-06,gdp_growth,-0.13828458647887543,0.02556145719949665,-0.0035347555386298674,housing_construction,Housing & construction,housing
2000-05,2000Q2,2000-04,HOUSTS,6.570882962339584,6.6057998248381,2000-06,gdp_growth,-0.03491686249851641,-0.1811025945483357,0.006323534391968804,housing_construction,Housing & construction,housing
2000-05,2000Q2,2000-04,HOUSTW,6.075346031088684,5.921610523316926,2000-06,gdp_growth,0.15373550777175776,-0.14951085732913935,-0.022985127568886068,housing_construction,Housing & construction,housing
2000-05,2000Q2,2000-04,INDPRO,0.008913306893518325,0.0031154214224215614,2000-06,gdp_growth,0.005797885471096763,1.1815057524464576,0.006850235036126566,real_activity_income,Real activity & income,real_activity
2000-05,2000Q2,2000-04,IPCONGD,0.006055490654680362,0.002075106053886462,2000-06,gdp_growth,0.0039803846007939,-10.100389041011873,-0.040203433000871126,real_activity_income,Real activity & income,real_activity
2000-05,2000Q2,2000-04,IPFINAL,0.0077942013595251325,0.0025731600984792036,2000-06,gdp_growth,0.00522104126104593,-5.963463386278372,-0.031135488398496062,real_activity_income,Real activity & income,real_activity
2000-05,2000Q2,2000-04,IPMANSICS,0.007939161680493356,0.00313453710262861,2000-06,gdp_growth,0.004804624577864747,83.87552571736143,0.40299041234296135,real_activity_income,Real activity & income,real_activity
2000-05,2000Q2,2000-04,MANEMP,0.0005989165234971949,0.00034437761877465005,2000-06,gdp_growth,0.0002545389047225449,38.28066871708316,0.009743919487292935,labor_market,Labor market,labor
2000-05,2000Q2,2000-04,OILPRICEx,-0.16770920414960688,0.023349988544252638,2000-06,gdp_growth,-0.19105919269385951,-0.05240068181433262,0.010011631964054196,prices_inflation,Prices & inflation,prices
2000-05,2000Q2,2000-04,PAYEMS,0.002596471786400656,0.0012197831091084923,2000-06,gdp_growth,0.0013766886772921638,90.8735030247702,0.12510452268007632,labor_market,Labor market,labor
2000-05,2000Q2,2000-04,PERMIT,7.351799869057777,7.339876078227724,2000-06,gdp_growth,0.011923790830052286,-0.012748270722817541,-0.00015200771354375583,housing_construction,Housing & construction,housing
2000-05,2000Q2,2000-04,REALLN,0.002020019894584557,0.00021581546113066326,2000-06,gdp_growth,0.0018042044334538934,6.9694795810347605,0.012574365958969299,financial_conditions,Financial conditions,financial
2000-05,2000Q2,2000-04,RETAILx,-0.0018076279345979884,0.006170411387298536,2000-06,gdp_growth,-0.007978039321896524,4.477582950009566,-0.03572233284222976,demand_orders_inventories,Demand / orders / inventories,demand
2000-05,2000Q2,2000-04,RPI,0.00662535337800918,0.0030045171006280575,2000-06,gdp_growth,0.0036208362773811225,30.553915925227184,0.1106307271981154,real_activity_income,Real activity & income,real_activity
2000-05,2000Q2,2000-04,T10YFFM,-0.030000000000000027,0.42415876336833314,2000-06,gdp_growth,-0.45415876336833316,0.2566364855349841,-0.1165537089057635,financial_conditions,Financial conditions,financial
2000-05,2000Q2,2000-04,TB3MS,-0.03000000000000025,0.10278541590408548,2000-06,gdp_growth,-0.13278541590408574,0.11035117835586256,-0.014653027113489155,financial_conditions,Financial conditions,financial
2000-05,2000Q2,2000-04,TWEXAFEGSMTHx,0.006981012982648416,0.0013563863334905848,2000-06,gdp_growth,0.0056246266491578305,0.27710356084903487,0.00155860407292801,financial_conditions,Financial conditions,financial
2000-05,2000Q2,2000-04,UEMPMEAN,-0.40000000000000036,-0.06052367287188152,2000-06,gdp_growth,-0.33947632712811887,0.08070556951328854,-0.027397630317154278,labor_market,Labor market,labor
2000-05,2000Q2,2000-04,UNRATE,-0.19999999999999973,-0.017010914724407553,2000-06,gdp_growth,-0.18298908527559218,-0.6492598888756463,0.11880747317148715,labor_market,Labor market,labor
2000-05,2000Q2,2000-04,W875RX1,0.007139887534130196,0.002520919213260551,2000-06,gdp_growth,0.004618968320869645,34.20587586165959,0.15799585699260535,real_activity_income,Real activity & income,real_activity
2000-05,2000Q2,2000-04,WPSFD49207,-0.01239475328593187,0.0005731165755452519,2000-06,gdp_growth,-0.01296786986147712,-2.0144231827812007,0.02612277768024915,prices_inflation,Prices & inflation,prices
2000-06,2000Q2,2000-04,BUSINVx,0.004399486690799037,0.0051535603907936186,2000-06,gdp_growth,-0.0007540736999945812,5.028253587123863,-0.003791673786953517,demand_orders_inventories,Demand / orders / inventories,demand
2000-06,2000Q2,2000-04,CMRMTSPLx,-0.004341193759698214,0.0025703279410214143,2000-06,gdp_growth,-0.0069115217007196285,7.274981091868291,-0.05028118968877267,demand_orders_inventories,Demand / orders / inventories,demand
2000-06,2000Q2,2000-04,ISRATIOx,0.010000000000000009,0.0013545237095183617,2000-06,gdp_growth,0.008645476290481647,-3.0769238083194907,-0.026601471832444653,demand_orders_inventories,Demand / orders / inventories,demand
2000-06,2000Q2,2000-04,NONREVSL,-0.0003876613753170943,0.0007684851023646762,2000-06,gdp_growth,-0.0011561464776817705,1.868913921157627,-0.0021607382470368165,financial_conditions,Financial conditions,financial
2000-06,2000Q2,2000-05,AMDMNOx,0.05785198574679917,0.03429108797017605,2000-06,gdp_growth,0.023560897776623124,1.989539916167316,0.04687534658732947,demand_orders_inventories,Demand / orders / inventories,demand
2000-06,2000Q2,2000-05,AMDMUOx,0.009517020880245752,-0.0015962471460051631,2000-06,gdp_growth,0.011113268026250917,1.4653146140516375,0.016284434048738267,demand_orders_inventories,Demand / orders / inventories,demand
2000-06,2000Q2,2000-05,ANDENOx,-0.016290368276925093,0.0045040990705608065,2000-06,gdp_growth,-0.0207944673474859,0.335321714201832,-0.006972836436872995,demand_orders_inventories,Demand / orders / inventories,demand
2000-06,2000Q2,2000-05,AWHMAN,41.4,42.08655410378461,2000-06,gdp_growth,-0.6865541037846058,0.02257887686992162,-0.015501620573892002,labor_market,Labor market,labor
2000-06,2000Q2,2000-05,BAA,0.5,0.04282752247804345,2000-06,gdp_growth,0.4571724775219565,0.05494775440271141,0.025120601014555568,financial_conditions,Financial conditions,financial
2000-06,2000Q2,2000-05,BAAFFM,2.63,2.4071089982382388,2000-06,gdp_growth,0.2228910017617612,0.015423276010471155,0.0034377094404220553,financial_conditions,Financial conditions,financial
2000-06,2000Q2,2000-05,BUSLOANS,0.011320062794101915,0.00031765892019401714,2000-06,gdp_growth,0.011002403873907898,1.2268351119538878,0.013498135388407686,financial_conditions,Financial conditions,financial
2000-06,2000Q2,2000-05,CES3000000008,-0.004907614870353072,-0.0013640506376621274,2000-06,gdp_growth,-0.0035435642326909446,4.681298985857797,-0.01658848364881808,labor_market,Labor market,labor
2000-06,2000Q2,2000-05,CLAIMSx,0.045702153480855934,-0.006195340158665579,2000-06,gdp_growth,0.05189749363952151,-2.2550959673327733,-0.11703382862116321,labor_market,Labor market,labor
2000-06,2000Q2,2000-05,CLF16OV,-0.005260573187081619,0.0013506128941124526,2000-06,gdp_growth,-0.00661118608119407,3.5118137608392734,-0.023217254255406407,labor_market,Labor market,labor
2000-06,2000Q2,2000-05,CPIAUCSL,0.0005839416224331373,0.0027175855224684945,2000-06,gdp_growth,-0.002133643900035357,5.644137394831095,-0.012042579323442817,prices_inflation,Prices & inflation,prices
2000-06,2000Q2,2000-05,CPIULFSL,0.0,0.0034937363993657036,2000-06,gdp_growth,-0.0034937363993657036,3.2414861096026795,-0.011324898009157208,prices_inflation,Prices & inflation,prices
2000-06,2000Q2,2000-05,CUMFNS,-0.09999999999999433,0.08757250967416028,2000-06,gdp_growth,-0.1875725096741546,-0.029433141065959657,0.005520848137335475,real_activity_income,Real activity & income,real_activity
2000-06,2000Q2,2000-05,CUSR0000SAC,0.0013386786313267507,0.00524891056733223,2000-06,gdp_growth,-0.003910231936005478,-2.565591413772988,0.010032057480876582,prices_inflation,Prices & inflation,prices
2000-06,2000Q2,2000-05,CUSR0000SAS,0.0005113235581237774,0.0008689130887919684,2000-06,gdp_growth,-0.000357589530668191,5.871766828324114,-0.002099682344333472,prices_inflation,Prices & inflation,prices
2000-06,2000Q2,2000-05,FEDFUNDS,0.25,0.15600390733134636,2000-06,gdp_growth,0.09399609266865362,0.05614847809334482,0.005277737550065907,financial_conditions,Financial conditions,financial
2000-06,2000Q2,2000-05,GS10,0.4500000000000002,-0.05798229488924667,2000-06,gdp_growth,0.5079822948892468,0.055166088631106225,0.02802339630289293,financial_conditions,Financial conditions,financial
2000-06,2000Q2,2000-05,HOUST,7.3727463664043285,7.3919092547395255,2000-06,gdp_growth,-0.019162888335197036,0.4031975321632437,-0.0077264292858712546,housing_construction,Housing & construction,housing
2000-06,2000Q2,2000-05,HOUSTMW,5.82600010738045,5.888969805787344,2000-06,gdp_growth,-0.06296969840689376,0.052866260606340185,-0.00332897248628149,housing_construction,Housing & construction,housing
2000-06,2000Q2,2000-05,HOUSTNE,5.017279836814924,5.0088571512268985,2000-06,gdp_growth,0.008422685588025575,0.0077331270239142606,6.513369753469376e-05,housing_construction,Housing & construction,housing
2000-06,2000Q2,2000-05,HOUSTS,6.590301048196686,6.548653309329355,2000-06,gdp_growth,0.04164773886733066,-0.05176285530096156,-0.00215580588060187,housing_construction,Housing & construction,housing
2000-06,2000Q2,2000-05,HOUSTW,5.924255797414532,6.041463233998267,2000-06,gdp_growth,-0.11720743658373521,-0.052486645171419814,0.0061518251354222,housing_construction,Housing & construction,housing
2000-06,2000Q2,2000-05,INDPRO,0.0037737860788880084,0.00378612884228466,2000-06,gdp_growth,-1.2342763396651782e-05,0.4633861471898044,-5.719465576049813e-06,real_activity_income,Real activity & income,real_activity
2000-06,2000Q2,2000-05,IPCONGD,-0.0008480589615338379,0.0031080087354789466,2000-06,gdp_growth,-0.003956067697012784,-6.601035469427531,0.026114143187437874,real_activity_income,Real activity & income,real_activity
2000-06,2000Q2,2000-05,IPFINAL,0.002977431485653881,0.0038036997560307708,2000-06,gdp_growth,-0.0008262682703768902,-3.7909112270664407,0.0031323096627405224,real_activity_income,Real activity & income,real_activity
2000-06,2000Q2,2000-05,IPMANSICS,0.003076884342082309,0.0045294518384061955,2000-06,gdp_growth,-0.0014525674963238864,56.69703916254893,-0.08235627622532105,real_activity_income,Real activity & income,real_activity
2000-06,2000Q2,2000-05,MANEMP,-0.0009200379488110144,0.002327692157502138,2000-06,gdp_growth,-0.0032477301063131526,20.924899310383932,-0.06795842546190523,labor_market,Labor market,labor
2000-06,2000Q2,2000-05,OILPRICEx,0.26111227341910714,0.06329896052086974,2000-06,gdp_growth,0.19781331289823742,-0.04420267310936499,-0.008743877206721321,prices_inflation,Prices & inflation,prices
2000-06,2000Q2,2000-05,PAYEMS,0.0017561402887178446,0.0026084392311397486,2000-06,gdp_growth,-0.0008522989424219039,53.176165100659304,-0.04532198927734448,labor_market,Labor market,labor
2000-06,2000Q2,2000-05,PERMIT,7.32052696227274,7.35889937484548,2000-06,gdp_growth,-0.038372412572740155,-0.002565539628956346,9.84459451140276e-05,housing_construction,Housing & construction,housing
2000-06,2000Q2,2000-05,REALLN,0.00033337888653495185,-0.0006176592333332516,2000-06,gdp_growth,0.0009510381198682034,5.225553362197669,0.00496970044485544,financial_conditions,Financial conditions,financial
2000-06,2000Q2,2000-05,RETAILx,-0.0031119636663508024,0.008558515950816865,2000-06,gdp_growth,-0.011670479617167669,2.757182332606091,-0.03217764021349419,demand_orders_inventories,Demand / orders / inventories,demand
2000-06,2000Q2,2000-05,RPI,0.003628163176822241,0.002718944724454962,2000-06,gdp_growth,0.0009092184523672788,21.895050387854553,0.019907383828148703,real_activity_income,Real activity & income,real_activity
2000-06,2000Q2,2000-05,T10YFFM,0.17000000000000004,-0.00011655148582168096,2000-06,gdp_growth,0.17011655148582175,0.05205808748094174,0.008855942319205038,financial_conditions,Financial conditions,financial
2000-06,2000Q2,2000-05,TB3MS,0.1299999999999999,0.06626805175730327,2000-06,gdp_growth,0.06373194824269662,0.053613841612157216,0.003416914578718138,financial_conditions,Financial conditions,financial
2000-06,2000Q2,2000-05,TWEXAFEGSMTHx,0.03067411534249498,0.0028742452093526525,2000-06,gdp_growth,0.027799870133142324,0.1065155911233073,0.00296111960038283,financial_conditions,Financial conditions,financial
2000-06,2000Q2,2000-05,UEMPMEAN,0.1999999999999993,0.008693802223551128,2000-06,gdp_growth,0.19130619777644817,0.07001530292862203,0.013394361389440897,labor_market,Labor market,labor
2000-06,2000Q2,2000-05,UNRATE,0.19999999999999973,0.012759554107270855,2000-06,gdp_growth,0.1872404458927289,-0.4448975184336344,-0.08330280972808228,labor_market,Labor market,labor
2000-06,2000Q2,2000-05,W875RX1,0.0010756062525807408,0.0018978522697089826,2000-06,gdp_growth,-0.0008222460171282416,24.686782380416563,-0.02029860848800917,real_activity_income,Real activity & income,real_activity
2000-06,2000Q2,2000-05,WPSFD49207,0.002909092960684312,0.004815394531704242,2000-06,gdp_growth,-0.0019063015710199306,-1.5381711884987528,0.0029322181531327663,prices_inflation,Prices & inflation,prices
2000-07,2000Q3,2000-05,BUSINVx,0.007573894070233678,0.005797540837571211,2000-09,gdp_growth,0.001776353232662467,4.6806948407630715,0.008314567411496013,demand_orders_inventories,Demand / orders / inventories,demand
2000-07,2000Q3,2000-05,ISRATIOx,0.0,0.0030656745679831774,2000-09,gdp_growth,-0.003065674567983178,-3.356607703263309,0.010290266870590752,demand_orders_inventories,Demand / orders / inventories,demand
2000-07,2000Q3,2000-05,NONREVSL,0.005839316693965202,0.0008768376304768229,2000-09,gdp_growth,0.004962479063488378,1.3339012108130865,0.00661945683142174,financial_conditions,Financial conditions,financial
2000-07,2000Q3,2000-06,AMDMNOx,0.09536652266338663,-0.019296230301105173,2000-09,gdp_growth,0.11466275296449181,3.5287151929787735,0.40461219845457413,demand_orders_inventories,Demand / orders / inventories,demand
2000-07,2000Q3,2000-06,AMDMUOx,0.04602076802168753,0.00786031558969064,2000-09,gdp_growth,0.03816045243199689,8.045444184205897,0.3070177900856751,demand_orders_inventories,Demand / orders / inventories,demand
2000-07,2000Q3,2000-06,ANDENOx,0.1551081431859096,0.01375045769898926,2000-09,gdp_growth,0.14135768548692035,0.5501376537017046,0.07776618542647787,demand_orders_inventories,Demand / orders / inventories,demand
2000-07,2000Q3,2000-06,AWHMAN,41.6,41.36201198023979,2000-09,gdp_growth,0.2379880197602084,0.25021942380326506,0.059549225176479405,labor_market,Labor market,labor
2000-07,2000Q3,2000-06,BAA,-0.42,0.25975162578127725,2000-09,gdp_growth,-0.6797516257812772,0.19848064123247927,-0.1349175385638882,financial_conditions,Financial conditions,financial
2000-07,2000Q3,2000-06,BAAFFM,1.95,2.664446654647263,2000-09,gdp_growth,-0.714446654647263,-0.10973361677628087,0.07839881540815864,financial_conditions,Financial conditions,financial
2000-07,2000Q3,2000-06,BUSLOANS,-0.011158119282005607,-0.0023742774111304345,2000-09,gdp_growth,-0.008783841870875173,2.3085000613691866,-0.020277499497972567,financial_conditions,Financial conditions,financial
2000-07,2000Q3,2000-06,CES3000000008,0.006995962110612375,0.0026337906006789064,2000-09,gdp_growth,0.0043621715099334685,7.878273908158328,0.03436638198962046,labor_market,Labor market,labor
2000-07,2000Q3,2000-06,CLAIMSx,0.03710375020337686,-0.011780827684913921,2000-09,gdp_growth,0.04888457788829078,-3.7696044161349804,-0.18427552068859535,labor_market,Labor market,labor
2000-07,2000Q3,2000-06,CLF16OV,0.001941327040535512,0.0033005844623517607,2000-09,gdp_growth,-0.0013592574218162482,7.14721585463666,-0.00971490619573764,labor_market,Labor market,labor
2000-07,2000Q3,2000-06,CPIAUCSL,0.005236796581375991,-0.00016874090336127366,2000-09,gdp_growth,0.005405537484737265,9.345130197863238,0.05051545158429991,prices_inflation,Prices & inflation,prices
2000-07,2000Q3,2000-06,CPIULFSL,0.006378682108975298,0.00010274133363806817,2000-09,gdp_growth,0.006275940775337229,5.356310197990247,0.03361588557692162,prices_inflation,Prices & inflation,prices
2000-07,2000Q3,2000-06,CUMFNS,0.0,-0.04727853426582359,2000-09,gdp_growth,0.04727853426582359,-0.3381382708484385,-0.01598668182489424,real_activity_income,Real activity & income,real_activity
2000-07,2000Q3,2000-06,CUSR0000SAC,0.00737829829812231,-0.0005294980456791836,2000-09,gdp_growth,0.007907796343801494,-3.997446671537858,-0.03161099417372852,prices_inflation,Prices & inflation,prices
2000-07,2000Q3,2000-06,CUSR0000SAS,0.0020478008566948702,-0.0001980586741992203,2000-09,gdp_growth,0.0022458595308940906,9.449591843291895,0.02122245590431616,prices_inflation,Prices & inflation,prices
2000-07,2000Q3,2000-06,FEDFUNDS,0.2600000000000007,0.1705561757248238,2000-09,gdp_growth,0.08944382427517689,0.16844225052004644,0.015066119056030357,financial_conditions,Financial conditions,financial
2000-07,2000Q3,2000-06,GS10,-0.34000000000000075,0.2068968449535553,2000-09,gdp_growth,-0.5468968449535561,0.1656701178529065,-0.09060446475683837,financial_conditions,Financial conditions,financial
2000-07,2000Q3,2000-06,HOUST,7.348587530927593,7.362691739967097,2000-09,gdp_growth,-0.01410420903950451,2.6864474789941024,-0.03789021681738272,housing_construction,Housing & construction,housing
2000-07,2000Q3,2000-06,HOUSTMW,5.631211781821365,5.834681481478787,2000-09,gdp_growth,-0.20346969965742168,0.28817883980027464,-0.058635661981786116,housing_construction,Housing & construction,housing
2000-07,2000Q3,2000-06,HOUSTNE,4.948759890378168,5.044930011758518,2000-09,gdp_growth,-0.09617012138034914,0.042514803457761347,-0.0040886538089945955,housing_construction,Housing & construction,housing
2000-07,2000Q3,2000-06,HOUSTS,6.648984550024776,6.573587021737152,2000-09,gdp_growth,0.07539752828762383,-0.2850043183389241,-0.021488621154053977,housing_construction,Housing & construction,housing
2000-07,2000Q3,2000-06,HOUSTW,5.8916442118257715,5.919679123115358,2000-09,gdp_growth,-0.028034911289586916,-0.23253185576124685,0.006519009948269576,housing_construction,Housing & construction,housing
2000-07,2000Q3,2000-06,INDPRO,0.0020560256734816207,0.0025802223563039265,2000-09,gdp_growth,-0.0005241966828223059,0.5863959162061804,-0.00030738679409582657,real_activity_income,Real activity & income,real_activity
2000-07,2000Q3,2000-06,IPCONGD,-0.0013247326104419699,0.002329978217406969,2000-09,gdp_growth,-0.0036547108278489394,-13.346851149402266,0.048778881413408526,real_activity_income,Real activity & income,real_activity
2000-07,2000Q3,2000-06,IPFINAL,0.0014182856132709531,0.002798816356126976,2000-09,gdp_growth,-0.0013805307428560228,-8.113274751931163,0.011200625220278542,real_activity_income,Real activity & income,real_activity
2000-07,2000Q3,2000-06,IPMANSICS,0.0033943234298661196,0.0030495589924406817,2000-09,gdp_growth,0.0003447644374254379,97.2907197314199,0.03354238025491893,real_activity_income,Real activity & income,real_activity
2000-07,2000Q3,2000-06,MANEMP,0.0004328067585426254,7.377380452410089e-05,2000-09,gdp_growth,0.0003590329540185245,53.152273836771194,0.019083417888417494,labor_market,Labor market,labor
2000-07,2000Q3,2000-06,OILPRICEx,-0.010905959456461558,-0.10186774966030789,2000-09,gdp_growth,0.09096179020384634,-0.0715419526426416,-0.006507584087053476,prices_inflation,Prices & inflation,prices
2000-07,2000Q3,2000-06,PAYEMS,8.35894844914975e-05,0.001864828282628072,2000-09,gdp_growth,-0.0017812387981365747,123.61151317897941,-0.22018162317076864,labor_market,Labor market,labor
2000-07,2000Q3,2000-06,PERMIT,7.331714969726466,7.324246372464112,2000-09,gdp_growth,0.007468597262354832,-0.02603681933309191,-0.00019445851759155761,housing_construction,Housing & construction,housing
2000-07,2000Q3,2000-06,REALLN,-0.005126665956598941,-6.027230275494652e-05,2000-09,gdp_growth,-0.005066393653843994,9.030455550943728,-0.045751842694621576,financial_conditions,Financial conditions,financial
2000-07,2000Q3,2000-06,RETAILx,0.005212572584680331,0.006047527766734971,2000-09,gdp_growth,-0.0008349551820546402,6.005094729322338,-0.005013984962976693,demand_orders_inventories,Demand / orders / inventories,demand
2000-07,2000Q3,2000-06,T10YFFM,-0.42999999999999994,0.20894725675679637,2000-09,gdp_growth,-0.6389472567567962,0.4207962823566914,-0.26886663026526625,financial_conditions,Financial conditions,financial
2000-07,2000Q3,2000-06,TB3MS,-0.09999999999999964,0.1130521535770239,2000-09,gdp_growth,-0.21305215357702356,0.15838782057100667,-0.033744866273024164,financial_conditions,Financial conditions,financial
2000-07,2000Q3,2000-06,TWEXAFEGSMTHx,-0.026219303520430337,0.011029723963767613,2000-09,gdp_growth,-0.03724902748419795,0.4316214401078423,-0.01607747888534612,financial_conditions,Financial conditions,financial
2000-07,2000Q3,2000-06,UEMPMEAN,-0.1999999999999993,-0.03550299030164688,2000-09,gdp_growth,-0.1644970096983524,0.09094054987989193,-0.014959448515566083,labor_market,Labor market,labor
2000-07,2000Q3,2000-06,UNRATE,-0.09999999999999966,-0.06478981367501596,2000-09,gdp_growth,-0.0352101863249837,-0.8149049225234978,0.02869295415919876,labor_market,Labor market,labor
2000-07,2000Q3,2000-06,WPSFD49207,0.005809747641321472,-0.0012351199195471283,2000-09,gdp_growth,0.0070448675608686005,-2.4865520201424887,-0.017517429665114104,prices_inflation,Prices & inflation,prices
2000-08,2000Q3,2000-05,CMRMTSPLx,0.0082235111683886,0.0042678567957272154,2000-09,gdp_growth,0.003955654372661383,4.719374403487047,0.018668213995379743,demand_orders_inventories,Demand / orders / inventories,demand
2000-08,2000Q3,2000-06,BUSINVx,0.008842833074629297,0.008694688572622695,2000-09,gdp_growth,0.0001481445020066022,5.101908325418336,0.0007558196681524372,demand_orders_inventories,Demand / orders / inventories,demand
2000-08,2000Q3,2000-06,CMRMTSPLx,0.0065017670130540495,-0.0019648472024338345,2000-09,gdp_growth,0.008466614215487884,6.078577565465651,0.051464971225717214,demand_orders_inventories,Demand / orders / inventories,demand
2000-08,2000Q3,2000-06,ISRATIOx,0.0,0.008568683309688286,2000-09,gdp_growth,-0.008568683309688286,-2.506157981240512,0.021474474065297663,demand_orders_inventories,Demand / orders / inventories,demand
2000-08,2000Q3,2000-06,NONREVSL,0.0005113159048102389,-0.003601479772862789,2000-09,gdp_growth,0.004112795677673028,1.5675462832786122,0.006446997578420696,financial_conditions,Financial conditions,financial
2000-08,2000Q3,2000-06,RPI,0.0014043119879953991,0.0030157805102768863,2000-09,gdp_growth,-0.0016114685222814874,26.048196629924966,-0.04197584893132281,real_activity_income,Real activity & income,real_activity
2000-08,2000Q3,2000-06,W875RX1,0.0034373539344478843,0.0033948672387107493,2000-09,gdp_growth,4.248669573713523e-05,30.49322504173089,0.001295556374392013,real_activity_income,Real activity & income,real_activity
2000-08,2000Q3,2000-06,gdp_growth,5.0593628237917585,4.401839047485785,2000-09,gdp_growth,0.6575237763059738,-0.07510453312328627,-0.049383016236920284,,,
2000-08,2000Q3,2000-07,AMDMNOx,-0.13247063773541967,-0.02550843715417818,2000-09,gdp_growth,-0.10696220058124148,2.705540592120041,-0.28939057549503466,demand_orders_inventories,Demand / orders / inventories,demand
2000-08,2000Q3,2000-07,AMDMUOx,-0.0032264132731523176,0.02605988233190943,2000-09,gdp_growth,-0.02928629560506174,4.6688607398425725,-0.13673363576589684,demand_orders_inventories,Demand / orders / inventories,demand
2000-08,2000Q3,2000-07,ANDENOx,-0.1301561113717824,-0.058550405296536066,2000-09,gdp_growth,-0.07160570607524631,0.4527275478842378,-0.03241787572596573,demand_orders_inventories,Demand / orders / inventories,demand
2000-08,2000Q3,2000-07,AWHMAN,41.7,41.55104494061131,2000-09,gdp_growth,0.14895505938869022,0.14822354686631525,0.022078647226274298,labor_market,Labor market,labor
2000-08,2000Q3,2000-07,BAA,-0.13000000000000078,-0.14516663797762847,2000-09,gdp_growth,0.015166637977627706,0.12970901744249283,0.001967249709984086,financial_conditions,Financial conditions,financial
2000-08,2000Q3,2000-07,BAAFFM,1.81,2.015788148883278,2000-09,gdp_growth,-0.20578814888327757,-0.050653457853389636,0.010423881326186171,financial_conditions,Financial conditions,financial
2000-08,2000Q3,2000-07,BUSLOANS,-0.0015491271696213005,0.0029519905637694767,2000-09,gdp_growth,-0.004501117733390778,1.794367189560874,-0.00807665797714702,financial_conditions,Financial conditions,financial
2000-08,2000Q3,2000-07,CES3000000008,-0.004197752831581525,-0.0032688238008153994,2000-09,gdp_growth,-0.0009289290307661248,6.564379085676964,-0.006097842301639322,labor_market,Labor market,labor
2000-08,2000Q3,2000-07,CLAIMSx,-0.023451661035049476,-0.010487785182172618,2000-09,gdp_growth,-0.012963875852876856,-3.0343419323573286,0.03933683210625887,labor_market,Labor market,labor
2000-08,2000Q3,2000-07,CLF16OV,-0.0025821518752024986,0.001331265996295456,2000-09,gdp_growth,-0.003913417871497955,5.401132936758274,-0.021136890161046064,labor_market,Labor market,labor
2000-08,2000Q3,2000-07,CPIAUCSL,-0.0035018965850603934,-0.00200389137434538,2000-09,gdp_growth,-0.0014980052107150133,7.614165339988401,-0.011406059354548276,prices_inflation,Prices & inflation,prices
2000-08,2000Q3,2000-07,CPIULFSL,-0.004646079885193721,-0.002693226321462529,2000-09,gdp_growth,-0.0019528535637311929,4.323881786244193,-0.008443907955419369,prices_inflation,Prices & inflation,prices
2000-08,2000Q3,2000-07,CUMFNS,0.19999999999998863,-0.031296555451045635,2000-09,gdp_growth,0.2312965554510343,-0.07139695505076543,-0.01651386977293437,real_activity_income,Real activity & income,real_activity
2000-08,2000Q3,2000-07,CUSR0000SAC,-0.005365986189062255,-0.002789734824903568,2000-09,gdp_growth,-0.0025762513641586866,-3.319687246342312,0.008552348796969575,prices_inflation,Prices & inflation,prices
2000-08,2000Q3,2000-07,CUSR0000SAS,-0.0005321795616710645,-0.0006365536643587689,2000-09,gdp_growth,0.0001043741026877045,7.752397521839399,0.0008091495350203713,prices_inflation,Prices & inflation,prices
2000-08,2000Q3,2000-07,FEDFUNDS,0.009999999999999787,0.2172746248233769,2000-09,gdp_growth,-0.2072746248233771,0.1176154233515275,-0.02437869274863053,financial_conditions,Financial conditions,financial
2000-08,2000Q3,2000-07,GS10,-0.04999999999999983,-0.06182046055630529,2000-09,gdp_growth,0.011820460556305465,0.11460096652050988,0.0013546362044701702,financial_conditions,Financial conditions,financial
2000-08,2000Q3,2000-07,HOUST,7.321188556739478,7.343311927784711,2000-09,gdp_growth,-0.022123371045233545,1.6479866235361715,-0.03645901955007233,housing_construction,Housing & construction,housing
2000-08,2000Q3,2000-07,HOUSTMW,5.771441123130016,5.689939636854085,2000-09,gdp_growth,0.08150148627593118,0.18052070021341302,0.014712705370964968,housing_construction,Housing & construction,housing
2000-08,2000Q3,2000-07,HOUSTNE,4.941642422609304,4.9847889001287236,2000-09,gdp_growth,-0.04314647751941956,0.026314275889280533,-0.0011353683130966466,housing_construction,Housing & construction,housing
2000-08,2000Q3,2000-07,HOUSTS,6.489204931325317,6.610431058472074,2000-09,gdp_growth,-0.1212261271467563,-0.1778594978688415,0.021561218102906413,housing_construction,Housing & construction,housing
2000-08,2000Q3,2000-07,HOUSTW,5.973809611869261,5.905205211596052,2000-09,gdp_growth,0.06860440027320887,-0.15054624876530184,-0.010328135109924844,housing_construction,Housing & construction,housing
2000-08,2000Q3,2000-07,INDPRO,0.003702163131762859,0.003381605804193973,2000-09,gdp_growth,0.00032055732756888577,0.8624992167465267,0.00027648044395052376,real_activity_income,Real activity & income,real_activity
2000-08,2000Q3,2000-07,IPCONGD,-0.005016442931145448,0.0024542702036760874,2000-09,gdp_growth,-0.007470713134821536,-10.167886071209116,0.07596136002555089,real_activity_income,Real activity & income,real_activity
2000-08,2000Q3,2000-07,IPFINAL,0.0034860089054307153,0.0027628313854333978,2000-09,gdp_growth,0.0007231775199973176,-6.09401572787931,-0.004407055180912408,real_activity_income,Real activity & income,real_activity
2000-08,2000Q3,2000-07,IPMANSICS,0.0053984451836672775,0.0033462619003000837,2000-09,gdp_growth,0.002052183283367194,84.9484829276343,0.17432985661149458,real_activity_income,Real activity & income,real_activity
2000-08,2000Q3,2000-07,MANEMP,0.0024844733276623288,-0.00010616111490738332,2000-09,gdp_growth,0.0025906344425697123,38.34886264521052,0.09934788440205741,labor_market,Labor market,labor
2000-08,2000Q3,2000-07,OILPRICEx,-0.16763660610109632,0.006232706012275483,2000-09,gdp_growth,-0.1738693121133718,-0.05676374383010766,0.009869473092720472,prices_inflation,Prices & inflation,prices
2000-08,2000Q3,2000-07,PAYEMS,-0.0008208808207648135,0.002306057268479116,2000-09,gdp_growth,-0.0031269380892439296,89.94312492223033,-0.28124658318494694,labor_market,Labor market,labor
2000-08,2000Q3,2000-07,PERMIT,7.32052696227274,7.303533137779035,2000-09,gdp_growth,0.01699382449370443,-0.01382566746563834,-0.00023495096641937727,housing_construction,Housing & construction,housing
2000-08,2000Q3,2000-07,REALLN,-0.000716468182655916,0.0014090091070894802,2000-09,gdp_growth,-0.0021254772897453963,7.094069881824779,-0.015078284425685375,financial_conditions,Financial conditions,financial
2000-08,2000Q3,2000-07,RETAILx,0.007423476364445847,0.005868976616618061,2000-09,gdp_growth,0.001554499747827786,4.552914521190096,0.007077504475071469,demand_orders_inventories,Demand / orders / inventories,demand
2000-08,2000Q3,2000-07,RPI,0.000506628398914799,0.003042919370941694,2000-09,gdp_growth,-0.002536290972026895,30.7194916927399,-0.0779135694455514,real_activity_income,Real activity & income,real_activity
2000-08,2000Q3,2000-07,T10YFFM,-0.49,-0.3587631028782712,2000-09,gdp_growth,-0.13123689712172878,0.2510391717059409,-0.032945601950696575,financial_conditions,Financial conditions,financial
2000-08,2000Q3,2000-07,TB3MS,0.2699999999999996,0.06427948759895373,2000-09,gdp_growth,0.20572051240104583,0.11072173967978224,0.02277773302086001,financial_conditions,Financial conditions,financial
2000-08,2000Q3,2000-07,TWEXAFEGSMTHx,0.00905542306416418,-0.007584766704479441,2000-09,gdp_growth,0.01664018976864362,0.27344454690727926,0.004550169151737899,financial_conditions,Financial conditions,financial
2000-08,2000Q3,2000-07,UEMPMEAN,0.9000000000000004,0.07764656536239598,2000-09,gdp_growth,0.8223534346376044,0.08178437845308123,0.06725566452059303,labor_market,Labor market,labor
2000-08,2000Q3,2000-07,UNRATE,0.0,0.02451807702816354,2000-09,gdp_growth,-0.02451807702816354,-0.6404055581068799,0.015701512802928544,labor_market,Labor market,labor
2000-08,2000Q3,2000-07,W875RX1,0.0007009642273292371,0.002363568609341996,2000-09,gdp_growth,-0.001662604382012759,34.350941612884846,-0.05711202605184677,real_activity_income,Real activity & income,real_activity
2000-08,2000Q3,2000-07,WPSFD49207,-0.005809747641321472,-0.0020479763510588378,2000-09,gdp_growth,-0.003761771290262635,-2.0325758061927686,0.007646085313018386,prices_inflation,Prices & inflation,prices
2000-09,2000Q3,2000-07,BUSINVx,0.00242948338017257,0.004796709887665069,2000-09,gdp_growth,-0.0023672265074924986,3.9420111224663175,-0.009331633221932525,demand_orders_inventories,Demand / orders / inventories,demand
2000-09,2000Q3,2000-07,ISRATIOx,0.010000000000000009,-0.002206683701677973,2000-09,gdp_growth,0.01220668370167798,-4.773010355008021,-0.05826262770841665,demand_orders_inventories,Demand / orders / inventories,demand
2000-09,2000Q3,2000-07,NONREVSL,-0.004069602651281201,-0.004473365189351376,2000-09,gdp_growth,0.0004037625380701743,1.9091472136242467,0.000770842124522527,financial_conditions,Financial conditions,financial
2000-09,2000Q3,2000-08,AMDMNOx,0.02880791008823813,0.05888529859728713,2000-09,gdp_growth,-0.030077388509048997,1.893938254459988,-0.05696471669154316,demand_orders_inventories,Demand / orders / inventories,demand
2000-09,2000Q3,2000-08,AMDMUOx,0.0025422550681177825,0.0005701640903365427,2000-09,gdp_growth,0.0019720909777812393,1.9170235475578923,0.003780544842333104,demand_orders_inventories,Demand / orders / inventories,demand
2000-09,2000Q3,2000-08,ANDENOx,0.05435866117553089,0.061398901175648925,2000-09,gdp_growth,-0.007040240000118033,0.31349244696224865,-0.002207062064838504,demand_orders_inventories,Demand / orders / inventories,demand
2000-09,2000Q3,2000-08,AWHMAN,41.3,41.662255448901064,2000-09,gdp_growth,-0.3622554489010678,0.018629906985955052,-0.006748785318182286,labor_market,Labor market,labor
2000-09,2000Q3,2000-08,BAA,-0.08999999999999986,-0.015151882556226522,2000-09,gdp_growth,-0.07484811744377333,0.0506915115792835,-0.0037941642120886067,financial_conditions,Financial conditions,financial
2000-09,2000Q3,2000-08,BAAFFM,1.76,1.8966721482927782,2000-09,gdp_growth,-0.1366721482927782,0.015796298635665142,-0.0021589140696106363,financial_conditions,Financial conditions,financial
2000-09,2000Q3,2000-08,BUSLOANS,0.002464473413794188,0.0006750137695971943,2000-09,gdp_growth,0.0017894596441969937,1.17938415531352,0.0021104603509389036,financial_conditions,Financial conditions,financial
2000-09,2000Q3,2000-08,CES3000000008,0.001381655286205152,0.0020345390219267674,2000-09,gdp_growth,-0.0006528837357216153,5.401886697450244,-0.0035268039669762146,labor_market,Labor market,labor
2000-09,2000Q3,2000-08,CLAIMSx,0.05922783420033274,0.008424327530845963,2000-09,gdp_growth,0.05080350666948677,-2.295868552413908,-0.11663817331482491,labor_market,Labor market,labor
2000-09,2000Q3,2000-08,CLF16OV,0.002440057979317345,0.0024069518469024137,2000-09,gdp_growth,3.310613241493126e-05,4.8073189006251,0.00015915173608489633,labor_market,Labor market,labor
2000-09,2000Q3,2000-08,CPIAUCSL,-0.002896369357685557,0.0010832239301935699,2000-09,gdp_growth,-0.003979593287879127,6.784976476364773,-0.02700144684375902,prices_inflation,Prices & inflation,prices
2000-09,2000Q3,2000-08,CPIULFSL,-0.0023084697891588846,0.0019696471992444167,2000-09,gdp_growth,-0.0042781169884033,4.031197407380755,-0.017245934112122947,prices_inflation,Prices & inflation,prices
2000-09,2000Q3,2000-08,CUMFNS,-0.20000000000000284,-0.20022182668251512,2000-09,gdp_growth,0.00022182668251227613,-0.045035285819969885,-9.99002804943607e-06,real_activity_income,Real activity & income,real_activity
2000-09,2000Q3,2000-08,CUSR0000SAC,-0.00535521136532946,0.0022703157247667438,2000-09,gdp_growth,-0.007625527090096204,-1.3551082317473808,0.010333414531202017,prices_inflation,Prices & inflation,prices
2000-09,2000Q3,2000-08,CUSR0000SAS,-0.0015430063515591288,-4.948763223752125e-05,2000-09,gdp_growth,-0.0014935187193216076,5.967965527679261,-0.008913268231855032,prices_inflation,Prices & inflation,prices
2000-09,2000Q3,2000-08,DDURRG3M086SBEA,-0.0025199487359683914,-0.0012857792123724383,2000-09,gdp_growth,-0.0012341695235959529,1.5840476247710522,-0.0019549833024169903,prices_inflation,Prices & inflation,prices
2000-09,2000Q3,2000-08,DSERRG3M086SBEA,-0.0007296290511087378,-0.0006034833266512553,2000-09,gdp_growth,-0.00012614572445748243,-6.640393111562573,0.0008376571997405367,prices_inflation,Prices & inflation,prices
2000-09,2000Q3,2000-08,FEDFUNDS,-0.040000000000000036,0.08991203145064096,2000-09,gdp_growth,-0.12991203145064098,0.05489045420413623,-0.007130930412907714,financial_conditions,Financial conditions,financial
2000-09,2000Q3,2000-08,GS10,-0.21999999999999972,0.03808353562341924,2000-09,gdp_growth,-0.258083535623419,0.05294549922252071,-0.013664361634695128,financial_conditions,Financial conditions,financial
2000-09,2000Q3,2000-08,HOUST,7.333676395657684,7.328396870383671,2000-09,gdp_growth,0.005279525274013426,0.4403926613450267,0.002325064186061104,housing_construction,Housing & construction,housing
2000-09,2000Q3,2000-08,HOUSTMW,5.717027701406222,5.773232851859102,2000-09,gdp_growth,-0.056205150452879486,0.05210820571252454,-0.002928749541902036,housing_construction,Housing & construction,housing
2000-09,2000Q3,2000-08,HOUSTNE,4.976733742420574,5.013497729040182,2000-09,gdp_growth,-0.03676398661960831,0.01364668992763478,-0.0005017067259015085,housing_construction,Housing & construction,housing
2000-09,2000Q3,2000-08,HOUSTS,6.568077911411976,6.505267564709879,2000-09,gdp_growth,0.06281034670209698,-0.0607362517237332,-0.003814865028153518,housing_construction,Housing & construction,housing
2000-09,2000Q3,2000-08,HOUSTW,5.91350300563827,5.9646736569600085,2000-09,gdp_growth,-0.05117065132173895,-0.05075556594768226,0.002597195367746376,housing_construction,Housing & construction,housing
2000-09,2000Q3,2000-08,INDPRO,0.0032589891609822175,0.00121441101242279,2000-09,gdp_growth,0.0020445781485594274,0.014567221774963456,2.9783823326309357e-05,real_activity_income,Real activity & income,real_activity
2000-09,2000Q3,2000-08,IPCONGD,0.005055762843725553,0.000667704264384785,2000-09,gdp_growth,0.004388058579340768,-6.7925558565828945,-0.02980613300212995,real_activity_income,Real activity & income,real_activity
2000-09,2000Q3,2000-08,IPFINAL,0.003910255424572462,0.001401452996708883,2000-09,gdp_growth,0.002508802427863579,-4.124142523379733,-0.010346658775510501,real_activity_income,Real activity & income,real_activity
2000-09,2000Q3,2000-08,IPMANSICS,0.0009256933442474136,0.0010470131797993953,2000-09,gdp_growth,-0.00012131983555198167,59.19419231942676,-0.007181429677825231,real_activity_income,Real activity & income,real_activity
2000-09,2000Q3,2000-08,MANEMP,-0.004269238292868849,-0.0018349156514306947,2000-09,gdp_growth,-0.002434322641438155,22.4591393387376,-0.05467279139950329,labor_market,Labor market,labor
2000-09,2000Q3,2000-08,OILPRICEx,0.11446580632591764,0.06322726211151622,2000-09,gdp_growth,0.051238544214401424,-0.02522859335139328,-0.0012926763959025184,prices_inflation,Prices & inflation,prices
2000-09,2000Q3,2000-08,PAYEMS,-0.0007982150815131206,0.0017499867349074392,2000-09,gdp_growth,-0.00254820181642056,54.450713537338096,-0.1387514071412405,labor_market,Labor market,labor
2000-09,2000Q3,2000-08,PCEPI,-0.002326989461628237,-7.068311904158925e-05,2000-09,gdp_growth,-0.002256306342586648,-3.143651894099233,0.007093041707540629,prices_inflation,Prices & inflation,prices
2000-09,2000Q3,2000-08,PERMIT,7.303843225277705,7.28813879778758,2000-09,gdp_growth,0.01570442749012452,-0.04825027896443213,-0.0007577430073752049,housing_construction,Housing & construction,housing
2000-09,2000Q3,2000-08,REALLN,-0.0035389920118831237,-7.26421364311006e-05,2000-09,gdp_growth,-0.003466349875452023,5.264632552300488,-0.01824905839196746,financial_conditions,Financial conditions,financial
2000-09,2000Q3,2000-08,RETAILx,0.0016791065933592364,0.003457006338554506,2000-09,gdp_growth,-0.0017778997451952693,2.7902671644139785,-0.004960815280638339,demand_orders_inventories,Demand / orders / inventories,demand
2000-09,2000Q3,2000-08,RPI,0.0041106041516023595,0.002922038621158004,2000-09,gdp_growth,0.0011885655304443555,21.798797185979776,0.025909298940402975,real_activity_income,Real activity & income,real_activity
2000-09,2000Q3,2000-08,T10YFFM,-0.67,-0.3896978899556064,2000-09,gdp_growth,-0.2803021100443936,0.048404556850083734,-0.013567899420842277,financial_conditions,Financial conditions,financial
2000-09,2000Q3,2000-08,TB3MS,0.1299999999999999,0.19023850316996754,2000-09,gdp_growth,-0.060238503169967636,0.051952496188247224,-0.003129540606323462,financial_conditions,Financial conditions,financial
2000-09,2000Q3,2000-08,TWEXAFEGSMTHx,0.015037877364540542,0.004309997190300104,2000-09,gdp_growth,0.010727880174240438,0.07889427426385243,0.0008463683207362701,financial_conditions,Financial conditions,financial
2000-09,2000Q3,2000-08,UEMPMEAN,-0.3000000000000007,-0.22480241517608096,2000-09,gdp_growth,-0.07519758482391971,0.06531920223291182,-0.004911846250540152,labor_market,Labor market,labor
2000-09,2000Q3,2000-08,UNRATE,0.09999999999999963,0.03657627874208982,2000-09,gdp_growth,0.06342372125790982,-0.4426819854045548,-0.028076538848196587,labor_market,Labor market,labor
2000-09,2000Q3,2000-08,W875RX1,0.003961165042701609,0.0022298670497781386,2000-09,gdp_growth,0.00173129799292347,24.846630853926595,0.04301692212831348,real_activity_income,Real activity & income,real_activity
2000-09,2000Q3,2000-08,WPSFD49207,-0.002174701835688353,0.002452621332306191,2000-09,gdp_growth,-0.0046273231679945445,-1.1490039807609258,0.00531681274029299,prices_inflation,Prices & inflation,prices
2000-10,2000Q4,2000-07,CMRMTSPLx,-0.003167889093244725,-0.0020499406006693186,2000-12,gdp_growth,-0.0011179484925754064,1.7775642541154506,-0.0019872252783442947,demand_orders_inventories,Demand / orders / inventories,demand
2000-10,2000Q4,2000-08,BUSINVx,0.007373903612393207,0.005633355587179097,2000-12,gdp_growth,0.00174054802521411,3.9868138334902645,0.006939240944777776,demand_orders_inventories,Demand / orders / inventories,demand
2000-10,2000Q4,2000-08,CMRMTSPLx,0.008577187347178494,-0.003358728214279637,2000-12,gdp_growth,0.011935915561458132,2.8357545939960374,0.03384732738695369,demand_orders_inventories,Demand / orders / inventories,demand
2000-10,2000Q4,2000-08,ISRATIOx,0.010000000000000007,0.009259150304706795,2000-12,gdp_growth,0.0007408496952932129,-1.5996308892054552,-0.0011850860568494727,demand_orders_inventories,Demand / orders / inventories,demand
2000-10,2000Q4,2000-08,NONREVSL,0.0010319519192867332,0.0020026376780434346,2000-12,gdp_growth,-0.0009706857587567013,1.0881279320173298,-0.001056230287314602,financial_conditions,Financial conditions,financial
2000-10,2000Q4,2000-09,AMDMNOx,0.017401984827138506,-0.018207751440471813,2000-12,gdp_growth,0.03560973626761032,2.734863613834139,0.09738777201651735,demand_orders_inventories,Demand / orders / inventories,demand
2000-10,2000Q4,2000-09,AMDMUOx,0.011727095342330074,0.003890580130525393,2000-12,gdp_growth,0.00783651521180468,6.683552238853303,0.052375758788665135,demand_orders_inventories,Demand / orders / inventories,demand
2000-10,2000Q4,2000-09,ANDENOx,0.025824887086148607,-0.026475620356233992,2000-12,gdp_growth,0.052300507442382606,0.44007656563216946,0.023016227696063457,demand_orders_inventories,Demand / orders / inventories,demand
2000-10,2000Q4,2000-09,AWHMAN,41.2,41.310736300453506,2000-12,gdp_growth,-0.1107363004535041,0.21032083494099718,-0.02329015116965811,labor_market,Labor market,labor
2000-10,2000Q4,2000-09,BAA,0.08999999999999986,-0.002862269311931438,2000-12,gdp_growth,0.0928622693119313,0.15928095012458562,0.014791190486729567,financial_conditions,Financial conditions,financial
2000-10,2000Q4,2000-09,BAAFFM,1.83,1.857346541718806,2000-12,gdp_growth,-0.027346541718805992,-0.1046588544344847,0.002862057729035079,financial_conditions,Financial conditions,financial
2000-10,2000Q4,2000-09,BUSLOANS,-0.007528422389100342,-0.0006039660765279474,2000-12,gdp_growth,-0.006924456312572395,1.8756860362466232,-0.012988106014091824,financial_conditions,Financial conditions,financial
2000-10,2000Q4,2000-09,CES3000000008,-0.0034686125654035393,-0.0010795230196390976,2000-12,gdp_growth,-0.0023890895457644415,6.911891181802332,-0.016513126963905382,labor_market,Labor market,labor
2000-10,2000Q4,2000-09,CLAIMSx,-0.019355442952956103,-0.0034660742014442137,2000-12,gdp_growth,-0.015889368751511892,-3.150838721801572,0.05006483832724757,labor_market,Labor market,labor
2000-10,2000Q4,2000-09,CLF16OV,-0.000732103479625934,0.0008946975329416622,2000-12,gdp_growth,-0.0016268010125675963,7.415323380965065,-0.012063255584670139,labor_market,Labor market,labor
2000-10,2000Q4,2000-09,CPIAUCSL,0.005776688290940689,0.0008444983785698199,2000-12,gdp_growth,0.00493218991237087,9.202307338500987,0.045387527425490994,prices_inflation,Prices & inflation,prices
2000-10,2000Q4,2000-09,CPIULFSL,0.005756735321722496,0.0006171939641557045,2000-12,gdp_growth,0.0051395413575667905,5.591802716541864,0.028739301325021237,prices_inflation,Prices & inflation,prices
2000-10,2000Q4,2000-09,CUMFNS,-0.0999999999999943,-0.4270701101687195,2000-12,gdp_growth,0.32707011016872517,-0.1291897276684644,-0.042254098461192255,real_activity_income,Real activity & income,real_activity
2000-10,2000Q4,2000-09,CUSR0000SAC,0.01337397629359316,0.0019908868757360127,2000-12,gdp_growth,0.011383089417857147,-1.623677148598816,-0.01848246216823165,prices_inflation,Prices & inflation,prices
2000-10,2000Q4,2000-09,CUSR0000SAS,-6.481245155676163e-06,0.0002950960784807503,2000-12,gdp_growth,-0.00030157732363642644,7.945473188350834,-0.0023961745391678285,prices_inflation,Prices & inflation,prices
2000-10,2000Q4,2000-09,DDURRG3M086SBEA,0.0033925680214119676,0.0008638820779582791,2000-12,gdp_growth,0.0025286859434536886,2.1398537785166654,0.005411018170781354,prices_inflation,Prices & inflation,prices
2000-10,2000Q4,2000-09,DSERRG3M086SBEA,-0.0009936389586107097,0.00014480475332603987,2000-12,gdp_growth,-0.0011384437119367496,-8.884469951106858,0.010114468949728605,prices_inflation,Prices & inflation,prices
2000-10,2000Q4,2000-09,FEDFUNDS,0.019999999999999574,0.034711029437801064,2000-12,gdp_growth,-0.01471102943780149,0.14055870410845855,-0.002067763233878763,financial_conditions,Financial conditions,financial
2000-10,2000Q4,2000-09,GS10,-0.030000000000000252,-0.0387998653462296,2000-12,gdp_growth,0.008799865346229355,0.13594700054148362,0.0011963152989888251,financial_conditions,Financial conditions,financial
2000-10,2000Q4,2000-09,HOUST,7.333023014386481,7.333927247509241,2000-12,gdp_growth,-0.0009042331227596767,2.4921094422458494,-0.0022534479032208406,housing_construction,Housing & construction,housing
2000-10,2000Q4,2000-09,HOUSTMW,5.69035945432406,5.7306170396676865,2000-12,gdp_growth,-0.04025758534362636,0.25036242268583186,-0.010078986598111933,housing_construction,Housing & construction,housing
2000-10,2000Q4,2000-09,HOUSTNE,5.075173815233827,5.04785084314604,2000-12,gdp_growth,0.027322972087787264,0.06698092797133308,0.001830118025374823,housing_construction,Housing & construction,housing
2000-10,2000Q4,2000-09,HOUSTS,6.508769136971682,6.549759887124133,2000-12,gdp_growth,-0.040990750152450815,-0.3041964240461448,0.012469239615344501,housing_construction,Housing & construction,housing
2000-10,2000Q4,2000-09,HOUSTW,5.998936561946683,5.932686852636296,2000-12,gdp_growth,0.06624970931038669,-0.20162374774740988,-0.013357514678336638,housing_construction,Housing & construction,housing
2000-10,2000Q4,2000-09,INDPRO,0.002414532260139879,-0.00208752073031805,2000-12,gdp_growth,0.004502052990457929,0.492744403556209,0.002218361415561639,real_activity_income,Real activity & income,real_activity
2000-10,2000Q4,2000-09,IPCONGD,0.00788488697941947,-0.00199084526699502,2000-12,gdp_growth,0.00987573224641449,-11.455121263643338,-0.1131277104499508,real_activity_income,Real activity & income,real_activity
2000-10,2000Q4,2000-09,IPFINAL,0.003643477871393408,-0.0014562209878191054,2000-12,gdp_growth,0.005099698859212513,-7.2201388262703485,-0.036820533735686875,real_activity_income,Real activity & income,real_activity
2000-10,2000Q4,2000-09,IPMANSICS,0.002896535092791197,-0.0019462302458554737,2000-12,gdp_growth,0.004842765338646671,94.64793564671511,0.45835774212437264,real_activity_income,Real activity & income,real_activity
2000-10,2000Q4,2000-09,MANEMP,-0.003587350297854286,-0.002329757906727234,2000-12,gdp_growth,-0.0012575923911270518,46.08662934094829,-0.057958194391869305,labor_market,Labor market,labor
2000-10,2000Q4,2000-09,OILPRICEx,0.03420821463696688,-0.04581813525140016,2000-12,gdp_growth,0.08002634988836703,-0.034344833468829716,-0.002748491660034265,prices_inflation,Prices & inflation,prices
2000-10,2000Q4,2000-09,PAYEMS,0.0019142832603122883,0.0005812123561277,2000-12,gdp_growth,0.0013330709041845883,104.72500362690715,0.13960585527565542,labor_market,Labor market,labor
2000-10,2000Q4,2000-09,PCEPI,0.00380386475750516,0.0007489148768822317,2000-12,gdp_growth,0.003054949880622928,-4.206057596201338,-0.012849295151408435,prices_inflation,Prices & inflation,prices
2000-10,2000Q4,2000-09,PERMIT,7.325148957955575,7.297089652659491,2000-12,gdp_growth,0.028059305296084174,-0.11415098865722907,-0.0032029974405830323,housing_construction,Housing & construction,housing
2000-10,2000Q4,2000-09,REALLN,0.0012599353666606916,0.0008114001195284017,2000-12,gdp_growth,0.00044853524713228985,7.472540805873508,0.0033516979370685944,financial_conditions,Financial conditions,financial
2000-10,2000Q4,2000-09,RETAILx,0.008759620127761991,0.00379243926913569,2000-12,gdp_growth,0.004967180858626301,4.821734886061439,0.023950429231415046,demand_orders_inventories,Demand / orders / inventories,demand
2000-10,2000Q4,2000-09,RPI,0.006868194201368638,0.0009644715156738436,2000-12,gdp_growth,0.005903722685694794,31.241308480038843,0.18444002160439443,real_activity_income,Real activity & income,real_activity
2000-10,2000Q4,2000-09,T10YFFM,-0.7200000000000001,-0.5446610845507266,2000-12,gdp_growth,-0.17533891544927344,0.3632789708616543,-0.06369694075641066,financial_conditions,Financial conditions,financial
2000-10,2000Q4,2000-09,TB3MS,-0.08999999999999986,0.10630836701837111,2000-12,gdp_growth,-0.19630836701837098,0.13061810230154716,-0.025641426365855247,financial_conditions,Financial conditions,financial
2000-10,2000Q4,2000-09,TWEXAFEGSMTHx,0.016006744317420107,0.006021355567859431,2000-12,gdp_growth,0.009985388749560677,0.30636973127128,0.003059220867842167,financial_conditions,Financial conditions,financial
2000-10,2000Q4,2000-09,UEMPMEAN,-1.0999999999999996,0.19326186063114267,2000-12,gdp_growth,-1.2932618606311423,0.06711087319462551,-0.08679193273626204,labor_market,Labor market,labor
2000-10,2000Q4,2000-09,UNRATE,-0.19999999999999973,0.05784233675001289,2000-12,gdp_growth,-0.2578423367500126,-0.6733937668851045,0.1736294224065486,labor_market,Labor market,labor
2000-10,2000Q4,2000-09,W875RX1,0.00793900904195688,1.8469290689813057e-05,2000-12,gdp_growth,0.007920539751267067,35.03855250127371,0.2775242479131966,real_activity_income,Real activity & income,real_activity
2000-10,2000Q4,2000-09,WPSFD49207,0.010845276386821645,0.0005774463115297072,2000-12,gdp_growth,0.010267830075291938,-1.5267854615619192,-0.015676773680743956,prices_inflation,Prices & inflation,prices
2000-11,2000Q4,2000-09,BUSINVx,0.0008705277191012328,0.005381967415384433,2000-12,gdp_growth,-0.0045114396962832,4.204332344802769,-0.01896759183671064,demand_orders_inventories,Demand / orders / inventories,demand
2000-11,2000Q4,2000-09,ISRATIOx,-0.010000000000000009,-0.0026867718743208827,2000-12,gdp_growth,-0.007313228125679126,-3.9392755660062764,0.028808820864117658,demand_orders_inventories,Demand / orders / inventories,demand
2000-11,2000Q4,2000-09,NONREVSL,-0.003493632191815088,-0.001948580290345602,2000-12,gdp_growth,-0.001545051901469486,1.6560261230900062,-0.002558646310363355,financial_conditions,Financial conditions,financial
2000-11,2000Q4,2000-09,gdp_growth,2.7078724458171086,2.6583478715166025,2000-12,gdp_growth,0.04952457430050603,-0.0757349519065498,-0.0037507412528411765,,,
2000-11,2000Q4,2000-10,AMDMNOx,-0.0560930332592573,-0.0015995058512922175,2000-12,gdp_growth,-0.05449352740796508,2.668967364714871,-0.14544144624005415,demand_orders_inventories,Demand / orders / inventories,demand
2000-11,2000Q4,2000-10,AMDMUOx,-0.006106426603412984,0.009617474844890141,2000-12,gdp_growth,-0.015723901448303126,5.261312110189095,-0.0827283531093771,demand_orders_inventories,Demand / orders / inventories,demand
2000-11,2000Q4,2000-10,ANDENOx,-0.12046448232082518,-0.014565689311464791,2000-12,gdp_growth,-0.10589879300936036,0.43631337427216377,-0.046205059709263446,demand_orders_inventories,Demand / orders / inventories,demand
2000-11,2000Q4,2000-10,AWHMAN,41.3,41.1944050690269,2000-12,gdp_growth,0.10559493097310113,0.1411510882232843,0.014904839417715813,labor_market,Labor market,labor
2000-11,2000Q4,2000-10,BAA,-0.009999999999999789,0.0878590722514782,2000-12,gdp_growth,-0.097859072251478,0.1256288328913762,-0.012293921034786038,financial_conditions,Financial conditions,financial
2000-11,2000Q4,2000-10,BAAFFM,1.83,1.9047203192226871,2000-12,gdp_growth,-0.074720319222687,-0.057394875213965205,0.004288563397733766,financial_conditions,Financial conditions,financial
2000-11,2000Q4,2000-10,BUSLOANS,-0.0009259345591203781,0.001956753972530537,2000-12,gdp_growth,-0.002882688531650915,1.7053197785313965,-0.004915905768369935,financial_conditions,Financial conditions,financial
2000-11,2000Q4,2000-10,CES3000000008,0.008292586654365053,0.001998169586909722,2000-12,gdp_growth,0.0062944170674553305,7.039480241702155,0.044309424579384624,labor_market,Labor market,labor
2000-11,2000Q4,2000-10,CLAIMSx,0.019355442952956103,-0.010076684004077498,2000-12,gdp_growth,0.029432126957033605,-3.114930247614562,-0.09167902251009591,labor_market,Labor market,labor
2000-11,2000Q4,2000-10,CLF16OV,0.0019818373637914277,0.0020174217311443535,2000-12,gdp_growth,-3.558436735292589e-05,7.171183008291159,-0.00025518201052209276,labor_market,Labor market,labor
2000-11,2000Q4,2000-10,CPIAUCSL,-0.003471197939630244,-0.0020774889750152627,2000-12,gdp_growth,-0.001393708964614981,9.254470651516067,-0.012898038709784187,prices_inflation,Prices & inflation,prices
2000-11,2000Q4,2000-10,CPIULFSL,-0.00345919047276233,-0.0021886494201858483,2000-12,gdp_growth,-0.0012705410525764818,5.629909344565742,-0.007153030944554728,prices_inflation,Prices & inflation,prices
2000-11,2000Q4,2000-10,CUMFNS,-0.29999999999999716,-0.03435195341191059,2000-12,gdp_growth,-0.2656480465880866,-0.10861212053939463,0.028852597657079985,real_activity_income,Real activity & income,real_activity
2000-11,2000Q4,2000-10,CUSR0000SAC,-0.010018548932982263,-0.005796993389849139,2000-12,gdp_growth,-0.004221555543133123,-1.56866196941106,0.006622193632269381,prices_inflation,Prices & inflation,prices
2000-11,2000Q4,2000-10,CUSR0000SAS,0.0010062099439736016,0.000504612180187267,2000-12,gdp_growth,0.0005015977637863347,7.967226895112108,0.003996343194166576,prices_inflation,Prices & inflation,prices
2000-11,2000Q4,2000-10,DDURRG3M086SBEA,-0.000878011294767056,-0.0013119163582704894,2000-12,gdp_growth,0.0004339050635034337,2.0874776893829265,0.0009057671393736998,prices_inflation,Prices & inflation,prices
2000-11,2000Q4,2000-10,DSERRG3M086SBEA,0.0018763359128435297,0.0008933916269627356,2000-12,gdp_growth,0.000982944285880794,-8.936842692742418,-0.008784418458646689,prices_inflation,Prices & inflation,prices
2000-11,2000Q4,2000-10,FEDFUNDS,-0.009999999999999785,0.12342644020951547,2000-12,gdp_growth,-0.13342644020951527,0.11580576011764106,-0.015451550328253903,financial_conditions,Financial conditions,financial
2000-11,2000Q4,2000-10,GS10,-0.059999999999999616,0.056300841382819156,2000-12,gdp_growth,-0.11630084138281876,0.11186436286948252,-0.013009919522473767,financial_conditions,Financial conditions,financial
2000-11,2000Q4,2000-10,HOUST,7.3343293503005365,7.324779884564008,2000-12,gdp_growth,0.00954946573652838,1.792540075104146,0.017117800028561052,housing_construction,Housing & construction,housing
2000-11,2000Q4,2000-10,HOUSTMW,5.768320995793772,5.709537300246463,2000-12,gdp_growth,0.05878369554730827,0.1833404199723862,0.010777427429172388,housing_construction,Housing & construction,housing
2000-11,2000Q4,2000-10,HOUSTNE,5.043425116919247,5.103155855344196,2000-12,gdp_growth,-0.059730738424948956,0.04882242934866575,-0.0029161997566957048,housing_construction,Housing & construction,housing
2000-11,2000Q4,2000-10,HOUSTS,6.577861357721047,6.498926161430044,2000-12,gdp_growth,0.07893519629100258,-0.22153428339556713,-0.017486852145015684,housing_construction,Housing & construction,housing
2000-11,2000Q4,2000-10,HOUSTW,5.823045895483019,5.976850169050906,2000-12,gdp_growth,-0.1538042735678874,-0.15210083736521962,0.023393758800024988,housing_construction,Housing & construction,housing
2000-11,2000Q4,2000-10,INDPRO,-0.0011885003755507384,0.0027844981773474534,2000-12,gdp_growth,-0.003972998552898193,0.4569442967175578,-0.0018154390296139396,real_activity_income,Real activity & income,real_activity
2000-11,2000Q4,2000-10,IPCONGD,-0.00406165896981836,0.002106905072923107,2000-12,gdp_growth,-0.006168564042741466,-10.515191443966708,0.06486363184379576,real_activity_income,Real activity & income,real_activity
2000-11,2000Q4,2000-10,IPFINAL,-0.00011097670610293875,0.0026003365713444535,2000-12,gdp_growth,-0.0027113132774473922,-6.507693005391661,0.017644394451069936,real_activity_income,Real activity & income,real_activity
2000-11,2000Q4,2000-10,IPMANSICS,-0.0004726642596271091,0.002911083017577504,2000-12,gdp_growth,-0.003383747277204613,89.04837166654258,-0.30131718516616784,real_activity_income,Real activity & income,real_activity
2000-11,2000Q4,2000-10,MANEMP,0.0,-0.0007271305886345429,2000-12,gdp_growth,0.0007271305886345429,39.521383234866775,0.028737206655220032,labor_market,Labor market,labor
2000-11,2000Q4,2000-10,OILPRICEx,-0.10566195432493108,-0.011060684095905488,2000-12,gdp_growth,-0.0946012702290256,-0.03345922981184136,0.003165285641085074,prices_inflation,Prices & inflation,prices
2000-11,2000Q4,2000-10,PAYEMS,0.0010395208517763876,0.0009818065813220925,2000-12,gdp_growth,5.771427045429508e-05,92.52398879672435,0.005339954512924317,labor_market,Labor market,labor
2000-11,2000Q4,2000-10,PCEPI,-0.002046060945084527,-0.0012806880377552944,2000-12,gdp_growth,-0.0007653729073292325,-4.3201270494334345,0.003306508199856527,prices_inflation,Prices & inflation,prices
2000-11,2000Q4,2000-10,PERMIT,7.343426229147367,7.28720859108963,2000-12,gdp_growth,0.056217638057736365,-0.09616291103821328,-0.005406051727324576,housing_construction,Housing & construction,housing
2000-11,2000Q4,2000-10,REALLN,-0.008584711739766604,-0.0004905782289411405,2000-12,gdp_growth,-0.008094133510825463,7.33040786712938,-0.05933329996535053,financial_conditions,Financial conditions,financial
2000-11,2000Q4,2000-10,RETAILx,0.0005858874531359248,0.004808438134418128,2000-12,gdp_growth,-0.004222550681282203,4.432291863719899,-0.018715577028792025,demand_orders_inventories,Demand / orders / inventories,demand
2000-11,2000Q4,2000-10,RPI,-0.0036345696191162342,0.0016329093929289347,2000-12,gdp_growth,-0.00526747901204517,30.45680639904937,-0.16043058848091557,real_activity_income,Real activity & income,real_activity
2000-11,2000Q4,2000-10,T10YFFM,-0.7699999999999999,-0.6349911861734986,2000-12,gdp_growth,-0.13500881382650134,0.25171029336078976,-0.0339831081345609,financial_conditions,Financial conditions,financial
2000-11,2000Q4,2000-10,TB3MS,0.11000000000000032,0.07509347728896099,2000-12,gdp_growth,0.03490652271103931,0.10791643074009033,0.0037669873405232644,financial_conditions,Financial conditions,financial
2000-11,2000Q4,2000-10,TWEXAFEGSMTHx,0.01536370578617774,0.006509354406264325,2000-12,gdp_growth,0.008854351379913413,0.23555212173674347,0.002085661254141267,financial_conditions,Financial conditions,financial
2000-11,2000Q4,2000-10,UEMPMEAN,0.5,0.4132022969339835,2000-12,gdp_growth,0.08679770306601657,0.0693718924017679,0.006021320917816301,labor_market,Labor market,labor
2000-11,2000Q4,2000-10,UNRATE,0.0,0.07498656436940385,2000-12,gdp_growth,-0.07498656436940385,-0.6398130590705797,0.047977383138381215,labor_market,Labor market,labor
2000-11,2000Q4,2000-10,W875RX1,-0.004080706305748194,0.0005289206726096329,2000-12,gdp_growth,-0.0046096269783578265,34.3122714295545,-0.15816677207041088,real_activity_income,Real activity & income,real_activity
2000-11,2000Q4,2000-10,WPSFD49207,-0.0050799064204047895,-0.004342623750847082,2000-12,gdp_growth,-0.0007372826695577076,-1.4976402229351626,0.001104184181602637,prices_inflation,Prices & inflation,prices
2000-12,2000Q4,2000-09,CMRMTSPLx,-0.00295055655926646,-0.0016983451533620904,2000-12,gdp_growth,-0.0012522114059043698,3.782530629297339,-0.004736527997188762,demand_orders_inventories,Demand / orders / inventories,demand
2000-12,2000Q4,2000-10,BUSINVx,0.006265058854395988,0.0041129751496091745,2000-12,gdp_growth,0.002152083704786814,3.9724265093747007,0.008548994359288457,demand_orders_inventories,Demand / orders / inventories,demand
2000-12,2000Q4,2000-10,ISRATIOx,0.010000000000000009,0.004291643165853625,2000-12,gdp_growth,0.0057083568341463825,-4.838490497052497,-0.02761983029580195,demand_orders_inventories,Demand / orders / inventories,demand
2000-12,2000Q4,2000-10,NONREVSL,0.005496116583029398,0.0008376747621738279,2000-12,gdp_growth,0.00465844182085557,1.947613535982603,0.009072844346885753,financial_conditions,Financial conditions,financial
2000-12,2000Q4,2000-11,AMDMNOx,0.022673490275586516,0.027516261521599274,2000-12,gdp_growth,-0.004842771246012757,1.9133641298086348,-0.009265984790989477,demand_orders_inventories,Demand / orders / inventories,demand
2000-12,2000Q4,2000-11,AMDMUOx,0.0064290199035106355,-0.0022418239941045777,2000-12,gdp_growth,0.008670843897615212,1.9436677599414285,0.016853239735279565,demand_orders_inventories,Demand / orders / inventories,demand
2000-12,2000Q4,2000-11,ANDENOx,0.06060084804761878,0.06578756646975052,2000-12,gdp_growth,-0.005186718422131736,0.327289902616971,-0.0016975605672811453,demand_orders_inventories,Demand / orders / inventories,demand
2000-12,2000Q4,2000-11,AWHMAN,41.1,41.379949551218544,2000-12,gdp_growth,-0.27994955121853976,0.018185358381284152,-0.005090982917588809,labor_market,Labor market,labor
2000-12,2000Q4,2000-11,BAA,-0.060000000000000504,0.03422192512216851,2000-12,gdp_growth,-0.09422192512216902,0.051324055976674665,-0.0048358513592002515,financial_conditions,Financial conditions,financial
2000-12,2000Q4,2000-11,BAAFFM,1.77,1.9108695382601961,2000-12,gdp_growth,-0.1408695382601961,0.015967422947369726,-0.002249323497801233,financial_conditions,Financial conditions,financial
2000-12,2000Q4,2000-11,BUSLOANS,0.0019452808812356894,0.0002844591286621543,2000-12,gdp_growth,0.001660821752573535,1.127154384684941,0.0018720025205933883,financial_conditions,Financial conditions,financial
2000-12,2000Q4,2000-11,CES3000000008,-0.003489204218134922,-0.004965195141207436,2000-12,gdp_growth,0.0014759909230725127,5.1243156446836675,0.0075634433785115645,labor_market,Labor market,labor
2000-12,2000Q4,2000-11,CLAIMSx,0.10023558451757175,0.0014448727849582905,2000-12,gdp_growth,0.09879071173261347,-2.298273544483596,-0.22704807921577075,labor_market,Labor market,labor
2000-12,2000Q4,2000-11,CLF16OV,0.0009504557937898284,0.001161501700347511,2000-12,gdp_growth,-0.00021104590655768264,4.991046741441969,-0.0010533399842193882,labor_market,Labor market,labor
2000-12,2000Q4,2000-11,CPIAUCSL,-2.9760758222252552e-06,0.001206515570937179,2000-12,gdp_growth,-0.0012094916467594045,6.973776275972135,-0.008434724152157205,prices_inflation,Prices & inflation,prices
2000-12,2000Q4,2000-11,CPIULFSL,0.0011405550569536516,0.0012588216502803704,2000-12,gdp_growth,-0.00011826659332671897,4.216677718787283,-0.0004986921089576526,prices_inflation,Prices & inflation,prices
2000-12,2000Q4,2000-11,CUMFNS,-0.8000000000000115,-0.22588017774160113,2000-12,gdp_growth,-0.5741198222584103,-0.0446772151327331,0.025650074811005487,real_activity_income,Real activity & income,real_activity
2000-12,2000Q4,2000-11,CUSR0000SAC,0.002663116239025598,0.004613183591668511,2000-12,gdp_growth,-0.0019500673526429125,-1.0664435926359983,0.0020796368334346778,prices_inflation,Prices & inflation,prices
2000-12,2000Q4,2000-11,CUSR0000SAS,-0.0015265542879205896,-0.00099246444876733,2000-12,gdp_growth,-0.0005340898391532596,5.977790686990008,-0.0031926772665063466,prices_inflation,Prices & inflation,prices
2000-12,2000Q4,2000-11,DDURRG3M086SBEA,0.002084987991030296,0.00021216920624015157,2000-12,gdp_growth,0.0018728187847901444,1.5346332469997817,0.0028740899727446845,prices_inflation,Prices & inflation,prices
2000-12,2000Q4,2000-11,DSERRG3M086SBEA,-0.0007264606361809811,-0.001570350051277883,2000-12,gdp_growth,0.0008438894150969018,-6.960614168851046,-0.005873988619666917,prices_inflation,Prices & inflation,prices
2000-12,2000Q4,2000-11,FEDFUNDS,0.0,0.06806035359241659,2000-12,gdp_growth,-0.06806035359241659,0.05534224734949149,-0.0037666129232053706,financial_conditions,Financial conditions,financial
2000-12,2000Q4,2000-11,GS10,-0.020000000000000465,0.02651217106203468,2000-12,gdp_growth,-0.046512171062035146,0.053366066733800496,-0.002482171624830512,financial_conditions,Financial conditions,financial
2000-12,2000Q4,2000-11,HOUST,7.3537223303996315,7.32972575520154,2000-12,gdp_growth,0.023996575198091657,0.4507828027394571,0.0108172434239439,housing_construction,Housing & construction,housing
2000-12,2000Q4,2000-11,HOUSTMW,5.749392985908253,5.769023211918709,2000-12,gdp_growth,-0.019630226010455575,0.05230461331546657,-0.001026751380772093,housing_construction,Housing & construction,housing
2000-12,2000Q4,2000-11,HOUSTNE,4.9344739331306915,5.087504653019496,2000-12,gdp_growth,-0.15303071988880496,0.014497444324792018,-0.0022185543415707922,housing_construction,Housing & construction,housing
2000-12,2000Q4,2000-11,HOUSTS,6.522092798170152,6.561774110453428,2000-12,gdp_growth,-0.03968131228327608,-0.06299113871815915,0.002499571046554436,housing_construction,Housing & construction,housing
2000-12,2000Q4,2000-11,HOUSTW,6.061456918928017,5.853133710429304,2000-12,gdp_growth,0.20832320849871233,-0.0502059651450098,-0.010459067744782962,housing_construction,Housing & construction,housing
2000-12,2000Q4,2000-11,INDPRO,-0.0023122330061973177,0.0012839053458831933,2000-12,gdp_growth,-0.003596138352080511,-0.047423508848417055,0.00017054149896002205,real_activity_income,Real activity & income,real_activity
2000-12,2000Q4,2000-11,IPCONGD,0.001470104755895818,0.0006066756029465977,2000-12,gdp_growth,0.0008634291529492204,-6.874351874967368,-0.00593551581647796,real_activity_income,Real activity & income,real_activity
2000-12,2000Q4,2000-11,IPFINAL,0.0016699181158248422,0.0006566761345970784,2000-12,gdp_growth,0.0010132419812277635,-4.140482742826639,-0.004195310937581028,real_activity_income,Real activity & income,real_activity
2000-12,2000Q4,2000-11,IPMANSICS,-0.005098672404652227,0.0009573964961975632,2000-12,gdp_growth,-0.00605606890084979,59.51018993950473,-0.3603978105762986,real_activity_income,Real activity & income,real_activity
2000-12,2000Q4,2000-11,MANEMP,5.4414365406429965e-05,-0.0015466865574322406,2000-12,gdp_growth,0.0016011009228386705,21.694389397132287,0.034734906884169976,labor_market,Labor market,labor
2000-12,2000Q4,2000-11,OILPRICEx,0.06302369385222528,0.039430425249057335,2000-12,gdp_growth,0.023593268603167943,-0.024069938472383583,-0.0005678885236406717,prices_inflation,Prices & inflation,prices
2000-12,2000Q4,2000-11,PAYEMS,0.0007129476133815871,0.0012460894055716567,2000-12,gdp_growth,-0.0005331417921900696,53.865665138874334,-0.02871803724964962,labor_market,Labor market,labor
2000-12,2000Q4,2000-11,PCEPI,0.00045977765628091305,0.0004879288923125998,2000-12,gdp_growth,-2.8151236031686734e-05,-3.3790918805022607,9.512561310077533e-05,prices_inflation,Prices & inflation,prices
2000-12,2000Q4,2000-11,PERMIT,7.37650812632622,7.296041845733892,2000-12,gdp_growth,0.08046628059232869,-0.05538036851323265,-0.004456252272092343,housing_construction,Housing & construction,housing
2000-12,2000Q4,2000-11,REALLN,0.008427943595658682,0.002163453251312878,2000-12,gdp_growth,0.0062644903443458055,5.35420052411272,0.03354133748499539,financial_conditions,Financial conditions,financial
2000-12,2000Q4,2000-11,RETAILx,-0.0040551764509508805,0.005088049321602537,2000-12,gdp_growth,-0.009143225772553417,2.8574827223633488,-0.02612660967173867,demand_orders_inventories,Demand / orders / inventories,demand
2000-12,2000Q4,2000-11,RPI,0.0015265317987918081,0.003931200964008448,2000-12,gdp_growth,-0.0024046691652166398,21.906245713354632,-0.05267727359256308,real_activity_income,Real activity & income,real_activity
2000-12,2000Q4,2000-11,T10YFFM,-0.79,-0.6655903433002808,2000-12,gdp_growth,-0.12440965669971933,0.04840443010078393,-0.006021978531584089,financial_conditions,Financial conditions,financial
2000-12,2000Q4,2000-11,TB3MS,0.05999999999999961,0.1155586792889389,2000-12,gdp_growth,-0.05555867928893929,0.05223536750697472,-0.0029021280308598883,financial_conditions,Financial conditions,financial
