haminh109/Nowcasting-GDP-Growth/outputs/layer1_dfm_3/dfm_diagnostics.csv
vintage_period,vintage_timestamp_start,target_quarter,within_quarter_origin,n_monthly_series,n_monthly_obs,factor_order,llf_final,em_iterations,llf_path_json,converged_flag,sample_end_period,model_index_generated,model_index_type,model_index_monotonic,row_labels_type,row_labels_monotonic
2000-01,2000-01-01,2000Q1,1,44,492,1,-19627.59844193913,88,"[-21737.482529436078, -20754.622212245362, -20455.36600783195, -20241.568171164337, -20085.31438816473, -19981.54787697469, -19916.890869967123, -19873.89519698974, -19841.02641848634, -19813.967879297707, -19791.68840370368, -19773.749112403664, -19759.444182932908, -19747.500173385935, -19735.437307541466, -19717.579278762925, -19688.820348381716, -19665.297295758595, -19655.345850998598, -19650.892511525984, -19648.09642628221, -19645.92158693874, -19644.09593431225, -19642.524281489565, -19641.155569556446, -19639.954222501947, -19638.892977180793, -19637.95023534204, -19637.10860126617, -19636.353894897322, -19635.674437966518, -19635.06052352833, -19634.504015493538, -19633.998042388725, -19633.536760424904, -19633.115168193755, -19632.728960274817, -19632.37441049639, -19632.048278032602, -19631.74773125981, -19631.470285551834, -19631.2137521098, -19630.976195598065, -19630.75589886061, -19630.55133337068, -19630.361134353156, -19630.18407973878, -19630.01907227868, -19629.86512427929, -19629.721344521022, -19629.586927005104, -19629.461141238065, -19629.343323814443, -19629.232871100172, -19629.129232852596, -19629.031906640077, -19628.940432946856, -19628.854390866734, -19628.773394304433, -19628.697088615947, -19628.625147629537, -19628.55727099772, -19628.49318183775, -19628.432624624416, -19628.375363303818, -19628.321179601317, -19628.269871500546, -19628.221251873314, -19628.17514724307, -19628.131396666795, -19628.089850722194, -19628.05037058857, -19628.012827211474, -19627.977100542106, -19627.94307884389, -19627.91065805925, -19627.87974123063, -19627.850237970364, -19627.82206397469, -19627.79514057772, -19627.76939434153, -19627.744756679193, -19627.721163507602, -19627.6985549275, -19627.67687492835, -19627.656071115765, -19627.636094459725, -19627.6168990617, -19627.59844193913]",False,1999-12,False,PeriodIndex,True,PeriodIndex,True
2000-02,2000-02-01,2000Q1,2,44,493,1,-19668.56702115783,88,"[-21777.24635219711, -20795.705791818014, -20496.61871310371, -20282.856532070207, -20126.45702006268, -20022.500183866112, -19957.6999848964, -19914.61162881709, -19881.676348816898, -19854.552165815167, -19832.17796299834, -19814.055666383494, -19799.32170109175, -19786.20659273735, -19770.64586360912, -19745.26771484829, -19716.14776639393, -19700.993257263108, -19694.684131530816, -19691.178349462945, -19688.61983827179, -19686.525802866963, -19684.745685738395, -19683.208813583587, -19681.869318870216, -19680.69313110947, -19679.653738377925, -19678.730078077657, -19677.905183053466, -19677.165226197365, -19676.498822531044, -19675.896509987593, -19675.350357692358, -19674.853666703464, -19674.40073870589, -19673.986695271757, -19673.607335193505, -19673.259020804133, -19672.938586599386, -19672.643265188402, -19672.37062683281, -19672.118529734023, -19671.885078890646, -19671.66859184122, -19671.467569977754, -19671.280674396432, -19671.106705466518, -19670.94458546394, -19670.793343744946, -19670.65210403539, -19670.52007349108, -19670.396533246952, -19670.28083022366, -19670.172370000044, -19670.070610592775, -19669.975057010844, -19669.885256474237, -19669.80079420367, -19669.721289703062, -19669.646393468327, -19669.57578406614, -19669.509165534764, -19669.446265065806, -19669.386830931944, -19669.33063063031, -19669.277449215642, -19669.227087800675, -19669.17936220435, -19669.134101730968, -19669.091148065618, -19669.050354272997, -19669.0115838885, -19668.974710091723, -19668.939614953735, -19668.906188750596, -19668.87432933637, -19668.843941569703, -19668.81493678881, -19668.78723233014, -19668.760751086564, -19668.735421101515, -19668.711175195618, -19668.687950623033, -19668.66568875475, -19668.644334786462, -19668.623837469033, -19668.604148859406, -19668.585224090417, -19668.56702115783]",False,2000-01,False,PeriodIndex,True,PeriodIndex,True
2000-03,2000-03-01,2000Q1,3,44,494,1,-19709.226776194853,87,"[-21820.123502465787, -20837.34344737365, -20537.996956701943, -20324.0850701553, -20167.702257263085, -20063.851299619666, -19999.080179784956, -19955.890235961997, -19922.780295079763, -19895.46728678896, -19872.90049582364, -19854.5324344533, -19839.334239339863, -19825.016479116628, -19806.150543624426, -19776.780605299533, -19751.253246241373, -19739.86324483849, -19734.67258304868, -19731.429459359388, -19728.937934961206, -19726.87094121892, -19725.109548342098, -19723.58912828115, -19722.26500004228, -19721.103374635586, -19720.077838292775, -19719.16737777263, -19718.355056211018, -19717.627067427034, -19716.97204268958, -19716.38053419026, -19715.844624905694, -19715.357630222366, -19714.913867067466, -19714.508473321963, -19714.13726513165, -19713.796623102753, -19713.483400745485, -19713.194850223055, -19712.92856168659, -19712.682413367835, -19712.45453025901, -19712.243249698568, -19712.047092549918, -19711.864738939206, -19711.695007732196, -19711.536839095286, -19711.389279613853, -19711.25146954184, -19711.12263183567, -19711.002062688705, -19710.889123332727, -19710.783232913498, -19710.683862280166, -19710.590528554898, -19710.50279037091, -19710.420243684865, -19710.342518084435, -19710.26927352389, -19710.20019743076, -19710.13500213516, -19710.0734225803, -19710.015214278756, -19709.960151484043, -19709.908025551278, -19709.85864346437, -19709.811826510042, -19709.767409081876, -19709.72523759945, -19709.685169529934, -19709.64707250068, -19709.6108234932, -19709.576308109776, -19709.54341990521, -19709.512059777044, -19709.482135408285, -19709.453560757556, -19709.426255591992, -19709.40014505872, -19709.375159291463, -19709.35123304881, -19709.32830538138, -19709.30631932526, -19709.285221619335, -19709.26496244452, -19709.24549518283, -19709.226776194853]",False,2000-02,False,PeriodIndex,True,PeriodIndex,True
2000-04,2000-04-01,2000Q2,1,44,495,1,-19752.972686508758,88,"[-21868.766421757202, -20882.169310520636, -20582.514559864234, -20368.626562600282, -20212.355021754287, -20108.575033903006, -20043.859337757174, -20000.764238438904, -19967.787297806142, -19940.62974911646, -19918.26307814373, -19900.236381106806, -19885.808174896294, -19873.60678180698, -19860.838925764736, -19841.197739300605, -19811.33553411709, -19789.630297373256, -19780.700212649564, -19776.500528156328, -19773.746005167795, -19771.566494721763, -19769.726842527867, -19768.139469445883, -19766.755032540634, -19765.53847502249, -19764.462750883533, -19763.506361575557, -19762.65194678848, -19761.88532244968, -19761.19478227738, -19760.570577616454, -19760.004523821524, -19759.489698454137, -19759.02020711579, -19758.590999771288, -19758.19772522884, -19757.83661478792, -19757.504388421523, -19757.19817853988, -19756.915467596133, -19756.65403668172, -19756.411922914594, -19756.1873839134, -19755.978868020342, -19755.784989216794, -19755.604505892195, -19755.436302794027, -19755.27937561743, -19755.132817795777, -19754.9958091347, -19754.867605996697, -19754.74753279542, -19754.63497460027, -19754.529370685865, -19754.430208888294, -19754.337020652652, -19754.249376674747, -19754.16688305507, -19754.089177895792, -19754.015928281966, -19753.946827596857, -19753.88159312868, -19753.819963932106, -19753.761698913124, -19753.70657511023, -19753.654386148453, -19753.604940846206, -19753.558061957272, -19753.51358503275, -19753.471357389633, -19753.431237174496, -19753.39309251201, -19753.35680072951, -19753.32224764962, -19753.28932694415, -19753.257939543102, -19753.227993093384, -19753.19940146245, -19753.17208428264, -19753.145966532284, -19753.12097815043, -19753.097053681886, -19753.074131950118, -19753.052155755395, -19753.031071596022, -19753.0108294108, -19752.991382340777, -19752.972686508758]",False,2000-03,False,PeriodIndex,True,PeriodIndex,True
2000-05,2000-05-01,2000Q2,2,44,496,1,-19794.598566788954,88,"[-21915.835233978763, -20926.2628282144, -20625.959812148187, -20411.574464576835, -20254.894648466194, -20150.798733900465, -20085.85091997319, -20042.585451288494, -20009.479614423122, -19982.21107183445, -19959.712156734196, -19941.457912135535, -19926.5344209369, -19913.047884738575, -19896.58953994696, -19869.90726281081, -19841.284263709174, -19826.957661567987, -19820.857067053075, -19817.380545002878, -19814.82015483953, -19812.72126003472, -19810.93708465964, -19809.396970334696, -19808.054708557524, -19806.875968720564, -19805.834073833037, -19804.90786391986, -19804.080319161152, -19803.33758836674, -19802.668280133206, -19802.062936406197, -19801.513636123018, -19801.013693069297, -19800.557422848375, -19800.139961158893, -19799.757120603295, -19799.405276753874, -19799.08127667172, -19798.78236483144, -19798.506122668958, -19798.250418888438, -19798.013368339132, -19797.79329777276, -19797.58871716637, -19797.398295578263, -19797.22084071991, -19797.055281592264, -19796.900653663335, -19796.7560861639, -19796.620791157402, -19796.49405410224, -19796.375225674994, -19796.263714662902, -19796.15898176658, -19796.060534180084, -19795.967920837218, -19795.880728230484, -19795.798576723726, -19795.72111729165, -19795.648028629505, -19795.57901458441, -19795.513801867226, -19795.45213800933, -19795.393789534137, -19795.338540317054, -19795.2861901113, -19795.236553220107, -19795.189457298373, -19795.14474226896, -19795.10225934091, -19795.061870118378, -19795.02344579048, -19794.98686639347, -19794.952020137745, -19794.91880279308, -19794.887117126113, -19794.856872385084, -19794.827983827134, -19794.80037228411, -19794.773963763342, -19794.748689080057, -19794.724483518658, -19794.7012865202, -19794.679041393872, -19794.65769505025, -19794.63719775465, -19794.61750289873, -19794.598566788954]",False,2000-04,False,PeriodIndex,True,PeriodIndex,True
2000-06,2000-06-01,2000Q2,3,44,497,1,-19839.646970193986,88,"[-21963.77298096488, -20972.176932663155, -20670.72906708471, -20455.876598129205, -20299.238671751787, -20195.278737280903, -20130.42689774751, -20087.237931009106, -20054.195188934136, -20026.963942365634, -20004.459894073312, -19986.123991360713, -19970.92910998301, -19956.59757915944, -19937.719376090536, -19908.26340972235, -19882.356340842438, -19870.67529904261, -19865.377521041373, -19862.101831199077, -19859.600961462464, -19857.531421065407, -19855.769433356094, -19854.24877280082, -19852.92411102983, -19851.76136354122, -19850.733993956834, -19849.820965290222, -19849.005374711436, -19848.273481975804, -19847.61399953663, -19847.017565508693, -19846.476347160125, -19845.983738916515, -19845.534129657353, -19845.122721422405, -19844.745386701168, -19844.39855500039, -19844.079121864524, -19843.784375288687, -19843.511935732764, -19843.259706867386, -19843.025834859473, -19842.80867450656, -19842.606760904666, -19842.418785617938, -19842.243576534158, -19842.080080756357, -19841.92735000915, -19841.78452813884, -19841.65084036522, -19841.52558400559, -19841.408120441338, -19841.297868137244, -19841.194296556387, -19841.096920839293, -19841.005297137708, -19840.919018510715, -19840.837711305492, -19840.76103195704, -19840.68866415087, -19840.620316301414, -19840.55571930534, -19840.494624535215, -19840.43680204369, -19840.382038952426, -19840.33013800386, -19840.280916256394, -19840.234203906653, -19840.189843224267, -19840.147687586654, -19840.107600602838, -19840.06945531674, -19840.033133481502, -19839.99852489749, -19839.965526807486, -19839.934043343288, -19839.903985018675, -19839.875268264295, -19839.847815000376, -19839.82155224381, -19839.796411746407, -19839.772329661493, -19839.749246236355, -19839.727105528174, -19839.705855141576, -19839.68544598575, -19839.6658320497, -19839.646970193986]",False,2000-05,False,PeriodIndex,True,PeriodIndex,True
2000-07,2000-07-01,2000Q3,1,44,498,1,-19902.65671472784,88,"[-22029.61370715184, -21035.76162285569, -20733.668667536902, -20518.428693698053, -20361.557776891612, -20257.533484247713, -20192.87698564381, -20150.113528835587, -20117.549435065688, -20090.69283590773, -20068.401564757565, -20050.118872843777, -20034.830430531794, -20020.207298098074, -20000.629281688998, -19970.514022798925, -19945.135466902997, -19933.852425259254, -19928.638109392763, -19925.354750450148, -19922.830634572296, -19920.738918729585, -19918.958179068373, -19917.421808998843, -19916.083792699737, -19914.90947365239, -19913.871892262177, -19912.949707801865, -19912.125801368755, -19911.386279180006, -19910.719744165617, -19910.1167556132, -19909.569423201905, -19909.071098351058, -19908.61613687178, -19908.19971445951, -19907.8176817813, -19907.466449552096, -19907.142896560214, -19906.844295428913, -19906.56825221477, -19906.312656897448, -19906.075642515207, -19905.855551218312, -19905.650905899427, -19905.460386351708, -19905.28280912715, -19905.11711043753, -19904.962331571813, -19904.817606405995, -19904.682150661833, -19904.55525263399, -19904.436265155815, -19904.324598614214, -19904.21971485659, -19904.121121859098, -19904.028369047068, -19903.941043175815, -19903.85876469462, -19903.781184528543, -19903.7079812226, -19903.63885840123, -19903.573542502643, -19903.51178075363, -19903.45333935517, -19903.39800185339, -19903.345567673787, -19903.295850799677, -19903.248678578377, -19903.203890640678, -19903.161337921123, -19903.12088176812, -19903.082393134304, -19903.045751838694, -19903.010845893343, -19902.97757088783, -19902.94582942593, -19902.9155306093, -19902.8865895637, -19902.858927003646, -19902.832468832094, -19902.807145771676, -19902.782893024934, -19902.759649960743, -19902.7373598248, -19902.71596947199, -19902.69542911884, -19902.675692114386, -19902.65671472784]",False,2000-06,False,PeriodIndex,True,PeriodIndex,True
2000-08,2000-08-01,2000Q3,2,47,499,1,-21729.234759762876,89,"[-23897.00106678589, -22857.32712805929, -22553.136864246888, -22337.168496394188, -22180.924688410603, -22077.967115538944, -22014.315281516414, -21972.427167281312, -21940.662599497922, -21914.55491748092, -21892.940150757113, -21875.233982870104, -21860.419923414498, -21846.218117578912, -21827.148545898282, -21797.468831490427, -21771.936592581846, -21760.507097340975, -21755.28203633787, -21752.042289105615, -21749.568952228045, -21747.520901390246, -21745.774640217114, -21744.26453687305, -21742.945987025283, -21741.78560819252, -21740.757498946303, -21739.84118129182, -21739.02023655387, -21738.281338480505, -21737.613549802492, -21737.00780247592, -21736.45650859098, -21735.953265448312, -21735.49262929953, -21735.069939742018, -21734.68118191881, -21734.322877259583, -21733.99199601012, -21733.6858865748, -21733.402217965297, -21733.138932564907, -21732.8942070856, -21732.66642008665, -21732.45412479, -21732.256026202245, -21732.070961762078, -21731.897884891492, -21731.735850952806, -21731.58400520929, -21731.441572463005, -21731.307848102886, -21731.182190343898, -21731.064013476018, -21730.952781972836, -21730.848005334294, -21730.749233558723, -21730.656053155915, -21730.56808362681, -21730.484974346902, -21730.40640179973, -21730.332067114974, -21730.26169387229, -21730.19502613733, -21730.131826701567, -21730.071875501, -21730.01496819261, -21729.960914870077, -21729.90953890277, -21729.860675884076, -21729.81417267702, -21729.769886546568, -21729.727684369318, -21729.6874419125, -21729.64904317514, -21729.61237978508, -21729.57735044632, -21729.543860431775, -21729.511821117045, -21729.481149551415, -21729.45176806258, -21729.423603892013, -21729.396588858333, -21729.37065904604, -21729.345754517635, -21729.32181904694, -21729.298799871936, -21729.276647465536, -21729.255315322727, -21729.234759762876]",False,2000-07,False,PeriodIndex,True,PeriodIndex,True
2000-09,2000-09-01,2000Q3,3,47,500,1,-21771.582498061125,89,"[-23944.30147864495, -22902.674179161928, -22597.8526141536, -22381.26710473867, -22224.531318093832, -22121.279538050345, -22057.418125560624, -22015.306133540922, -21983.32132518984, -21957.04617530491, -21935.335385155784, -21917.60337088648, -21902.83345924015, -21888.788026603495, -21870.13115990528, -21840.815766184656, -21814.77914141878, -21802.962191347397, -21797.62406874873, -21794.359378380952, -21791.882379182516, -21789.83534911277, -21788.091192517382, -21786.583519710555, -21785.2675340751, -21784.109769885952, -21783.084268002884, -21782.17050456111, -21781.352024672116, -21780.61547466537, -21779.949897679384, -21779.346212801483, -21778.796824854482, -21778.295328413682, -21777.836280593867, -21777.415024613565, -21777.02755128924, -21776.670389188403, -21776.340516677967, -21776.035290879256, -21775.752389809877, -21775.489764909304, -21775.245601813953, -21775.018287740684, -21774.806384205083, -21774.608604077086, -21774.423792186462, -21774.25090885135, -21774.089015827405, -21773.937264271965, -21773.794884393832, -21773.66117651952, -21773.53550335468, -21773.4172832583, -21773.30598437795, -21773.201119520014, -21773.102241649187, -21773.00893992848, -21772.920836225036, -21772.83758201842, -21772.7588556578, -21772.684359922245, -21772.613819845224, -21772.54698076994, -21772.48360660686, -21772.423478268764, -21772.366392262145, -21772.312159416597, -21772.26060373615, -21772.211561358912, -21772.164879612847, -21772.12041615724, -21772.0780382007, -21772.037621787546, -21771.99905114567, -21771.96221808948, -21771.927021472595, -21771.893366685297, -21771.861165192597, -21771.830334108912, -21771.800795806153, -21771.772477552033, -21771.745311176004, -21771.71923276034, -21771.694182354244, -21771.670103708904, -21771.646944031974, -21771.62465375963, -21771.60318634492, -21771.582498061125]",False,2000-08,False,PeriodIndex,True,PeriodIndex,True
2000-10,2000-10-01,2000Q4,1,47,501,1,-21815.038104031686,89,"[-23993.072318653565, -22947.546335511586, -22642.033317040226, -22425.430364264575, -22268.830307625394, -22165.659357212695, -22101.7796792682, -22059.586289589526, -22027.500170282114, -22001.115152472536, -21979.263103891306, -21961.290326596587, -21945.96909822298, -21930.37399794384, -21907.84232331516, -21876.358099551304, -21854.712897956066, -21845.441058513614, -21840.800589998642, -21837.69554125621, -21835.25528842621, -21833.219933014356, -21831.482587254766, -21829.98067735114, -21828.67004877105, -21827.517312088596, -21826.49650138519, -21825.58708492888, -21824.772609181673, -21824.039729700307, -21823.377504194967, -21822.776869575828, -21822.230250208988, -21821.731260860106, -21821.27447875031, -21820.855266637955, -21820.46963400828, -21820.11412704767, -21819.78574060078, -21819.481847094372, -21819.200138688408, -21818.938579837173, -21818.695368116332, -21818.4689016678, -21818.25775198414, -21818.06064103161, -21817.876421922276, -21817.704062507, -21817.542631385855, -21817.391285930084, -21817.24926198578, -21817.115864990214, -21816.9904622795, -21816.87247640539, -21816.76137930971, -21816.656687230396, -21816.55795623381, -21816.464778284764, -21816.37677777973, -21816.293608480104, -21816.21495079218, -21816.140509348228, -21816.07001084991, -21816.003202140866, -21815.93984847991, -21815.879731990375, -21815.822650264567, -21815.76841510487, -21815.71685138594, -21815.667796024085, -21815.621097041927, -21815.57661271799, -21815.53421081198, -21815.49376785791, -21815.45516851796, -21815.418304990955, -21815.383076470003, -21815.34938864453, -21815.317153242355, -21815.286287608178, -21815.256714314946, -21815.22836080526, -21815.201159060038, -21815.175045292104, -21815.14995966251, -21815.125846017687, -21815.10265164569, -21815.080327049942, -21815.058825739092, -21815.038104031686]",False,2000-09,False,PeriodIndex,True,PeriodIndex,True
2000-11,2000-11-01,2000Q4,2,47,502,1,-21857.715501370054,90,"[-24040.780286522662, -22993.383239647927, -22687.389311848478, -22470.129818594076, -22312.88004825954, -22209.249325946792, -22145.09828527544, -22102.75062802331, -22070.57273031574, -22044.143841488036, -22022.31264069507, -22004.482263945087, -21989.616097028662, -21975.43057540486, -21956.490664073855, -21926.898941939813, -21900.9830218506, -21889.239851121914, -21883.90491894989, -21880.63163535114, -21878.147305773113, -21876.09533332594, -21874.347981927407, -21872.838225923246, -21871.520810421203, -21870.3619552307, -21869.3354900183, -21868.420753095903, -21867.601203634746, -21866.863438396074, -21866.19647613384, -21865.591228696198, -21865.04010506425, -21864.53671127952, -21864.07562033909, -21863.6521937312, -21863.262441522667, -21862.902911552286, -21862.570600840656, -21862.26288413642, -21861.977455813154, -21861.71228226567, -21861.465562636786, -21861.235696208125, -21861.021255163098, -21860.82096171139, -21860.63366877784, -21860.458343622293, -21860.29405388304, -21860.139955635066, -21859.995283131277, -21859.859339956187, -21859.731491369872, -21859.61115765916, -21859.497808344247, -21859.390957114552, -21859.29015738825, -21859.194998406994, -21859.105101791327, -21859.020118493776, -21858.9397260964, -21858.863626407343, -21858.791543317788, -21858.723220886233, -21858.658421621796, -21858.596924942183, -21858.53852578534, -21858.48303335667, -21858.430269996123, -21858.380070151572, -21858.33227944665, -21858.286753832625, -21858.2433588154, -21858.201968749745, -21858.162466193695, -21858.12474131716, -21858.088691359324, -21858.054220130034, -21858.021237551002, -21857.98965923315, -21857.959406086637, -21857.930403960774, -21857.902583310988, -21857.875878890685, -21857.850229465712, -21857.825577549585, -21857.80186915778, -21857.779053579477, -21857.757083165397, -21857.73591313045, -21857.715501370054]",False,2000-10,False,PeriodIndex,True,PeriodIndex,True
2000-12,2000-12-01,2000Q4,3,47,503,1,-21895.26433158452,89,"[-24091.39894774775, -23042.411142560544, -22735.976301786304, -22516.83179930122, -22357.150099806553, -22251.70462350518, -22186.73289316694, -22144.17752201752, -22111.882163125152, -22085.133306905303, -22062.69455875173, -22043.85091117213, -22027.02354377851, -22008.01574103763, -21979.54971265595, -21949.101896416156, -21933.076713829178, -21925.861028645937, -21921.65970208504, -21918.582355587285, -21916.086464754433, -21913.984721436074, -21912.184525808854, -21910.625709974385, -21909.264225720435, -21908.066338452205, -21907.005638809023, -21906.061130212234, -21905.2158976034, -21904.456150834518, -21903.77052538919, -21903.149564120056, -21902.58532806066, -21902.071100355024, -21901.60115815807, -21901.17059475326, -21900.77517922771, -21900.41124458042, -21900.07559761365, -21899.765445704856, -21899.47833680334, -21899.2121098937, -21898.964853822792, -21898.734872868463, -21898.5206577867, -21898.320861343534, -21898.134277542984, -21897.959823919227, -21897.796526383565, -21897.643506211734, -21897.49996883249, -21897.365194138525, -21897.238528088383, -21897.119375407296, -21897.007193226167, -21896.901485523893, -21896.801798259337, -21896.707715097007, -21896.61885364505, -21896.534862136225, -21896.455416492987, -21896.380217726153, -21896.308989624034, -21896.24147669488, -21896.177442330867, -21896.116667166058, -21896.058947604684, -21896.004094499178, -21895.95193196029, -21895.902296283748, -21895.855034980104, -21895.810005896165, -21895.76707641766, -21895.726122744425, -21895.687029230117, -21895.649687779845, -21895.61399729953, -21895.57986319177, -21895.54719689361, -21895.51591545198, -21895.485941133302, -21895.457201063866, -21895.429626898283, -21895.403154513286, -21895.377723724745, -21895.353278025737, -21895.32976434394, -21895.307132816633, -21895.285336581866, -21895.26433158452]",False,2000-11,False,PeriodIndex,True,PeriodIndex,True
2001-01,2001-01-01,2001Q1,1,47,504,1,-21936.8862413076,90,"[-24132.89637826952, -23082.049169770326, -22775.971718949768, -22557.353166940367, -22398.08979527428, -22292.87971156557, -22227.991062996694, -22185.437972876232, -22153.12698343691, -22126.385731226186, -22104.007205226237, -22085.31659412817, -22068.857386892734, -22050.812020895173, -22023.847398198686, -21992.703812056356, -21975.29665940142, -21967.611867081006, -21963.30783695884, -21960.221491310254, -21957.735361864714, -21955.645342499534, -21953.855653131894, -21952.30573450266, -21950.951640659936, -21949.75979812114, -21948.70394896854, -21947.763233261332, -21946.920860376747, -21946.163154361235, -21945.478855575246, -21944.85860282582, -21944.294544409328, -21943.7800422854, -21943.309444300503, -21942.877906716127, -21942.481254366307, -21942.115869296482, -21941.778601210353, -21941.46669480195, -21941.17773030133, -21940.90957446457, -21940.66033989691, -21940.428351082544, -21940.212115855447, -21940.010301316805, -21939.821713410973, -21939.645279529814, -21939.48003363789, -21939.32510350652, -21939.17969972036, -21939.04310617988, -21938.91467187131, -21938.793803714125, -21938.679960327867, -21938.57264658535, -21938.47140884083, -21938.375830738696, -21938.285529523047, -21938.200152780286, -21938.119375556926, -21938.04289780351, -21937.97044210227, -21937.901751642425, -21937.83658841204, -21937.77473157952, -21937.715976041785, -21937.660131119017, -21937.60701937867, -21937.55647557376, -21937.50834568229, -21937.462486036497, -21937.41876253193, -21937.377049907718, -21937.33723109041, -21937.299196594646, -21937.262843974953, -21937.228077323325, -21937.194806808122, -21937.16294825027, -21937.132422733146, -21937.103156243003, -21937.07507933712, -21937.04812683715, -21937.02223754547, -21936.997353982442, -21936.97342214291, -21936.95039127018, -21936.928213646144, -21936.906844396166, -21936.8862413076]",False,2000-12,False,PeriodIndex,True,PeriodIndex,True
2001-02,2001-02-01,2001Q1,2,47,505,1,-22005.737102353316,90,"[-24201.22636390708, -23150.5073123444, -22844.882804204797, -22626.534689232176, -22467.29557127986, -22362.004989094847, -22297.09400299098, -22254.611707186123, -22222.3931276275, -22195.672408944905, -22173.145407986565, -22153.934104639095, -22135.916944946373, -22113.528200885972, -22081.388466539167, -22054.5926509965, -22042.04044531596, -22035.909044272874, -22031.99088433444, -22028.998334934968, -22026.54068854091, -22024.464221961778, -22022.68373295846, -22021.141009883886, -22019.792789808675, -22018.60581505146, -22017.55403365806, -22016.616739402874, -22015.777261143965, -22015.022016966814, -22014.33982155098, -22013.721372504813, -22013.158864652672, -22012.64569677553, -22012.176245889368, -22011.745691426207, -22011.349876720513, -22010.98519871252, -22010.64851924254, -22010.337093052287, -22010.048508854008, -22009.78064072529, -22009.53160774112, -22009.299740235867, -22009.083551445197, -22008.88171354682, -22008.693037322475, -22008.516454819943, -22008.351004514443, -22008.195818563217, -22008.050111821172, -22007.91317234477, -22007.78435315811, -22007.66306509357, -22007.548770550202, -22007.44097803812, -22007.339237398195, -22007.243135603276, -22007.152293061445, -22007.066360353812, -22006.985015349077, -22006.907960645658, -22006.834921299065, -22006.7656427983, -22006.699889259973, -22006.637441813255, -22006.578097152378, -22006.521666236506, -22006.46797311958, -22006.41685389488, -22006.36815574125, -22006.321736059275, -22006.277461687612, -22006.23520819049, -22006.19485920886, -22006.156305868364, -22006.119446238175, -22006.084184835614, -22006.05043217182, -22006.01810433448, -22005.987122604012, -22005.957413100004, -22005.9289064551, -22005.901537513804, -22005.875245053932, -22005.84997152874, -22005.825662827938, -22005.802268055937, -22005.77973932593, -22005.758031568454, -22005.737102353316]",False,2001-01,False,PeriodIndex,True,PeriodIndex,True
2001-03,2001-03-01,2001Q1,3,47,506,1,-22057.314018159224,91,"[-24252.100482037462, -23198.66255188272, -22893.209940374047, -22675.640697175673, -22517.440715356242, -22412.915308891552, -22348.361412895458, -22306.028302008308, -22273.89873726274, -22247.278077945288, -22224.93881365355, -22206.181952071653, -22189.433079476526, -22170.499318606628, -22142.153851471725, -22111.67484613554, -22095.431467398786, -22088.097324299433, -22083.861849672106, -22080.78171913023, -22078.291957704085, -22076.198542609578, -22074.40701150867, -22072.8565548857, -22071.502792728515, -22070.311778829135, -22069.256974029508, -22068.317318131016, -22067.475884330008, -22066.718908806128, -22066.03507942471, -22065.41500782207, -22064.850832891072, -22064.33591938419, -22063.864626087354, -22063.43212543596, -22063.034261597815, -22062.667437648197, -22062.328524994897, -22062.014790007044, -22061.723834085627, -22061.453544341384, -22061.202052721575, -22060.967701925234, -22060.749016816946, -22060.544680327155, -22060.353513038455, -22060.174455818826, -22060.00655498785, -22059.848949599513, -22059.700860502006, -22059.561580895705, -22059.430468159324, -22059.306936753288, -22059.190452041308, -22059.08052489684, -22058.976706982554, -22058.878586608338, -22058.785785087923, -22058.697953526287, -22058.614769980122, -22058.53593694201, -22058.461179106296, -22058.39024138038, -22058.32288711041, -22058.25889649478, -22058.198065162098, -22058.14020289403, -22058.085132475495, -22058.032688657422, -22057.982717218994, -22057.935074118082, -22057.88962472001, -22057.84624309608, -22057.804811384252, -22057.765219205412, -22057.727363129474, -22057.691146186142, -22057.656477415883, -22057.62327145716, -22057.59144816641, -22057.560932267603, -22057.53165302873, -22057.503543962674, -22057.476542550336, -22057.450589984008, -22057.42563092929, -22057.40161330401, -22057.37848807259, -22057.356209054815, -22057.33473274765, -22057.314018159224]",False,2001-02,False,PeriodIndex,True,PeriodIndex,True
2001-04,2001-04-01,2001Q2,1,47,507,1,-22108.451624906003,91,"[-24305.17543551277, -23248.954020471632, -22943.16850780837, -22725.537938878297, -22567.409762056464, -22463.051380138422, -22398.69751596082, -22356.57533674928, -22324.648293153223, -22298.180169974257, -22275.900833644802, -22257.049141866108, -22239.84876163089, -22219.54255475484, -22189.421962555156, -22160.371734398956, -22145.83648296084, -22139.061203837955, -22134.96955505533, -22131.926462389518, -22129.44830233606, -22127.35975415714, -22125.57064334675, -22124.021342216398, -22122.667945636473, -22121.47677463464, -22120.42146571721, -22119.48108010628, -22118.63877621388, -22117.880850292833, -22117.1960325214, -22116.574964157717, -22116.009804561054, -22115.49393229559, -22115.02171509808, -22114.588330798426, -22114.189626363503, -22113.82200578758, -22113.48234005479, -22113.167894173796, -22112.876267555963, -22112.605344926127, -22112.353255625036, -22112.118339655986, -22111.89911919537, -22111.6942745629, -22111.502623856744, -22111.323105619107, -22111.154764022132, -22110.996736160596, -22110.84824111412, -22110.708570502124, -22110.577080302828, -22110.453183746795, -22110.336345126685, -22110.22607439096, -22110.12192240995, -22110.02347682047, -22109.930358369307, -22109.842217688034, -22109.758732441496, -22109.67960480097, -22109.60455919968, -22109.533340334798, -22109.46571138472, -22109.40145241491, -22109.3403589493, -22109.28224068709, -22109.226920347934, -22109.174232630146, -22109.1240232692, -22109.076148184944, -22109.03047270768, -22108.98687087444, -22108.945224787876, -22108.905424031145, -22108.867365132835, -22108.830951076932, -22108.79609085322, -22108.762699044128, -22108.730695444476, -22108.700004711034, -22108.670556039033, -22108.642282863206, -22108.61512258116, -22108.58901629706, -22108.563908583914, -22108.539747262803, -22108.516483197753, -22108.49407010486, -22108.472464374554, -22108.451624906003]",False,2001-03,False,PeriodIndex,True,PeriodIndex,True
2001-05,2001-05-01,2001Q2,2,48,508,1,-22305.07952655812,92,"[-24504.53480825996, -23447.15326044145, -23140.318613462587, -22921.83078156216, -22763.34651169277, -22659.056641290845, -22594.98560044748, -22553.210274536337, -22521.65906731913, -22495.650396750512, -22474.088167819005, -22456.666494012148, -22442.936101282463, -22432.099581787148, -22422.956548986193, -22413.43894366052, -22398.79428140117, -22372.544213454796, -22346.020555497744, -22333.392091787326, -22328.272010280758, -22325.509130929295, -22323.507319273405, -22321.850056306885, -22320.416505480476, -22319.156352573078, -22318.038953848303, -22317.04171798893, -22316.14684710912, -22315.33996628069, -22314.609304569887, -22313.945121119825, -22313.33928032254, -22312.78493031691, -22312.276256321184, -22311.808289193083, -22311.376755266007, -22310.977957381212, -22310.60867975135, -22310.266111217552, -22309.94778284392, -22309.651516791975, -22309.375384148094, -22309.11766991521, -22308.876843781334, -22308.65153557924, -22308.440514580478, -22308.242671942728, -22308.057005764662, -22307.88260830834, -22307.718655032084, -22307.56439514224, -22307.419143424675, -22307.282273158504, -22307.153209948643, -22307.03142634094, -22306.9164371061, -22306.807795097015, -22306.705087599097, -22306.607933105777, -22306.515978461644, -22306.428896324443, -22306.34638290415, -22306.26815594374, -22306.19395291114, -22306.123529376033, -22306.05665754934, -22305.993124965666, -22305.932733292095, -22305.875297248713, -22305.820643628293, -22305.76861040411, -22305.719045916332, -22305.671808128587, -22305.62676394739, -22305.583788598015, -22305.54276505108, -22305.50358349498, -22305.46614084962, -22305.43034031764, -22305.396090969632, -22305.363307360305, -22305.331909172794, -22305.301820888733, -22305.272971481845, -22305.2452941331, -22305.2187259657, -22305.193207798242, -22305.16868391464, -22305.145101849565, -22305.122412188095, -22305.10056837866, -22305.07952655812]",False,2001-04,False,PeriodIndex,True,PeriodIndex,True
2001-06,2001-06-01,2001Q2,3,48,509,1,-22333.444137095827,92,"[-24533.316852304808, -23477.491073666468, -23168.910491274204, -22949.315560953528, -22790.412100040245, -22686.17728459392, -22622.312534137236, -22580.699033601682, -22549.244208078366, -22523.29488629324, -22501.76474919937, -22484.338017234455, -22470.522882186175, -22459.400271604012, -22449.411073503783, -22437.33692779005, -22416.373036609708, -22386.64757852775, -22367.214463477936, -22359.2772775314, -22355.578770554363, -22353.197131345267, -22351.323030097054, -22349.734771917167, -22348.353992592718, -22347.13941090409, -22346.062599685807, -22345.101802041332, -22344.239733480637, -22343.462421187916, -22342.758433425653, -22342.118322440823, -22341.534208983314, -22340.999467376525, -22340.508483826332, -22340.056468842813, -22339.639310116127, -22339.25345597378, -22338.895822206207, -22338.563716935154, -22338.25477955113, -22337.966930723935, -22337.698331204345, -22337.44734766202, -22337.2125241971, -22336.992558458758, -22336.786281527995, -22336.59264089454, -22336.410685990406, -22336.239555846732, -22336.07846852207, -22335.92671201483, -22335.783636424196, -22335.648647165173, -22335.52119907673, -22335.400791289212, -22335.28696273915, -22335.17928823792, -22335.077375015466, -22334.980859672698, -22334.889405486443, -22334.802700019332, -22334.72045299418, -22334.642394398237, -22334.56827278799, -22334.497853769106, -22334.43091862993, -22334.367263109853, -22334.30669628651, -22334.24903956776, -22334.194125776674, -22334.141798318797, -22334.09191042286, -22334.0443244468, -22333.99891124234, -22333.95554957199, -22333.914125573163, -22333.87453226479, -22333.836669092183, -22333.800441506748, -22333.765760577044, -22333.732542628535, -22333.70070890942, -22333.67018528028, -22333.640901925522, -22333.612793084783, -22333.585796802705, -22333.559854695573, -22333.534911733543, -22333.510916037165, -22333.48781868729, -22333.465573547124, -22333.444137095827]",False,2001-05,False,PeriodIndex,True,PeriodIndex,True
2001-07,2001-07-01,2001Q3,1,48,510,1,-22383.13389810569,92,"[-24583.79168119069, -23527.410354327723, -23218.430030685508, -22998.47798826718, -22839.269007440045, -22734.914451058983, -22671.109644820724, -22629.644431970566, -22598.346849027315, -22572.515433886616, -22551.027116246063, -22533.515084264163, -22519.37960414941, -22507.389089895514, -22494.945196592424, -22476.12958677483, -22446.583123088214, -22422.530570911353, -22411.893342558193, -22407.151861581697, -22404.299457252615, -22402.14409755837, -22400.355154357014, -22398.82054472332, -22397.484814461932, -22396.31131793031, -22395.272639354673, -22394.347337567084, -22393.51830925736, -22392.77173309252, -22392.0963186163, -22391.48275284322, -22390.923285458855, -22390.411413956837, -22389.941641888596, -22389.5092912247, -22389.110355208715, -22388.741381842956, -22388.399380793722, -22388.081748385463, -22387.786206702818, -22387.510753796567, -22387.25362270398, -22387.01324752142, -22386.788235160828, -22386.577341717966, -22386.379452605637, -22386.19356577816, -22386.01877750712, -22385.854270272863, -22385.699302418405, -22385.553199277496, -22385.41534554039, -22385.285178662638, -22385.162183155768, -22385.045885626052, -22384.93585044975, -22384.831675991547, -22384.732991287867, -22384.63945312907, -22384.550743485015, -22384.466567226744, -22384.386650104465, -22384.310736947762, -22384.23859005909, -22384.16998777576, -22384.104723179305, -22384.042602933856, -22383.983446238035, -22383.927083876788, -22383.873357361517, -22383.822118148386, -22383.773226926118, -22383.726552965567, -22383.68197352453, -22383.639373301925, -22383.5986439363, -22383.559683544234, -22383.522396294677, -22383.486692015787, -22383.452485831294, -22383.41969782352, -22383.388252720848, -22383.358079607424, -22383.3291116531, -22383.301285862093, -22383.2745428387, -22383.24882656873, -22383.224084215468, -22383.200265928936, -22383.17732466759, -22383.155216031428, -22383.13389810569]",False,2001-06,False,PeriodIndex,True,PeriodIndex,True
2001-08,2001-08-01,2001Q3,2,48,511,1,-22433.440264586046,93,"[-24638.78524848532, -23579.0804888978, -23269.14399847771, -23048.398413661856, -22888.772805682747, -22784.310936816764, -22720.53822763083, -22679.140020463357, -22647.921685477217, -22622.188522720146, -22600.82198327792, -22583.462645522537, -22569.554487856913, -22558.030564653756, -22546.844263398605, -22531.33757144779, -22504.802550570006, -22477.2295344261, -22463.5205313551, -22457.796991225005, -22454.69766046554, -22452.484268980872, -22450.681291449822, -22449.143326070294, -22447.80754494964, -22446.635487232885, -22445.599104434412, -22444.6766125945, -22443.850672092045, -22443.107287496565, -22442.43503983396, -22441.824523053136, -22441.26792157196, -22440.758689316106, -22440.291303074147, -22439.86107093653, -22439.463982016117, -22439.096587439817, -22438.75590527666, -22438.439343972444, -22438.14464022946, -22437.869808261697, -22437.613098083035, -22437.372961022993, -22437.148021066605, -22436.937050917604, -22436.738951915075, -22436.55273711087, -22436.377516952627, -22436.212487124532, -22436.056918182534, -22435.910146687736, -22435.77156759532, -22435.64062769909, -22435.516819966637, -22435.39967862815, -22435.28877490491, -22435.183713282273, -22435.084128247472, -22434.989681425235, -22434.90005905491, -22434.81496976141, -22434.734142579735, -22434.657325198932, -22434.5842823963, -22434.514794637216, -22434.448656819346, -22434.385677143102, -22434.32567609295, -22434.268485516022, -22434.213947786695, -22434.16191504711, -22434.112248515037, -22434.064817851693, -22434.019500582956, -22433.97618156836, -22433.93475251292, -22433.895111517526, -22433.857162664026, -22433.820815631694, -22433.785985342176, -22433.752591630287, -22433.720558938305, -22433.689816031772, -22433.660295734953, -22433.631934684323, -22433.604673098547, -22433.578454563765, -22433.553225832882, -22433.52893663784, -22433.505539513902, -22433.48298963505, -22433.461244659702, -22433.440264586046]",False,2001-07,False,PeriodIndex,True,PeriodIndex,True
2001-09,2001-09-01,2001Q3,3,48,512,1,-22457.0565801533,92,"[-24661.68478624051, -23601.584923545353, -23291.420683011158, -23070.668220671843, -22911.07089042256, -22806.704935332134, -22743.132073408546, -22701.996675329196, -22671.06028851609, -22645.600563052605, -22624.477162071165, -22607.31566432863, -22593.552769609705, -22582.115355976573, -22570.92636232964, -22555.210488711047, -22528.219544209504, -22500.580398387312, -22487.058242494448, -22481.41529113653, -22478.338635614524, -22476.130568679804, -22474.327939829476, -22472.788609167525, -22471.450687065837, -22470.27607165788, -22469.23690351034, -22468.31151861555, -22467.482659109774, -22466.736386406454, -22466.061320964633, -22465.448083632895, -22464.88887657514, -22464.37716473223, -22463.907430952, -22463.47498574792, -22463.075818010315, -22462.706476745763, -22462.36397657052, -22462.045721572184, -22461.74944351051, -22461.473151312624, -22461.21508953879, -22460.973704028038, -22460.74761333131, -22460.535584840207, -22460.33651474814, -22460.1494111566, -22459.973379775227, -22459.807611771153, -22459.651373406523, -22459.503997169897, -22459.364874160063, -22459.233447523548, -22459.109206781417, -22458.99168290908, -22458.8804440554, -22458.775091806325, -22458.675257913397, -22458.580601420486, -22458.490806132242, -22458.4055783769, -22458.32464502303, -22458.247751716095, -22458.17466130581, -22458.105152439402, -22458.039018299696, -22457.976065469844, -22457.91611290913, -22457.858991026565, -22457.804540840592, -22457.752613215114, -22457.703068163086, -22457.655774210296, -22457.610607812767, -22457.567452822175, -22457.52619999429, -22457.486746536124, -22457.448995687962, -22457.412856337032, -22457.378242659637, -22457.345073789424, -22457.313273509186, -22457.282769964426, -22457.25349539653, -22457.22538589423, -22457.198381161605, -22457.172424301498, -22457.14746161303, -22457.123442402215, -22457.10031880464, -22457.078045619382, -22457.0565801533]",False,2001-08,False,PeriodIndex,True,PeriodIndex,True
2001-10,2001-10-01,2001Q4,1,48,513,1,-22283.983682647126,93,"[-24695.431334759, -23616.040405185773, -23276.26405934208, -23013.324686407315, -22805.67616889907, -22659.600919476754, -22570.06057689682, -22518.385161902585, -22485.87109643998, -22461.905403478137, -22442.363330166492, -22426.042855899334, -22412.465953728613, -22400.71296095255, -22388.269676458418, -22368.97546489005, -22339.40916459887, -22316.947390595167, -22307.563416013356, -22303.61255255258, -22301.369968223305, -22299.733809284175, -22298.396333792713, -22297.254360369967, -22296.25915566104, -22295.380340702406, -22294.59631812915, -22293.890901983574, -22293.251643950844, -22292.668798678074, -22292.13462119564, -22291.64287098601, -22291.18845458852, -22290.767164139543, -22290.375483615884, -22290.01044355488, -22289.669510925956, -22289.350504786154, -22289.05153105122, -22288.770931580184, -22288.507244078188, -22288.259170248253, -22288.025550285653, -22287.805342288113, -22287.59760550495, -22287.401486606268, -22287.216208344544, -22287.041060124375, -22286.875390104084, -22286.718598535066, -22286.570132107256, -22286.429479117673, -22286.29616531606, -22286.169750311055, -22286.049824442824, -22285.936006046282, -22285.827939043087, -22285.725290812035, -22285.627750296226, -22285.53502631315, -22285.44684603896, -22285.362953643722, -22285.283109057586, -22285.207086851537, -22285.134675218564, -22285.065675043305, -22284.999899050257, -22284.937171021666, -22284.877325077712, -22284.820205012602, -22284.765663680846, -22284.713562429, -22284.663770568477, -22284.61616488581, -22284.570629186957, -22284.52705387274, -22284.485335542922, -22284.445376626383, -22284.407085035647, -22284.370373843445, -22284.33516098011, -22284.30136894992, -22284.268924565164, -22284.237758696654, -22284.20780603952, -22284.179004893267, -22284.151296955082, -22284.124627125544, -22284.09894332596, -22284.074196326474, -22284.050339584363, -22284.027329091816, -22284.0051232326, -22283.983682647126]",False,2001-09,False,PeriodIndex,True,PeriodIndex,True
2001-11,2001-11-01,2001Q4,2,48,514,1,-22373.44119719952,94,"[-24798.269652936422, -23710.156745395463, -23363.950153827118, -23097.27188933425, -22888.316146075238, -22742.720330424065, -22654.414170618234, -22603.924393343208, -22572.348177582156, -22549.17188722307, -22530.341288230367, -22514.67666436221, -22501.799561449807, -22491.16854204391, -22481.46833542065, -22469.38324464905, -22447.972045900613, -22418.987440704528, -22401.321753606346, -22394.446642725376, -22391.438084245787, -22389.615354113546, -22388.225528632756, -22387.06025728867, -22386.04814464233, -22385.154187068118, -22384.355873322493, -22383.636834871355, -22382.984578197393, -22382.38933565168, -22381.843341875054, -22381.340334664703, -22380.875197638954, -22380.44369932993, -22380.042299949353, -22379.66800651548, -22379.31826301859, -22378.990866277934, -22378.68390084275, -22378.395688153338, -22378.124746481386, -22377.86975909114, -22377.62954872338, -22377.403056981413, -22377.18932754686, -22376.98749240947, -22376.79676048577, -22376.616408144153, -22376.44577126122, -22376.284238516324, -22376.131245693352, -22375.986270806945, -22375.84882990783, -22375.71847345055, -22375.594783129898, -22375.47736911001, -22375.36586758452, -22375.25993861713, -22375.159264221125, -22375.0635466437, -22374.972506826445, -22374.885883018527, -22374.803429522573, -22374.72491555655, -22374.650124217656, -22374.57885153604, -22374.51090560827, -22374.446105801653, -22374.384282022016, -22374.325274038187, -22374.268930857757, -22374.215110148947, -22374.16367770443, -22374.114506943184, -22374.06747844707, -22374.02247952902, -22373.979403830504, -22373.93815094549, -22373.898626069065, -22373.860739668766, -22373.824407176748, -22373.78954870146, -22373.756088757265, -22373.72395601069, -22373.69308304236, -22373.663406123225, -22373.634865004376, -22373.607402719426, -22373.580965398614, -22373.555502093906, -22373.53096461439, -22373.50730737134, -22373.48448723218, -22373.46246338312, -22373.44119719952]",False,2001-10,False,PeriodIndex,True,PeriodIndex,True
2001-12,2001-12-01,2001Q4,3,48,515,1,-22812.468637894766,100,"[-25238.662228611316, -24166.804211775358, -23816.65923638533, -23546.649770977903, -23335.297797976153, -23188.704831727882, -23099.99045181664, -23048.760411059295, -23016.12461397111, -22991.90326964384, -22972.23121350272, -22955.96899530499, -22942.69020458122, -22931.728379602166, -22921.49117349153, -22907.9735075024, -22883.977549364477, -22855.532709057057, -22840.357420434055, -22834.493288542883, -22831.748207483066, -22829.96959401027, -22828.56635539463, -22827.371529497606, -22826.324279846267, -22825.392887362137, -22824.556295988164, -22823.79898466779, -22823.10900663797, -22822.476949061278, -22821.895267979045, -22821.357828575245, -22820.859576109637, -22820.396295465383, -22819.964432645807, -22819.560960434424, -22819.183276033793, -22818.829122178762, -22818.496525694918, -22818.183749168616, -22817.889252574605, -22817.611662539537, -22817.349747514018, -22817.102397555827, -22816.86860774074, -22816.647464448935, -22816.43813394758, -22816.239852819625, -22816.051919886813, -22815.87368934986, -22815.704564926287, -22815.5439948107, -22815.39146731711, -22815.24650709013, -22815.108671793052, -22814.977549197993, -22814.852754616804, -22814.73392862218, -22814.620735017237, -22814.512859018814, -22814.410005625563, -22814.311898146494, -22814.2182768695, -22814.128897852654, -22814.043531823416, -22813.961963173388, -22813.88398903771, -22813.809418450008, -22813.738071564796, -22813.669778940523, -22813.60438087712, -22813.541726802912, -22813.48167470619, -22813.4240906074, -22813.368848068407, -22813.315827735518, -22813.264916913588, -22813.21600916856, -22813.169003956176, -22813.12380627488, -22813.08032634102, -22813.038479284653, -22812.998184864562, -22812.959367200958, -22812.92195452468, -22812.88587894184, -22812.851076212697, -22812.817485543856, -22812.78504939301, -22812.75371328528, -22812.723425640415, -22812.694137610226, -22812.66580292554, -22812.638377752115, -22812.611820554892, -22812.58609197023, -22812.56115468539, -22812.536973325055, -22812.513514344326, -22812.490745927855, -22812.468637894766]",False,2001-11,False,PeriodIndex,True,PeriodIndex,True
2002-01,2002-01-01,2002Q1,1,48,516,1,-22884.789501049316,100,"[-25308.96911605024, -24234.64079589318, -23884.84391135668, -23615.334117381626, -23404.399092639902, -23258.138971902958, -23169.8371457982, -23119.21260260249, -23087.30011276626, -23063.791688378697, -23044.746542660047, -23029.018029878265, -23016.24921584819, -23005.984582565456, -22997.25261583046, -22987.9135863536, -22972.75762611182, -22945.892380063087, -22920.978589655082, -22909.925252944864, -22905.626191333933, -22903.414167668965, -22901.858257437023, -22900.578922401295, -22899.467009938857, -22898.479851715456, -22897.593424558803, -22896.790977994533, -22896.059796762514, -22895.389890442704, -22894.773256937508, -22894.20339212504, -22893.674941061166, -22893.183442711146, -22892.725139946175, -22892.296836240097, -22891.89578632384, -22891.519611853488, -22891.166235716897, -22890.83383037565, -22890.52077687996, -22890.22563207434, -22889.94710214326, -22889.684021104367, -22889.435333192458, -22889.200078325484, -22888.977380029217, -22888.76643533626, -22888.566506280862, -22888.37691269136, -22888.197026044363, -22888.02626419228, -22887.86408681394, -22887.70999146637, -22887.56351013983, -22887.42420623585, -22887.291671902836, -22887.16552567559, -22887.045410374143, -22886.93099122532, -22886.821954176092, -22886.718004373513, -22886.618864789154, -22886.524274970325, -22886.43398990246, -22886.34777896969, -22886.265425002326, -22886.186723401726, -22886.111481334323, -22886.03951698762, -22885.970658881986, -22885.904745232805, -22885.841623358378, -22885.781149129267, -22885.72318645556, -22885.667606808674, -22885.614288775, -22885.563117638652, -22885.513984991074, -22885.4667883655, -22885.42143089435, -22885.37782098786, -22885.335872032472, -22885.295502107583, -22885.256633719364, -22885.21919355048, -22885.183112224775, -22885.14832408572, -22885.11476698793, -22885.082382100867, -22885.051113723872, -22885.02090911194, -22884.991718311514, -22884.963494005686, -22884.936191368248, -22884.909767926103, -22884.884183429414, -22884.859399729183, -22884.83538066173, -22884.81209193974, -22884.789501049316]",False,2001-12,False,PeriodIndex,True,PeriodIndex,True
2002-02,2002-02-01,2002Q1,2,48,517,1,-22931.8143531043,100,"[-25362.091636436722, -24285.40931319497, -23934.820561124205, -23664.450659140464, -23452.620626044467, -23305.636619761626, -23216.91068312052, -23166.095927789283, -23134.117019056666, -23110.609832223025, -23091.617196436873, -23075.996984898688, -23063.4233077943, -23053.535525039515, -23045.650803591416, -23038.573844842977, -23029.80183844958, -23013.42667186115, -22985.724859582064, -22963.87365297066, -22954.978587447884, -22951.490855641685, -22949.60652223398, -22948.225507380586, -22947.063526200174, -22946.039389857353, -22945.120855533736, -22944.289263553597, -22943.5312822634, -22942.836592077616, -22942.196949123296, -22941.605651720096, -22941.05717874206, -22940.546927928597, -22940.071021364143, -22939.62615862293, -22939.20950455341, -22938.818602610387, -22938.45130725313, -22938.10573072289, -22937.780200771333, -22937.473226804752, -22937.18347255144, -22936.909733825938, -22936.650920306267, -22936.40604049371, -22936.174189213874, -22935.95453716052, -22935.746322091654, -22935.548841370342, -22935.361445606082, -22935.183533202282, -22935.014545653677, -22934.853963467853, -22934.701302608697, -22934.55611137898, -22934.41796767364, -22934.286476548223, -22934.16126805613, -22934.041995316256, -22933.928332779433, -22933.81997466664, -22933.716633556855, -22933.618039105513, -22933.523936877536, -22933.434087281435, -22933.348264592893, -22933.266256057737, -22933.187861065893, -22933.112890388904, -22933.041165474497, -22932.972517792827, -22932.906788229346, -22932.843826520064, -22932.783490725582, -22932.72564674027, -22932.670167833985, -22932.61693422348, -22932.565832671156, -22932.516756109173, -22932.469603286925, -22932.42427844019, -22932.380690980404, -22932.338755202705, -22932.29839001129, -22932.25951866114, -22932.222068514933, -22932.18597081404, -22932.151160462927, -22932.11757582592, -22932.085158535698, -22932.053853312704, -22932.02360779483, -22931.99437237679, -22931.966100058562, -22931.938746302392, -22931.91226889781, -22931.886627834287, -22931.861785180885, -22931.837704972844, -22931.8143531043]",False,2002-01,False,PeriodIndex,True,PeriodIndex,True
2002-03,2002-03-01,2002Q1,3,48,518,1,-22978.48860462165,100,"[-25418.12218368189, -24337.81062179968, -23985.88097769909, -23714.31448695017, -23501.502399198595, -23353.899597641976, -23264.760812813103, -23213.540818694943, -23181.152452098828, -23157.284375909403, -23137.993951004413, -23122.095111173923, -23109.134437867986, -23098.434443815688, -23088.41050152811, -23075.091354573742, -23051.24391585827, -23022.579398014626, -23007.07745042227, -23001.0710655238, -22998.273996630793, -22996.470047661358, -22995.047714565164, -22993.835077372703, -22992.770432531197, -22991.822032291144, -22990.968886537863, -22990.195510199028, -22989.489961981948, -22988.842818200374, -22988.246517928586, -22987.69490874756, -22987.18292013838, -22986.706323834595, -22986.261555298646, -22985.845578997785, -22985.45578553881, -22985.089912278705, -22984.745981437307, -22984.422251397944, -22984.1171780444, -22983.82938380559, -22983.55763267121, -22983.30080987, -22983.057905217203, -22982.82799937047, -22982.61025240701, -22982.403894265644, -22982.208216696916, -22982.022566439835, -22981.846339402357, -22981.678975668114, -22981.51995518671, -22981.368794033042, -22981.2250411424, -22981.088275445934, -22980.958103344292, -22980.8341564687, -22980.716089687434, -22980.603579322807, -22980.496321549756, -22980.39403095167, -22980.296439213143, -22980.2032939325, -22980.114357539416, -22980.029406305457, -22979.948229436777, -22979.87062824008, -22979.796415353932, -22979.72541403878, -22979.657457519697, -22979.59238837701, -22979.53005797998, -22979.47032596002, -22979.413059719707, -22979.358133974623, -22979.30543032538, -22979.254836857304, -22979.206247765684, -22979.159563004545, -22979.114687957343, -22979.071533127833, -22979.030013849766, -22978.990050014116, -22978.951565812473, -22978.91448949589, -22978.87875314768, -22978.844292469617, -22978.811046580573, -22978.77895782679, -22978.747971603036, -22978.71803618407, -22978.689102565655, -22978.661124314713, -22978.634057427902, -22978.607860198164, -22978.58249308893, -22978.557918615254, -22978.534101231693, -22978.511007226505, -22978.48860462165]",False,2002-02,False,PeriodIndex,True,PeriodIndex,True
2002-04,2002-04-01,2002Q2,1,48,519,1,-23025.283046704422,100,"[-25464.27653943545, -24379.794274224376, -24027.067232179026, -23755.911763962744, -23543.95192162569, -23397.160570903936, -23308.714111796915, -23258.09901942157, -23226.24066556112, -23202.824075851568, -23183.90037327037, -23168.271384950967, -23155.448319788255, -23144.645893443652, -23133.92798381822, -23118.36815750428, -23091.42351636182, -23064.80674703172, -23052.318771990213, -23047.383657265767, -23044.871860597283, -23043.140967537583, -23041.7417423564, -23040.54094992968, -23039.485399245183, -23038.545159429363, -23037.699629601746, -23036.933409775098, -23036.234578124735, -23035.593717852167, -23035.003275119765, -23034.457107829112, -23033.950159267457, -23033.478217842327, -23033.037737719096, -23032.62570328812, -23032.239525614103, -23031.87696250745, -23031.536056235665, -23031.215084541163, -23030.912521790888, -23030.627007908086, -23030.357323330943, -23030.10236867497, -23029.861148093765, -23029.63275556804, -23029.41636352898, -23029.211213354363, -23029.01660737655, -23028.831902118545, -23028.656502533144, -23028.489857066335, -23028.33145340162, -23028.18081477009, -23028.037496732846, -23027.901084360194, -23027.771189745512, -23027.647449803255, -23027.52952430908, -23027.417094147528, -23027.309859738554, -23027.207539618707, -23027.10986915698, -23027.016599388204, -23026.927495949793, -23026.842338109476, -23026.76091787384, -23026.683039168503, -23026.608517082594, -23026.537177170627, -23026.46885480625, -23026.403394582725, -23026.340649755934, -23026.280481725902, -23026.222759553595, -23026.167359509953, -23026.114164654446, -23026.063064440925, -23026.01395434849, -23025.966735535556, -23025.92131451538, -23025.8776028515, -23025.835516871666, -23025.794977398982, -23025.7559094991, -23025.718242242314, -23025.681908479797, -23025.646844632705, -23025.612990493722, -23025.580289039928, -23025.54868625651, -23025.518130970584, -23025.488574694384, -23025.45997147754, -23025.432277767577, -23025.405452278366, -23025.37945586599, -23025.35425141161, -23025.32980371083, -23025.306079369355, -23025.283046704422]",False,2002-03,False,PeriodIndex,True,PeriodIndex,True
2002-05,2002-05-01,2002Q2,2,48,520,1,-23078.400175866373,100,"[-25523.175063770766, -24438.474980709, -24084.78811130779, -23812.689074353384, -23599.742426466295, -23452.05859466336, -23363.028348468273, -23312.126306172097, -23280.130323632042, -23256.627677768673, -23237.627748281895, -23221.894042623542, -23208.846364144403, -23197.42786002683, -23184.83932856217, -23164.47327122924, -23134.230231374968, -23112.638105840055, -23103.766293149543, -23099.968154630504, -23097.75912656237, -23096.116783132904, -23094.755346838465, -23093.5792459835, -23092.54357509163, -23091.620359523626, -23090.789622747114, -23090.0362886253, -23089.34867035759, -23088.717544610823, -23088.135523340112, -23087.596608850727, -23087.095871377678, -23086.629211660067, -23086.1931837519, -23085.784861206375, -23085.401734914005, -23085.041634319034, -23084.70266608976, -23084.383165950356, -23084.08166052852, -23083.79683689159, -23083.527518031897, -23083.27264299139, -23083.0312506299, -23082.80246627527, -23082.58549066777, -23082.379590742898, -23082.184091895924, -23081.998371448375, -23081.821853094505, -23081.654002151852, -23081.494321474685, -23081.342347917314, -23081.19764925554, -23081.059821492232, -23080.928486486162, -23080.803289854804, -23080.683899110056, -23080.570001993172, -23080.461304981047, -23080.35753194034, -23080.258422909974, -23080.163732995716, -23080.073231362687, -23079.986700314417, -23079.90393444818, -23079.824739878182, -23079.748933519324, -23079.676342425097, -23079.606803174236, -23079.54016130141, -23079.476270767766, -23079.414993467602, -23079.356198768277, -23079.299763080126, -23079.245569454295, -23079.193507205928, -23079.143471561, -23079.095363324795, -23079.04908857055, -23079.004558346816, -23078.961688402127, -23078.920398925962, -23078.880614304635, -23078.842262891463, -23078.80527679001, -23078.76959164971, -23078.73514647306, -23078.70188343372, -23078.669747704716, -23078.638687296367, -23078.608652903076, -23078.579597758762, -23078.551477500136, -23078.524250037655, -23078.49787543345, -23078.472315785995, -23078.447535121108, -23078.42349928891, -23078.400175866373]",False,2002-04,False,PeriodIndex,True,PeriodIndex,True
2002-06,2002-06-01,2002Q2,3,48,521,1,-23134.55377512211,100,"[-25585.381865242012, -24493.744138405782, -24139.93465180513, -23868.50175603258, -23656.02030528964, -23508.42771865752, -23419.335119066996, -23368.30647869109, -23336.16967025576, -23312.54948722334, -23293.45884259414, -23277.633780187476, -23264.43691251376, -23252.668600662255, -23239.10822703137, -23216.751699841665, -23186.455315056595, -23167.188346565184, -23159.41311738062, -23155.9382059603, -23153.826374043696, -23152.224160912665, -23150.887227045925, -23149.729532559257, -23148.708637078933, -23147.79750301749, -23146.976707237467, -23146.231579285493, -23145.550748589536, -23144.925241947407, -23144.34787023408, -23143.81279472382, -23143.315213434704, -23142.851130508752, -23142.417184282567, -23142.010517528637, -23141.62867842485, -23141.269544193692, -23140.931261654474, -23140.61220052329, -23140.310916412287, -23140.026121273593, -23139.756659604776, -23139.501489147544, -23139.259665116704, -23139.030327221866, -23138.812688913524, -23138.606028412003, -23138.409681174227, -23138.22303352717, -23138.045517253046, -23137.876604955738, -23137.715806071727, -23137.562663415723, -23137.416750172193, -23137.27766726075, -23137.145041016593, -23137.018521137776, -23136.89777885971, -23136.782505323994, -23136.67241011443, -23136.567219937475, -23136.466677428165, -23136.37054006539, -23136.278579183214, -23136.19057906663, -23136.10633612208, -23136.025658114435, -23135.948363463205, -23135.874280591852, -23135.803247324977, -23135.735110328438, -23135.669724588803, -23135.606952928138, -23135.546665551316, -23135.488739622964, -23135.43305887161, -23135.379513218882, -23135.32799843182, -23135.27841579641, -23135.230671811114, -23135.184677898505, -23135.14035013416, -23135.09760899128, -23135.056379100377, -23135.01658902249, -23134.978171035647, -23134.941060933314, -23134.905197834225, -23134.870524002963, -23134.83698468047, -23134.80452792404, -23134.773104456173, -23134.742667521736, -23134.71317275303, -23134.684578042237, -23134.656843420842, -23134.62993094562, -23134.60380459092, -23134.578430146677, -23134.55377512211]",False,2002-05,False,PeriodIndex,True,PeriodIndex,True
2002-07,2002-07-01,2002Q3,1,48,522,1,-23167.983613992714,100,"[-25623.503603693465, -24531.294375816433, -24177.244393687364, -23905.40671676702, -23692.32425266055, -23544.173459304984, -23454.66967310057, -23403.294587666067, -23370.813684944424, -23346.85499886139, -23327.435191595723, -23311.23998863639, -23297.438057957028, -23284.198203357468, -23266.55983512042, -23237.96733351708, -23210.261353791437, -23197.047797193554, -23191.64128517321, -23188.827048359104, -23186.89464581173, -23185.35459679723, -23184.05146837337, -23182.919192861933, -23181.919856842942, -23181.02765983822, -23180.223699452567, -23179.49363703504, -23178.826356406396, -23178.21309036294, -23177.646819410642, -23177.121845708803, -23176.633485141534, -23176.177841179782, -23175.751636485555, -23175.352085944505, -23174.976799845295, -23174.623709274565, -23174.29100807015, -23173.977107244755, -23173.680598891307, -23173.400227362094, -23173.134866073968, -23172.883498699615, -23172.645203803237, -23172.41914220036, -23172.20454648659, -23172.000712304318, -23171.80699101063, -23171.6227834819, -23171.447534845458, -23171.280729972066, -23171.12188959585, -23170.970566954617, -23170.82634486432, -23170.68883315706, -23170.557666425688, -23170.432502027867, -23170.31301831109, -23170.198913026652, -23170.089901906118, -23169.985717378142, -23169.88610740725, -23169.79083443884, -23169.699674437543, -23169.61241600753, -23169.528859585498, -23169.448816698212, -23169.37210927751, -23169.29856902699, -23169.228036835088, -23169.160362229955, -23169.09540287244, -23169.033024083503, -23168.973098403134, -23168.91550517812, -23168.860130176225, -23168.80686522474, -23168.755607871408, -23168.70626106618, -23168.658732862117, -23168.612936134192, -23168.568788314664, -23168.52621114392, -23168.485130435743, -23168.445475856053, -23168.407180714286, -23168.370181766524, -23168.334419029772, -23168.29983560657, -23168.266377519416, -23168.233993554364, -23168.20263511317, -23168.172256073725, -23168.14281265802, -23168.114263307383, -23168.08656856451, -23168.059690961916, -23168.033594916436, -23168.008246629495, -23167.983613992714]",False,2002-06,False,PeriodIndex,True,PeriodIndex,True
2002-08,2002-08-01,2002Q3,2,48,523,1,-23210.368635692488,100,"[-25671.505067759674, -24579.05875245334, -24224.63393443822, -23952.10288090839, -23738.051436159443, -23588.90055378608, -23498.57797426038, -23446.637399275787, -23413.800680881042, -23389.632827366433, -23370.132798961662, -23354.04557637825, -23340.75426229444, -23329.12264727034, -23316.16186758554, -23295.054288989617, -23264.693390429522, -23243.95893586353, -23235.533485851276, -23231.892287531307, -23229.754904449153, -23228.158088044594, -23226.830089434734, -23225.679279441116, -23224.662616565372, -23223.75343852187, -23222.932802889627, -23222.186457671407, -23221.503369603197, -23220.874831585992, -23220.293862922397, -23219.754787689097, -23219.252930906205, -23218.784395698196, -23218.345897455147, -23217.93463881881, -23217.548214343773, -23217.184537011093, -23216.841781023097, -23216.51833685779, -23216.21277564489, -23215.923820694086, -23215.650324557155, -23215.39125040596, -23215.1456568016, -23214.91268514729, -23214.691549279178, -23214.481526771982, -23214.28195162811, -23214.092208090096, -23213.9117253703, -23213.739973133986, -23213.576457604446, -23213.420718184832, -23213.272324511294, -23213.130873868075, -23212.995988908086, -23212.867315632397, -23212.744521590677, -23212.62729427067, -23212.51533965065, -23212.40838089282, -23212.30615715924, -23212.20842253498, -23212.11494504514, -23212.02550575496, -23211.93989794328, -23211.857926341418, -23211.779406430454, -23211.704163790935, -23211.6320334997, -23211.56285956951, -23211.496494427174, -23211.432798427188, -23211.37163939722, -23211.312892213376, -23211.256438402244, -23211.202165768103, -23211.14996804292, -23211.0997445578, -23211.051399934033, -23211.004843792543, -23210.95999048036, -23210.916758813037, -23210.875071831764, -23210.83485657457, -23210.796043860297, -23210.758568084893, -23210.722367029033, -23210.68738167647, -23210.653556042504, -23210.62083701183, -23210.589174185407, -23210.558519735638, -23210.528828269504, -23210.500056699122, -23210.472164119405, -23210.445111692236, -23210.418862537088, -23210.39338162737, -23210.368635692488]",False,2002-07,False,PeriodIndex,True,PeriodIndex,True
2002-09,2002-09-01,2002Q3,3,48,524,1,-23255.854569815645,100,"[-25728.043903435613, -24633.054131532102, -24276.610049454343, -24001.982786481844, -23786.223460778652, -23636.058098916947, -23545.20000024236, -23492.893552730726, -23459.772660852905, -23435.4174434699, -23415.84598914349, -23399.83324904686, -23386.864710455673, -23376.15728924585, -23365.89822914848, -23351.583430614082, -23326.1265936906, -23298.13522214605, -23283.97510081982, -23278.48507259132, -23275.865128978166, -23274.142255870967, -23272.770333938177, -23271.59355141445, -23270.555116839932, -23269.625626984507, -23268.785647257013, -23268.020855366078, -23267.320208941994, -23266.674988446037, -23266.078189904834, -23265.524105604498, -23265.00802347007, -23264.52600682057, -23264.07473040247, -23263.651356657043, -23263.253441217348, -23262.87885993391, -23262.525751951634, -23262.192474886604, -23261.877569216715, -23261.57972975378, -23261.297782605685, -23261.030666429077, -23260.777417061254, -23260.537154832084, -23260.30907401658, -23260.092434008202, -23259.88655188405, -23259.690796102706, -23259.50458112925, -23259.327362823267, -23259.15863445853, -23258.997923267998, -23258.84478742841, -23258.698813414285, -23258.559613664096, -23258.426824511545, -23258.300104342976, -23258.17913194883, -23258.06360504215, -23257.9532389218, -23257.847765261493, -23257.746931008813, -23257.650497380735, -23257.558238944217, -23257.469942772193, -23257.385407666556, -23257.304443440975, -23257.226870257367, -23257.152518010647, -23257.081225757083, -23257.0128411822, -23256.94722010459, -23256.88422601261, -23256.82372963101, -23256.765608515176, -23256.709746670713, -23256.656034196414, -23256.604366948864, -23256.5546462271, -23256.5067784759, -23256.460675006325, -23256.416251732462, -23256.373428923223, -23256.33213096823, -23256.2922861568, -23256.253826469452, -23256.216687380824, -23256.180807673554, -23256.146129262444, -23256.112597028125, -23256.080158659915, -23256.048764507104, -23256.018367438395, -23255.988922708802, -23255.960387833875, -23255.93272247054, -23255.90588830444, -23255.879848943227, -23255.854569815645]",False,2002-08,False,PeriodIndex,True,PeriodIndex,True
2002-10,2002-10-01,2002Q4,1,48,525,1,-23302.80387981434,100,"[-25778.45560844953, -24682.20680995197, -24325.462038117737, -24050.030966575567, -23833.35889347185, -23682.557327373575, -23591.375036229587, -23538.927674406597, -23505.766335410426, -23481.42853955614, -23461.896855663137, -23445.909051424147, -23432.903182481434, -23421.997777401535, -23411.082680117255, -23394.92596834235, -23367.421168971898, -23341.469045610156, -23329.556730216776, -23324.85414309867, -23322.462807809112, -23320.815461410722, -23319.48004888182, -23318.328474578477, -23317.31050333008, -23316.39852023814, -23315.573801327228, -23314.82244826776, -23314.13372963924, -23313.49916979821, -23312.911960099107, -23312.366550724048, -23311.85835811287, -23311.383550854618, -23310.938890466827, -23310.521611356555, -23310.129329207608, -23309.7599702803, -23309.411716287974, -23309.08296100617, -23308.772275809722, -23308.478382067307, -23308.200128849472, -23307.936474787282, -23307.686473198402, -23307.449259803747, -23307.22404251245, -23307.01009286927, -23306.80673884611, -23306.613358727518, -23306.429375891406, -23306.254254326774, -23306.08749476127, -23305.928631296596, -23305.77722846847, -23305.632878664015, -23305.495199840974, -23305.363833503747, -23305.238442898466, -23305.118711396328, -23305.004341039035, -23304.895051225016, -23304.79057751795, -23304.690670562588, -23304.595095094628, -23304.503629033818, -23304.416062650736, -23304.332197799253, -23304.251847207684, -23304.17483382269, -23304.100990200663, -23304.030157941997, -23303.96218716444, -23303.896936011923, -23303.834270195726, -23303.77406256549, -23303.71619270739, -23303.660546567444, -23303.607016098096, -23303.55549892621, -23303.50589804091, -23303.458121499996, -23303.412082153536, -23303.367697383375, -23303.324888857827, -23303.28358230015, -23303.243707270252, -23303.20519695859, -23303.167987991656, -23303.132020248184, -23303.0972366856, -23303.063583175957, -23303.031008350954, -23302.999463455264, -23302.96890220807, -23302.93928067191, -23302.910557128787, -23302.882691962852, -23302.855647549513, -23302.829388150458, -23302.80387981434]",False,2002-09,False,PeriodIndex,True,PeriodIndex,True
2002-11,2002-11-01,2002Q4,2,48,526,1,-23355.23327736152,100,"[-25832.51585276871, -24734.791817933663, -24377.130545766027, -24101.162573769245, -23884.145733047833, -23733.176804294617, -23642.052839393673, -23589.862954421442, -23557.07316741032, -23533.13818593275, -23513.968038255683, -23498.22446587494, -23485.234090204915, -23473.836588935712, -23461.022092990268, -23439.90931198081, -23409.394078992016, -23388.597093199114, -23380.191107680672, -23376.599589176185, -23374.519420472352, -23372.974565135235, -23371.689773029502, -23370.573719440137, -23369.584628932378, -23368.697140789423, -23367.89342761921, -23367.160146380724, -23366.48699460537, -23365.86585145467, -23365.29020748256, -23364.754766957587, -23364.25516295209, -23363.78774931425, -23363.349446401495, -23362.93762512334, -23362.550018716563, -23362.18465487336, -23361.839802990704, -23361.51393277844, -23361.20568148553, -23360.913827726246, -23360.637270404106, -23360.375011605018, -23360.126142605004, -23359.889832338973, -23359.665317828367, -23359.451896177903, -23359.248917837467, -23359.055780890587, -23358.87192618085, -23358.696833126494, -23358.530016103297, -23358.37102129977, -23358.21942396681, -23358.074825998836, -23357.93685379495, -23357.80515635793, -23357.679403596318, -23357.559284800976, -23357.44450727205, -23357.334795076473, -23357.22988791931, -23357.12954011474, -23357.033519644792, -23356.941607295656, -23356.85359586291, -23356.769289418236, -23356.688502631154, -23356.6110601403, -23356.536795969376, -23356.465552983675, -23356.397182383254, -23356.33154322985, -23356.268502004394, -23356.20793219273, -23356.14971389729, -23356.093733472542, -23356.03988318269, -23355.98806087971, -23355.938169700443, -23355.890117781324, -23355.84381798957, -23355.79918766976, -23355.75614840467, -23355.71462578966, -23355.67454921954, -23355.635851687242, -23355.59846959368, -23355.562342567835, -23355.527413296826, -23355.493627365053, -23355.460933102127, -23355.42928143892, -23355.398625771366, -23355.368921831585, -23355.340127565807, -23355.312203018842, -23355.285110224762, -23355.258813103246, -23355.23327736152]",False,2002-10,False,PeriodIndex,True,PeriodIndex,True
2002-12,2002-12-01,2002Q4,3,49,527,1,-24060.85890725531,100,"[-26507.90246350909, -25441.97117911198, -25114.513752289546, -24856.358249735655, -24641.396547097662, -24478.371536790874, -24370.1178246843, -24305.363468719035, -24267.252638120674, -24242.660198135658, -24224.49427300696, -24209.801788518897, -24197.592417798856, -24187.554406103136, -24179.396232359963, -24172.466651500858, -24165.256365527395, -24153.897647414677, -24131.198608588806, -24102.941075383016, -24087.69295034769, -24082.05961639556, -24079.629863283444, -24078.13063437868, -24076.94697162245, -24075.918589556557, -24074.99624968146, -24074.158228780725, -24073.391056536544, -24072.684816944333, -24072.031713959623, -24071.425441563402, -24070.860810878694, -24070.333494852828, -24069.83984284754, -24069.376742247376, -24068.94151337873, -24068.531828660492, -24068.145649693146, -24067.781177811255, -24067.43681485839, -24067.11113180317, -24066.802843424477, -24066.51078773377, -24066.233909122762, -24065.971244462424, -24065.721911555847, -24065.485099480662, -24065.260060457935, -24065.046102961816, -24064.84258584332, -24064.648913288285, -24064.46453046494, -24064.288919744882, -24064.12159740366, -24063.96211072418, -24063.81003544075, -24063.66497347227, -24063.526550902407, -24063.394416171577, -24063.26823845161, -24063.147706178755, -24063.03252572439, -24062.922420186365, -24062.817128286162, -24062.716403359533, -24062.620012429947, -24062.527735355765, -24062.43936404326, -24062.3547017187, -24062.27356225361, -24062.195769538128, -24062.12115689785, -24062.049566550366, -24061.98084909788, -24061.914863052916, -24061.851474394345, -24061.79055615137, -24061.731988013147, -24061.675655962274, -24061.62145193023, -24061.569273473302, -24061.51902346746, -24061.470609820928, -24061.4239452033, -24061.37894679004, -24061.335536021328, -24061.293638374587, -24061.25318314946, -24061.214103264825, -24061.1763350669, -24061.13981814784, -24061.104495174317, -24061.0703117252, -24061.037216138262, -24061.005159364893, -24060.97409483285, -24060.943978316165, -24060.91476781217, -24060.886423425, -24060.85890725531]",False,2002-11,False,PeriodIndex,True,PeriodIndex,True
2003-01,2003-01-01,2003Q1,1,49,528,1,-24107.93381859288,100,"[-26560.141791162765, -25492.191721740543, -25164.980981846886, -24906.784870039715, -24691.288620170577, -24527.430795843087, -24418.305959201465, -24352.879578487402, -24314.398898975032, -24289.675207710046, -24271.50846990953, -24256.876986475218, -24244.765377643675, -24234.87129671381, -24226.958566398, -24220.542531252264, -24214.64145687822, -24207.028676326696, -24192.144077990924, -24164.916809591603, -24141.15862036401, -24131.170584083047, -24127.4749974827, -24125.657874769415, -24124.39111017627, -24123.33246630201, -24122.391531047288, -24121.537860275457, -24120.756195092883, -24120.036243232888, -24119.370110779942, -24118.7514477116, -24118.175031910236, -24117.63650583109, -24117.132189680513, -24116.65894281981, -24116.214058688773, -24115.79518398682, -24115.400255784807, -24115.02745208616, -24114.675152596137, -24114.341907319373, -24114.026411215837, -24113.727483585288, -24113.44405117095, -24113.17513421006, -24112.91983483561, -24112.67732736651, -24112.446850123983, -24112.227698489653, -24112.01921897906, -24111.82080415138, -24111.63188821091, -24111.45194318465, -24111.28047558177, -24111.1170234588, -24110.96115382785, -24110.81246035661, -24110.670561317682, -24110.535097752094, -24110.4057318176, -24110.282145297373, -24110.164038248302, -24110.051127771614, -24109.943146890968, -24109.839843525464, -24109.740979546827, -24109.646329911528, -24109.55568185987, -24109.468834175197, -24109.38559649715, -24109.30578868388, -24109.229240218563, -24109.155789656204, -24109.085284107245, -24109.017578754814, -24108.95253640281, -24108.8900270524, -24108.829927504667, -24108.772120987458, -24108.716496804587, -24108.662950005815, -24108.611381076174, -24108.56169564327, -24108.513804201284, -24108.46762185073, -24108.423068052805, -24108.380066397473, -24108.338544384394, -24108.298433216034, -24108.259667601902, -24108.222185573715, -24108.18592831038, -24108.15083997258, -24108.116867546196, -24108.083960694174, -24108.052071616294, -24108.021154916438, -24107.991167476917, -24107.96206833954, -24107.93381859288]",False,2002-12,False,PeriodIndex,True,PeriodIndex,True
2003-02,2003-02-01,2003Q1,2,49,529,1,-24144.389494515148,100,"[-26602.44568892432, -25533.06749375348, -25205.365812258817, -24946.795056626415, -24730.78036925919, -24566.248727720435, -24456.426836767492, -24390.438895777566, -24351.600722096155, -24326.668554850054, -24308.338864579768, -24293.480189093512, -24280.934422903265, -24270.127314066856, -24260.0973777544, -24248.07150686009, -24227.350447678, -24197.076686057644, -24176.537589341187, -24168.346454054685, -24164.932629137435, -24162.996031083385, -24161.5659303672, -24160.372732780204, -24159.33007819626, -24158.400245696757, -24157.56105760076, -24156.797131060088, -24156.096980345872, -24155.451709346737, -24154.854263737558, -24154.298946809227, -24153.78108660855, -24153.29679909978, -24152.84281552858, -24152.41635415957, -24152.01502345789, -24151.636748010747, -24151.27971117515, -24150.942310206465, -24150.623120814467, -24150.32086891682, -24150.03440793943, -24149.76270042818, -24149.50480303791, -24149.259854186555, -24149.027063826838, -24148.80570491172, -24148.59510622335, -24148.394646306406, -24148.203748301494, -24148.0218755163, -24147.848527605347, -24147.683237254234, -24147.525567284967, -24147.375108114393, -24147.23147551043, -24147.094308601103, -24146.963268098938, -24146.838034710094, -24146.718307702846, -24146.603803613772, -24146.494255074176, -24146.389409741554, -24146.289029323256, -24146.19288868195, -24146.10077501313, -24146.012487087355, -24145.92783454989, -24145.846637272294, -24145.76872475054, -24145.693935545467, -24145.622116761493, -24145.55312356022, -24145.48681870602, -24145.423072140744, -24145.361760585314, -24145.30276716598, -24145.245981063577, -24145.191297183635, -24145.13861584627, -24145.087842494206, -24145.0388874177, -24144.991665495283, -24144.946095949203, -24144.90210211467, -24144.859611222044, -24144.818554190948, -24144.778865435943, -24144.740482682675, -24144.703346794144, -24144.66740160636, -24144.63259377286, -24144.59887261763, -24144.56618999588, -24144.53450016227, -24144.503759646133, -24144.473927133382, -24144.444963354646, -24144.416830979302, -24144.389494515148]",False,2003-01,False,PeriodIndex,True,PeriodIndex,True
2003-03,2003-03-01,2003Q1,3,49,530,1,-24199.551424363373,100,"[-26665.51581700723, -25592.297231901266, -25262.720056851642, -25002.484921254338, -24785.497541236164, -24620.877616776932, -24511.494487902266, -24445.93175413055, -24407.288208088834, -24382.375245998104, -24363.98167801649, -24349.020470761898, -24336.330897099204, -24325.263704383426, -24314.57026814096, -24300.577572707745, -24275.96769548982, -24245.843956732377, -24229.128171433673, -24222.649459426255, -24219.740239185074, -24217.94932414795, -24216.57353768329, -24215.411079730053, -24214.39144562956, -24213.480760126346, -24212.65801553068, -24211.908364340197, -24211.220665104433, -24210.586280895433, -24209.99836459129, -24209.451389819078, -24208.94082716428, -24208.46291350076, -24208.014483782797, -24207.592846060197, -24207.19568714266, -24206.821000438875, -24206.467030110933, -24206.13222740398, -24205.815216172527, -24205.514765426513, -24205.229767285968, -24204.959219137636, -24204.70220908199, -24204.45790397501, -24204.22553953068, -24204.004412070575, -24203.793871598344, -24203.59331594676, -24203.402185798022, -24203.21996041937, -24203.046153988216, -24202.880312405618, -24202.72201051687, -24202.570849673346, -24202.42645558172, -24202.288476396963, -24202.156581022817, -24202.030457590197, -24201.909812088474, -24201.794367129383, -24201.68386082609, -24201.578045772905, -24201.476688113456, -24201.37956668685, -24201.286472243002, -24201.197206719393, -24201.111582572827, -24201.029422160565, -24200.95055716584, -24200.874828063545, -24200.802083622286, -24200.732180439692, -24200.664982507944, -24200.60036080695, -24200.538192923137, -24200.478362691465, -24200.42075985923, -24200.365279769794, -24200.311823064872, -24200.260295404063, -24200.210607200344, -24200.162673370665, -24200.116413100324, -24200.071749620536, -24200.028609998106, -24199.98692493671, -24199.946628588812, -24199.90765837775, -24199.86995482938, -24199.833461412574, -24199.7981243883, -24199.763892666517, -24199.73071767071, -24199.698553209462, -24199.66735535474, -24199.637082326517, -24199.607694383427, -24199.579153718994, -24199.551424363373]",False,2003-02,False,PeriodIndex,True,PeriodIndex,True
2003-04,2003-04-01,2003Q2,1,49,531,1,-24225.233954913274,100,"[-26693.064158604793, -25617.577284506275, -25288.235514647342, -25027.920078934152, -24810.692921904538, -24645.86395963233, -24536.460955631243, -24471.04990206779, -24432.612306165873, -24407.89094432426, -24389.665995506326, -24374.87115875502, -24362.399851968614, -24351.752437273524, -24342.144892124612, -24331.334629888795, -24313.40324541532, -24284.000883881552, -24260.07765144544, -24249.96321779667, -24245.973705731958, -24243.902974860917, -24242.451576381813, -24241.26111117539, -24240.224544320947, -24239.29999426417, -24238.464731078944, -24237.70350999249, -24237.00506585549, -24236.360695837226, -24235.763501210527, -24235.207909430323, -24234.6893483573, -24234.204014991956, -24233.74870697967, -24233.32069742766, -24232.917640408636, -24232.537498660808, -24232.178487617362, -24231.839031621515, -24231.517729345753, -24231.21332623685, -24230.92469237442, -24230.650804535802, -24230.39073155539, -24230.143622282638, -24229.908695604572, -24229.68523211925, -24229.472567138135, -24229.27008476464, -24229.077212849937, -24228.893418667874, -24228.71820518306, -24228.551107810985, -24228.39169158876, -24228.239548690406, -24228.09429623285, -24227.95557432864, -24227.823044349036, -24227.696387367752, -24227.57530276009, -24227.459506937048, -24227.348732196766, -24227.242725678665, -24227.14124840795, -24227.044074419788, -24226.95098995421, -24226.861792714062, -24226.77629117922, -24226.694303971384, -24226.615659264527, -24226.540194236426, -24226.4677545577, -24226.398193914876, -24226.33137356449, -24226.26716191576, -24226.205434139316, -24226.14607180007, -24226.088962512273, -24226.033999615167, -24225.981081867634, -24225.930113160626, -24225.881002246002, -24225.833662480756, -24225.788011585588, -24225.743971416858, -24225.70146775116, -24225.66043008159, -24225.6207914251, -24225.582488140266, -24225.54545975481, -24225.509648802283, -24225.475000667448, -24225.441463439867, -24225.408987775132, -24225.3775267634, -24225.347035804847, -24225.31747249158, -24225.288796495697, -24225.26096946317, -24225.233954913274]",False,2003-03,False,PeriodIndex,True,PeriodIndex,True
2003-05,2003-05-01,2003Q2,2,49,532,1,-24257.695773971616,100,"[-26735.60066099417, -25653.020400033492, -25323.309345213525, -25062.467589235734, -24844.53008801753, -24679.031465237902, -24569.109857233638, -24503.380973465377, -24464.827375094857, -24440.13816338245, -24422.036168832423, -24407.419469784913, -24395.16392822931, -24384.781691231972, -24375.587643800925, -24365.70371777917, -24349.96571190461, -24322.08782628138, -24295.41183007118, -24283.22056512031, -24278.56726312042, -24276.33569768392, -24274.85829854254, -24273.67303642696, -24272.647676712673, -24271.73470654824, -24270.91023747868, -24270.15884117951, -24269.46927504821, -24268.832899704088, -24268.242885003816, -24267.693724035405, -24267.180905469453, -24266.7006820101, -24266.24990211142, -24265.825885179576, -24265.426327513913, -24265.049230440898, -24264.6928447485, -24264.355627265744, -24264.036206603494, -24263.73335587899, -24263.445970815505, -24263.173052014048, -24262.913690489404, -24262.667055779246, -24262.432386095963, -24262.208980110936, -24261.99619005248, -24261.793415867243, -24261.600100248288, -24261.415724373783, -24261.239804231634, -24261.071887430484, -24260.911550416564, -24260.758396031175, -24260.6120513557, -24260.472165800773, -24260.338409403517, -24260.210471303573, -24260.08805837307, -24259.970893979953, -24259.858716867566, -24259.751280135803, -24259.648350311447, -24259.54970649739, -24259.455139591548, -24259.364451567926, -24259.277454813127, -24259.19397151257, -24259.113833081472, -24259.036879636194, -24258.96295950219, -24258.891928755213, -24258.82365079276, -24258.757995933316, -24258.69484104083, -24258.634069172673, -24258.575569248947, -24258.519235741725, -24258.464968382574, -24258.412671887127, -24258.36225569547, -24258.313633727186, -24258.26672415022, -24258.22144916246, -24258.1777347853, -24258.135510668504, -24258.09470990549, -24258.05526885855, -24258.017126993334, -24257.98022672209, -24257.94451325504, -24257.909934459654, -24257.8764407271, -24257.84398484568, -24257.812521880744, -24257.782009060786, -24257.752405669373, -24257.72367294257, -24257.695773971616]",False,2003-04,False,PeriodIndex,True,PeriodIndex,True
2003-06,2003-06-01,2003Q2,3,49,533,1,-24353.536438847426,100,"[-26849.232489392234, -25766.077492002245, -25429.36811576795, -25162.672740603724, -24941.53420078668, -24774.563047324606, -24664.1401442606, -24598.32329613348, -24559.80767930331, -24535.196749007642, -24517.172883357893, -24502.61625098459, -24490.43607395319, -24480.24575143798, -24471.59879372562, -24463.32272901552, -24452.183940584808, -24431.178663363196, -24401.59707551862, -24382.845550673344, -24375.54589774288, -24372.561378079638, -24370.896385818054, -24369.666699450016, -24368.63013001068, -24367.713282233206, -24366.886491233883, -24366.133053824837, -24365.441425174027, -24364.802875692774, -24364.210538201827, -24363.658888521277, -24363.143409567274, -24362.66035649417, -24362.206586216642, -24361.779430867708, -24361.37660233157, -24360.99611926356, -24360.63625066351, -24360.29547180486, -24359.97242949488, -24359.665914453526, -24359.37483917248, -24359.098220027394, -24358.835162716452, -24358.58485031859, -24358.346533429307, -24358.119521954504, -24357.903178236404, -24357.69691125587, -24357.50017171019, -24357.312447806915, -24357.13326164687, -24356.962166094876, -24356.79874205622, -24356.642596092926, -24356.493358325846, -24356.350680578696, -24356.21423472791, -24356.083711228428, -24355.958817790786, -24355.83927818881, -24355.724831180778, -24355.615229529347, -24355.510239108236, -24355.40963808517, -24355.313216171977, -24355.220773934787, -24355.132122157287, -24355.04708125173, -24354.965480712726, -24354.88715860955, -24354.81196111344, -24354.7397420564, -24354.670362518864, -24354.603690443648, -24354.539600273998, -24354.477972613662, -24354.418693907373, -24354.36165614012, -24354.306756553742, -24354.25389737963, -24354.202985586446, -24354.15393264172, -24354.106654286465, -24354.061070321935, -24354.017104407714, -24353.97468387049, -24353.933739522818, -24353.894205491255, -24353.85601905336, -24353.81912048303, -24353.78345290362, -24353.748962148624, -24353.715596629147, -24353.68330720821, -24353.652047081225, -24353.621771662332, -24353.592438476535, -24353.56400705698, -24353.536438847426]",False,2003-05,False,PeriodIndex,True,PeriodIndex,True
2003-07,2003-07-01,2003Q3,1,49,534,1,-24393.622776762757,100,"[-26894.99518095728, -25809.59067229768, -25471.889299785515, -25204.322295899085, -24982.504253610467, -24815.09082438222, -24704.436454169023, -24638.50674608157, -24599.924579731123, -24575.25925889395, -24557.169285226635, -24542.497276394657, -24530.073542489048, -24519.315411535783, -24509.200570001613, -24496.736051580407, -24475.060357648188, -24444.668664501925, -24424.785066941502, -24416.805134471542, -24413.467183176414, -24411.601851633874, -24410.244751696657, -24409.12033626456, -24408.139945746767, -24407.26578449844, -24406.47625855133, -24405.756649610514, -24405.096071118565, -24404.4861431672, -24403.920255721972, -24403.393098019456, -24402.90033669358, -24402.438387209, -24402.004247462057, -24401.595374327866, -24401.20959064978, -24400.845014248895, -24400.500003126734, -24400.173112741497, -24399.86306239177, -24399.568708540304, -24399.28902347361, -24399.02307809724, -24398.770027960498, -24398.5291018207, -24398.29959221782, -24398.080847650723, -24397.872266037455, -24397.673289211285, -24397.483398257107, -24397.302109533768, -24397.12897125977, -24396.96356056386, -24396.80548092192, -24396.65435991648, -24396.50984726705, -24396.371613089286, -24396.239346348393, -24396.112753478286, -24395.991557143047, -24395.87549512104, -24395.764319295435, -24395.65779473728, -24395.55569886963, -24395.457820703024, -24395.36396013375, -24395.273927298087, -24395.187541976076, -24395.104633039904, -24395.02503794206, -24394.948602239525, -24394.875179150404, -24394.804629140104, -24394.736819534304, -24394.671624156486, -24394.60892298791, -24394.54860184818, -24394.490552094816, -24394.434670340357, -24394.38085818568, -24394.32902196837, -24394.27907252509, -24394.2309249669, -24394.184498466908, -24394.13971605902, -24394.096504447574, -24394.054793826814, -24394.01451770976, -24393.975612765862, -24393.938018667002, -24393.90167794124, -24393.866535833986, -24393.8325401761, -24393.79964125857, -24393.767791713435, -24393.736946400568, -24393.70706230007, -24393.678098409906, -24393.65001564862, -24393.622776762757]",False,2003-06,False,PeriodIndex,True,PeriodIndex,True
2003-08,2003-08-01,2003Q3,2,49,535,1,-24495.836817069416,100,"[-27002.695879709514, -25908.528115513174, -25572.065199830675, -25305.86575919562, -25084.913225438533, -24917.670069653544, -24806.68258310722, -24740.33980310926, -24701.52496408193, -24676.802053900206, -24658.74874872346, -24644.169555791028, -24631.915626034686, -24621.513529455304, -24612.29477804939, -24602.385250936204, -24586.685674105873, -24559.22133078141, -24533.073312911096, -24521.012662609395, -24516.384295624113, -24514.18494788211, -24512.748067118846, -24511.603521503675, -24510.61567531621, -24509.7362829344, -24508.941599300128, -24508.216544464256, -24507.550237147534, -24506.934368613354, -24506.362403544015, -24505.829097042642, -24505.33017090767, -24504.86208555782, -24504.42187469059, -24504.007023010665, -24503.61537438204, -24503.245061922255, -24502.894454185353, -24502.56211330401, -24502.246762124792, -24501.947258174856, -24501.662572864574, -24501.39177473648, -24501.13401586497, -24500.888520727265, -24500.654577026464, -24500.43152806656, -24500.21876637023, -24500.01572829772, -24499.821889477716, -24499.636760900983, -24499.459885558303, -24499.290835528427, -24499.12920944015, -24498.97463024742, -24498.826743268055, -24498.685214445482, -24498.549728800484, -24498.419989045513, -24498.295714339045, -24498.176639161036, -24498.062512293724, -24497.95309589443, -24497.848164649266, -24497.74750499792, -24497.65091442182, -24497.55820078812, -24497.469181744036, -24497.38368415599, -24497.30154358913, -24497.22260382343, -24497.14671640265, -24497.073740213484, -24497.003541091857, -24496.935991454397, -24496.870969952688, -24496.808361148585, -24496.748055208984, -24496.68994761841, -24496.633938908217, -24496.579934401172, -24496.527843970245, -24496.477581810814, -24496.42906622516, -24496.382219418592, -24496.336967306514, -24496.293239331455, -24496.250968289824, -24496.210090167573, -24496.17054398427, -24496.132271645147, -24496.09521780064, -24496.059329712996, -24496.024557129538, -24495.990852162344, -24495.958169173733, -24495.926464667573, -24495.895697185875, -24495.865827210444, -24495.836817069416]",False,2003-07,False,PeriodIndex,True,PeriodIndex,True
2003-09,2003-09-01,2003Q3,3,49,536,1,-24541.47730062297,100,"[-27050.273919134277, -25954.07372659319, -25617.3240661968, -25351.350629027307, -25130.830220546068, -24963.922847873786, -24853.097003172814, -24786.82457066288, -24748.05042327004, -24723.329824827815, -24705.196713520316, -24690.37524078692, -24677.529425204943, -24665.658233188406, -24652.42112647519, -24631.70484179721, -24600.544082548695, -24576.928312793898, -24566.888061608195, -24562.722593910985, -24560.48967262075, -24558.933992074173, -24557.684204647994, -24556.617147627963, -24555.679812698883, -24554.842498519567, -24554.085625375898, -24553.39519745454, -24552.760767122032, -24552.174310314254, -24551.629527540288, -24551.121381226993, -24550.645777410013, -24550.199340489868, -24549.779250237923, -24549.38312165544, -24549.00891504168, -24548.654867783334, -24548.31944202193, -24548.001284088852, -24547.699192764383, -24547.412094220555, -24547.13902207216, -24546.879101363797, -24546.631535612447, -24546.39559623931, -24546.170613882532, -24545.95597120103, -24545.751096867672, -24545.555460517837, -24545.368568470054, -24545.189960074804, -24545.019204577602, -24544.85589840586, -24544.6996628071, -24544.55014178039, -24544.4070002538, -24544.26992247, -24544.13861054821, -24544.012783197337, -24543.89217455872, -24543.776533161086, -24543.66562097283, -24543.559212539338, -24543.45709419503, -24543.359063341013, -24543.2649277812, -24543.174505110106, -24543.08762214692, -24543.004114411196, -24542.923825635804, -24542.84660731359, -24542.772318274718, -24542.70082429174, -24542.631997710065, -24542.565717101606, -24542.50186693978, -24542.440337294007, -24542.381023542344, -24542.32382610078, -24542.26865016798, -24542.21540548442, -24542.164006104897, -24542.114370183415, -24542.066419769762, -24542.02008061696, -24541.975281998835, -24541.93195653721, -24541.890040038023, -24541.849471335867, -24541.810192146542, -24541.77214692704, -24541.73528274256, -24541.699549140285, -24541.66489802935, -24541.6312835669, -24541.598662049648, -24541.566991810876, -24541.53623312249, -24541.5063481018, -24541.47730062297]",False,2003-08,False,PeriodIndex,True,PeriodIndex,True
2003-10,2003-10-01,2003Q4,1,49,537,1,-24586.98530787842,100,"[-27101.083896386845, -26003.590173572356, -25666.426546927643, -25399.730143963094, -25178.201178407115, -25010.392804985815, -24899.131421569386, -24832.774735816274, -24793.96619038795, -24769.13245389785, -24750.82004156078, -24735.787346079127, -24722.69722468631, -24710.4436760463, -24696.2935904524, -24673.61320265333, -24641.928172488304, -24620.44821110341, -24611.580081204786, -24607.78507981851, -24605.658820985016, -24604.138243450867, -24602.905179601083, -24601.84978929047, -24600.922381598164, -24600.09416690597, -24599.345874836497, -24598.663644574175, -24598.037099919467, -24597.458259317078, -24596.920850596514, -24596.419854873264, -24595.951191712444, -24595.511495829793, -24595.097955230376, -24594.708191752332, -24594.34017156507, -24593.992137240093, -24593.662555609066, -24593.350077332507, -24593.053505254575, -24592.77176941579, -24592.50390715564, -24592.24904713742, -24592.006396418743, -24591.775229903516, -24591.554881668962, -24591.344737779167, -24591.144230284503, -24590.952832173673, -24590.770053095817, -24590.59543570921, -24590.42855254306, -24590.269003282236, -24590.116412402826, -24589.97042710038, -24589.83071546429, -24589.696964859737, -24589.5688804865, -24589.446184088716, -24589.328612794554, -24589.21591806827, -24589.10786475974, -24589.004230239458, -24588.904803608362, -24588.809384973632, -24588.717784783163, -24588.62982321205, -24588.545329595625, -24588.464141904245, -24588.3861062557, -24588.311076461567, -24588.238913604357, -24588.169485642684, -24588.10266704196, -24588.038338428538, -24587.976386265174, -24587.91670254635, -24587.859184511697, -24587.80373437625, -24587.75025907628, -24587.69867002953, -24587.648882908987, -24587.600817429015, -24587.554397143293, -24587.509549253642, -24587.466204428994, -24587.42429663404, -24587.383762966812, -24587.34454350474, -24587.306581158584, -24587.26982153395, -24587.23421279987, -24587.199705563886, -24587.16625275359, -24587.133809504056, -24587.102333050876, -24587.07178262849, -24587.04211937364, -24587.01330623351, -24586.98530787842]",False,2003-09,False,PeriodIndex,True,PeriodIndex,True
2003-11,2003-11-01,2003Q4,2,49,538,1,-24622.599820417436,100,"[-27149.63603835627, -26046.322612899054, -25708.838287893603, -25441.818467136894, -25219.46153727471, -25050.307947320805, -24937.46946745475, -24869.767564865077, -24830.06643928858, -24804.668892083348, -24785.78453191625, -24769.594301450878, -24753.362242020587, -24732.125086565793, -24699.90046016992, -24669.44846815447, -24654.283473159096, -24647.660674481354, -24644.18807486821, -24641.92358787819, -24640.228265628637, -24638.864785407648, -24637.722863280567, -24636.740340471904, -24635.877953124924, -24635.109278099037, -24634.415776181057, -24633.784005790643, -24633.203945633486, -24632.667941907806, -24632.17002515946, -24631.705453326766, -24631.270397405795, -24630.861719751323, -24630.4768143, -24630.113489293788, -24629.769879859625, -24629.444381982663, -24629.135602065217, -24628.842317999464, -24628.563448845278, -24628.298031004597, -24628.04519934412, -24627.80417211686, -24627.574238821915, -24627.354750352843, -24627.145110940113, -24626.944771509818, -24626.753224167056, -24626.56999757864, -24626.394653079067, -24626.226781362377, -24626.06599965119, -24625.91194925728, -24625.764293465163, -24625.62271568404, -24625.486917824095, -24625.35661886138, -24625.231553562448, -24625.111471344906, -24624.996135254412, -24624.88532104191, -24624.778816327856, -24624.676419842028, -24624.577940729545, -24624.483197915226, -24624.392019519433, -24624.304242319635, -24624.219711252765, -24624.138278954197, -24624.059805329467, -24623.984157155697, -24623.911207709905, -24623.840836421696, -24623.77292854819, -24623.70737486938, -24623.644071402054, -24623.58291913097, -24623.523823755888, -24623.466695453113, -24623.411448650717, -24623.358001816312, -24623.306277256517, -24623.256200927328, -24623.207702254753, -24623.160713964855, -24623.115171922902, -24623.07101498071, -24623.028184831946, -24622.98662587486, -24622.946285081925, -24622.90711187606, -24622.869058013086, -24622.83207746999, -24622.796126338802, -24622.76116272556, -24622.727146654444, -24622.694039976373, -24622.661806282245, -24622.63041082028, -24622.599820417436]",False,2003-10,False,PeriodIndex,True,PeriodIndex,True
